luts/high-contrast.cube
# High Contrast
TITLE "High Contrast"
LUT_3D_SIZE 9
0.000000 0.000000 0.000000
0.000000 0.000000 0.476371
0.000000 0.000000 0.680792
0.000000 0.000000 0.827848
0.000000 0.000000 0.946814
0.000000 0.000000 1.000000
0.000000 0.000000 1.000000
0.000000 0.000000 1.000000
0.000000 0.000000 1.000000
0.000000 0.476371 0.000000
0.000000 0.476371 0.476371
0.000000 0.476371 0.680792
0.000000 0.476371 0.827848
0.000000 0.476371 0.946814
0.000000 0.476371 1.000000
0.000000 0.476371 1.000000
0.000000 0.476371 1.000000
0.000000 0.476371 1.000000
0.000000 0.680792 0.000000
0.000000 0.680792 0.476371
0.000000 0.680792 0.680792
0.000000 0.680792 0.827848
0.000000 0.680792 0.946814
0.000000 0.680792 1.000000
0.000000 0.680792 1.000000
0.000000 0.680792 1.000000
0.000000 0.680792 1.000000
0.000000 0.827848 0.000000
0.000000 0.827848 0.476371
0.000000 0.827848 0.680792
0.000000 0.827848 0.827848
0.000000 0.827848 0.946814
0.000000 0.827848 1.000000
0.000000 0.827848 1.000000
0.000000 0.827848 1.000000
0.000000 0.827848 1.000000
0.000000 0.946814 0.000000
0.000000 0.946814 0.476371
0.000000 0.946814 0.680792
0.000000 0.946814 0.827848
0.000000 0.946814 0.946814
0.000000 0.946814 1.000000
0.000000 0.946814 1.000000
0.000000 0.946814 1.000000
0.000000 0.946814 1.000000
0.000000 1.000000 0.000000
0.000000 1.000000 0.476371
0.000000 1.000000 0.680792
0.000000 1.000000 0.827848
0.000000 1.000000 0.946814
0.000000 1.000000 1.000000
0.000000 1.000000 1.000000
0.000000 1.000000 1.000000
0.000000 1.000000 1.000000
0.000000 1.000000 0.000000
0.000000 1.000000 0.476371
0.000000 1.000000 0.680792
0.000000 1.000000 0.827848
0.000000 1.000000 0.946814
0.000000 1.000000 1.000000
0.000000 1.000000 1.000000
0.000000 1.000000 1.000000
0.000000 1.000000 1.000000
0.000000 1.000000 0.000000
0.000000 1.000000 0.476371
0.000000 1.000000 0.680792
0.000000 1.000000 0.827848
0.000000 1.000000 0.946814
0.000000 1.000000 1.000000
0.000000 1.000000 1.000000
0.000000 1.000000 1.000000
0.000000 1.000000 1.000000
0.000000 1.000000 0.000000
0.000000 1.000000 0.476371
0.000000 1.000000 0.680792
0.000000 1.000000 0.827848
0.000000 1.000000 0.946814
0.000000 1.000000 1.000000
0.000000 1.000000 1.000000
0.000000 1.000000 1.000000
0.000000 1.000000 1.000000
0.476371 0.000000 0.000000
0.476371 0.000000 0.476371
0.476371 0.000000 0.680792
0.476371 0.000000 0.827848
0.476371 0.000000 0.946814
0.476371 0.000000 1.000000
0.476371 0.000000 1.000000
0.476371 0.000000 1.000000
0.476371 0.000000 1.000000
0.476371 0.476371 0.000000
0.476371 0.476371 0.476371
0.476371 0.476371 0.680792
0.476371 0.476371 0.827848
0.476371 0.476371 0.946814
0.476371 0.476371 1.000000
0.476371 0.476371 1.000000
0.476371 0.476371 1.000000
0.476371 0.476371 1.000000
0.476371 0.680792 0.000000
0.476371 0.680792 0.476371
0.476371 0.680792 0.680792
0.476371 0.680792 0.827848
0.476371 0.680792 0.946814
0.476371 0.680792 1.000000
0.476371 0.680792 1.000000
0.476371 0.680792 1.000000
0.476371 0.680792 1.000000
0.476371 0.827848 0.000000
0.476371 0.827848 0.476371
0.476371 0.827848 0.680792
0.476371 0.827848 0.827848
0.476371 0.827848 0.946814
0.476371 0.827848 1.000000
0.476371 0.827848 1.000000
0.476371 0.827848 1.000000
0.476371 0.827848 1.000000
0.476371 0.946814 0.000000
0.476371 0.946814 0.476371
0.476371 0.946814 0.680792
0.476371 0.946814 0.827848
0.476371 0.946814 0.946814
0.476371 0.946814 1.000000
0.476371 0.946814 1.000000
0.476371 0.946814 1.000000
0.476371 0.946814 1.000000
0.476371 1.000000 0.000000
0.476371 1.000000 0.476371
0.476371 1.000000 0.680792
0.476371 1.000000 0.827848
0.476371 1.000000 0.946814
0.476371 1.000000 1.000000
0.476371 1.000000 1.000000
0.476371 1.000000 1.000000
0.476371 1.000000 1.000000
0.476371 1.000000 0.000000
0.476371 1.000000 0.476371
0.476371 1.000000 0.680792
0.476371 1.000000 0.827848
0.476371 1.000000 0.946814
0.476371 1.000000 1.000000
0.476371 1.000000 1.000000
0.476371 1.000000 1.000000
0.476371 1.000000 1.000000
0.476371 1.000000 0.000000
0.476371 1.000000 0.476371
0.476371 1.000000 0.680792
0.476371 1.000000 0.827848
0.476371 1.000000 0.946814
0.476371 1.000000 1.000000
0.476371 1.000000 1.000000
0.476371 1.000000 1.000000
0.476371 1.000000 1.000000
0.476371 1.000000 0.000000
0.476371 1.000000 0.476371
0.476371 1.000000 0.680792
0.476371 1.000000 0.827848
0.476371 1.000000 0.946814
0.476371 1.000000 1.000000
0.476371 1.000000 1.000000
0.476371 1.000000 1.000000
0.476371 1.000000 1.000000
0.680792 0.000000 0.000000
0.680792 0.000000 0.476371
0.680792 0.000000 0.680792
0.680792 0.000000 0.827848
0.680792 0.000000 0.946814
0.680792 0.000000 1.000000
0.680792 0.000000 1.000000
0.680792 0.000000 1.000000
0.680792 0.000000 1.000000
0.680792 0.476371 0.000000
0.680792 0.476371 0.476371
0.680792 0.476371 0.680792
0.680792 0.476371 0.827848
0.680792 0.476371 0.946814
0.680792 0.476371 1.000000
0.680792 0.476371 1.000000
0.680792 0.476371 1.000000
0.680792 0.476371 1.000000
0.680792 0.680792 0.000000
0.680792 0.680792 0.476371
0.680792 0.680792 0.680792
0.680792 0.680792 0.827848
0.680792 0.680792 0.946814
0.680792 0.680792 1.000000
0.680792 0.680792 1.000000
0.680792 0.680792 1.000000
0.680792 0.680792 1.000000
0.680792 0.827848 0.000000
0.680792 0.827848 0.476371
0.680792 0.827848 0.680792
0.680792 0.827848 0.827848
0.680792 0.827848 0.946814
0.680792 0.827848 1.000000
0.680792 0.827848 1.000000
0.680792 0.827848 1.000000
0.680792 0.827848 1.000000
0.680792 0.946814 0.000000
0.680792 0.946814 0.476371
0.680792 0.946814 0.680792
0.680792 0.946814 0.827848
0.680792 0.946814 0.946814
0.680792 0.946814 1.000000
0.680792 0.946814 1.000000
0.680792 0.946814 1.000000
0.680792 0.946814 1.000000
0.680792 1.000000 0.000000
0.680792 1.000000 0.476371
0.680792 1.000000 0.680792
0.680792 1.000000 0.827848
0.680792 1.000000 0.946814
0.680792 1.000000 1.000000
0.680792 1.000000 1.000000
0.680792 1.000000 1.000000
0.680792 1.000000 1.000000
0.680792 1.000000 0.000000
0.680792 1.000000 0.476371
0.680792 1.000000 0.680792
0.680792 1.000000 0.827848
0.680792 1.000000 0.946814
0.680792 1.000000 1.000000
0.680792 1.000000 1.000000
0.680792 1.000000 1.000000
0.680792 1.000000 1.000000
0.680792 1.000000 0.000000
0.680792 1.000000 0.476371
0.680792 1.000000 0.680792
0.680792 1.000000 0.827848
0.680792 1.000000 0.946814
0.680792 1.000000 1.000000
0.680792 1.000000 1.000000
0.680792 1.000000 1.000000
0.680792 1.000000 1.000000
0.680792 1.000000 0.000000
0.680792 1.000000 0.476371
0.680792 1.000000 0.680792
0.680792 1.000000 0.827848
0.680792 1.000000 0.946814
0.680792 1.000000 1.000000
0.680792 1.000000 1.000000
0.680792 1.000000 1.000000
0.680792 1.000000 1.000000
0.827848 0.000000 0.000000
0.827848 0.000000 0.476371
0.827848 0.000000 0.680792
0.827848 0.000000 0.827848
0.827848 0.000000 0.946814
0.827848 0.000000 1.000000
0.827848 0.000000 1.000000
0.827848 0.000000 1.000000
0.827848 0.000000 1.000000
0.827848 0.476371 0.000000
0.827848 0.476371 0.476371
0.827848 0.476371 0.680792
0.827848 0.476371 0.827848
0.827848 0.476371 0.946814
0.827848 0.476371 1.000000
0.827848 0.476371 1.000000
0.827848 0.476371 1.000000
0.827848 0.476371 1.000000
0.827848 0.680792 0.000000
0.827848 0.680792 0.476371
0.827848 0.680792 0.680792
0.827848 0.680792 0.827848
0.827848 0.680792 0.946814
0.827848 0.680792 1.000000
0.827848 0.680792 1.000000
0.827848 0.680792 1.000000
0.827848 0.680792 1.000000
0.827848 0.827848 0.000000
0.827848 0.827848 0.476371
0.827848 0.827848 0.680792
0.827848 0.827848 0.827848
0.827848 0.827848 0.946814
0.827848 0.827848 1.000000
0.827848 0.827848 1.000000
0.827848 0.827848 1.000000
0.827848 0.827848 1.000000
0.827848 0.946814 0.000000
0.827848 0.946814 0.476371
0.827848 0.946814 0.680792
0.827848 0.946814 0.827848
0.827848 0.946814 0.946814
0.827848 0.946814 1.000000
0.827848 0.946814 1.000000
0.827848 0.946814 1.000000
0.827848 0.946814 1.000000
0.827848 1.000000 0.000000
0.827848 1.000000 0.476371
0.827848 1.000000 0.680792
0.827848 1.000000 0.827848
0.827848 1.000000 0.946814
0.827848 1.000000 1.000000
0.827848 1.000000 1.000000
0.827848 1.000000 1.000000
0.827848 1.000000 1.000000
0.827848 1.000000 0.000000
0.827848 1.000000 0.476371
0.827848 1.000000 0.680792
0.827848 1.000000 0.827848
0.827848 1.000000 0.946814
0.827848 1.000000 1.000000
0.827848 1.000000 1.000000
0.827848 1.000000 1.000000
0.827848 1.000000 1.000000
0.827848 1.000000 0.000000
0.827848 1.000000 0.476371
0.827848 1.000000 0.680792
0.827848 1.000000 0.827848
0.827848 1.000000 0.946814
0.827848 1.000000 1.000000
0.827848 1.000000 1.000000
0.827848 1.000000 1.000000
0.827848 1.000000 1.000000
0.827848 1.000000 0.000000
0.827848 1.000000 0.476371
0.827848 1.000000 0.680792
0.827848 1.000000 0.827848
0.827848 1.000000 0.946814
0.827848 1.000000 1.000000
0.827848 1.000000 1.000000
0.827848 1.000000 1.000000
0.827848 1.000000 1.000000
0.946814 0.000000 0.000000
0.946814 0.000000 0.476371
0.946814 0.000000 0.680792
0.946814 0.000000 0.827848
0.946814 0.000000 0.946814
0.946814 0.000000 1.000000
0.946814 0.000000 1.000000
0.946814 0.000000 1.000000
0.946814 0.000000 1.000000
0.946814 0.476371 0.000000
0.946814 0.476371 0.476371
0.946814 0.476371 0.680792
0.946814 0.476371 0.827848
0.946814 0.476371 0.946814
0.946814 0.476371 1.000000
0.946814 0.476371 1.000000
0.946814 0.476371 1.000000
0.946814 0.476371 1.000000
0.946814 0.680792 0.000000
0.946814 0.680792 0.476371
0.946814 0.680792 0.680792
0.946814 0.680792 0.827848
0.946814 0.680792 0.946814
0.946814 0.680792 1.000000
0.946814 0.680792 1.000000
0.946814 0.680792 1.000000
0.946814 0.680792 1.000000
0.946814 0.827848 0.000000
0.946814 0.827848 0.476371
0.946814 0.827848 0.680792
0.946814 0.827848 0.827848
0.946814 0.827848 0.946814
0.946814 0.827848 1.000000
0.946814 0.827848 1.000000
0.946814 0.827848 1.000000
0.946814 0.827848 1.000000
0.946814 0.946814 0.000000
0.946814 0.946814 0.476371
0.946814 0.946814 0.680792
0.946814 0.946814 0.827848
0.946814 0.946814 0.946814
0.946814 0.946814 1.000000
0.946814 0.946814 1.000000
0.946814 0.946814 1.000000
0.946814 0.946814 1.000000
0.946814 1.000000 0.000000
0.946814 1.000000 0.476371
0.946814 1.000000 0.680792
0.946814 1.000000 0.827848
0.946814 1.000000 0.946814
0.946814 1.000000 1.000000
0.946814 1.000000 1.000000
0.946814 1.000000 1.000000
0.946814 1.000000 1.000000
0.946814 1.000000 0.000000
0.946814 1.000000 0.476371
0.946814 1.000000 0.680792
0.946814 1.000000 0.827848
0.946814 1.000000 0.946814
0.946814 1.000000 1.000000
0.946814 1.000000 1.000000
0.946814 1.000000 1.000000
0.946814 1.000000 1.000000
0.946814 1.000000 0.000000
0.946814 1.000000 0.476371
0.946814 1.000000 0.680792
0.946814 1.000000 0.827848
0.946814 1.000000 0.946814
0.946814 1.000000 1.000000
0.946814 1.000000 1.000000
0.946814 1.000000 1.000000
0.946814 1.000000 1.000000
0.946814 1.000000 0.000000
0.946814 1.000000 0.476371
0.946814 1.000000 0.680792
0.946814 1.000000 0.827848
0.946814 1.000000 0.946814
0.946814 1.000000 1.000000
0.946814 1.000000 1.000000
0.946814 1.000000 1.000000
0.946814 1.000000 1.000000
1.000000 0.000000 0.000000
1.000000 0.000000 0.476371
1.000000 0.000000 0.680792
1.000000 0.000000 0.827848
1.000000 0.000000 0.946814
1.000000 0.000000 1.000000
1.000000 0.000000 1.000000
1.000000 0.000000 1.000000
1.000000 0.000000 1.000000
1.000000 0.476371 0.000000
1.000000 0.476371 0.476371
1.000000 0.476371 0.680792
1.000000 0.476371 0.827848
1.000000 0.476371 0.946814
1.000000 0.476371 1.000000
1.000000 0.476371 1.000000
1.000000 0.476371 1.000000
1.000000 0.476371 1.000000
1.000000 0.680792 0.000000
1.000000 0.680792 0.476371
1.000000 0.680792 0.680792
1.000000 0.680792 0.827848
1.000000 0.680792 0.946814
1.000000 0.680792 1.000000
1.000000 0.680792 1.000000
1.000000 0.680792 1.000000
1.000000 0.680792 1.000000
1.000000 0.827848 0.000000
1.000000 0.827848 0.476371
1.000000 0.827848 0.680792
1.000000 0.827848 0.827848
1.000000 0.827848 0.946814
1.000000 0.827848 1.000000
1.000000 0.827848 1.000000
1.000000 0.827848 1.000000
1.000000 0.827848 1.000000
1.000000 0.946814 0.000000
1.000000 0.946814 0.476371
1.000000 0.946814 0.680792
1.000000 0.946814 0.827848
1.000000 0.946814 0.946814
1.000000 0.946814 1.000000
1.000000 0.946814 1.000000
1.000000 0.946814 1.000000
1.000000 0.946814 1.000000
1.000000 1.000000 0.000000
1.000000 1.000000 0.476371
1.000000 1.000000 0.680792
1.000000 1.000000 0.827848
1.000000 1.000000 0.946814
1.000000 1.000000 1.000000
1.000000 1.000000 1.000000
1.000000 1.000000 1.000000
1.000000 1.000000 1.000000
1.000000 1.000000 0.000000
1.000000 1.000000 0.476371
1.000000 1.000000 0.680792
1.000000 1.000000 0.827848
1.000000 1.000000 0.946814
1.000000 1.000000 1.000000
1.000000 1.000000 1.000000
1.000000 1.000000 1.000000
1.000000 1.000000 1.000000
1.000000 1.000000 0.000000
1.000000 1.000000 0.476371
1.000000 1.000000 0.680792
1.000000 1.000000 0.827848
1.000000 1.000000 0.946814
1.000000 1.000000 1.000000
1.000000 1.000000 1.000000
1.000000 1.000000 1.000000
1.000000 1.000000 1.000000
1.000000 1.000000 0.000000
1.000000 1.000000 0.476371
1.000000 1.000000 0.680792
1.000000 1.000000 0.827848
1.000000 1.000000 0.946814
1.000000 1.000000 1.000000
1.000000 1.000000 1.000000
1.000000 1.000000 1.000000
1.000000 1.000000 1.000000
1.000000 0.000000 0.000000
1.000000 0.000000 0.476371
1.000000 0.000000 0.680792
1.000000 0.000000 0.827848
1.000000 0.000000 0.946814
1.000000 0.000000 1.000000
1.000000 0.000000 1.000000
1.000000 0.000000 1.000000
1.000000 0.000000 1.000000
1.000000 0.476371 0.000000
1.000000 0.476371 0.476371
1.000000 0.476371 0.680792
1.000000 0.476371 0.827848
1.000000 0.476371 0.946814
1.000000 0.476371 1.000000
1.000000 0.476371 1.000000
1.000000 0.476371 1.000000
1.000000 0.476371 1.000000
1.000000 0.680792 0.000000
1.000000 0.680792 0.476371
1.000000 0.680792 0.680792
1.000000 0.680792 0.827848
1.000000 0.680792 0.946814
1.000000 0.680792 1.000000
1.000000 0.680792 1.000000
1.000000 0.680792 1.000000
1.000000 0.680792 1.000000
1.000000 0.827848 0.000000
1.000000 0.827848 0.476371
1.000000 0.827848 0.680792
1.000000 0.827848 0.827848
1.000000 0.827848 0.946814
1.000000 0.827848 1.000000
1.000000 0.827848 1.000000
1.000000 0.827848 1.000000
1.000000 0.827848 1.000000
1.000000 0.946814 0.000000
1.000000 0.946814 0.476371
1.000000 0.946814 0.680792
1.000000 0.946814 0.827848
1.000000 0.946814 0.946814
1.000000 0.946814 1.000000
1.000000 0.946814 1.000000
1.000000 0.946814 1.000000
1.000000 0.946814 1.000000
1.000000 1.000000 0.000000
1.000000 1.000000 0.476371
1.000000 1.000000 0.680792
1.000000 1.000000 0.827848
1.000000 1.000000 0.946814
1.000000 1.000000 1.000000
1.000000 1.000000 1.000000
1.000000 1.000000 1.000000
1.000000 1.000000 1.000000
1.000000 1.000000 0.000000
1.000000 1.000000 0.476371
1.000000 1.000000 0.680792
1.000000 1.000000 0.827848
1.000000 1.000000 0.946814
1.000000 1.000000 1.000000
1.000000 1.000000 1.000000
1.000000 1.000000 1.000000
1.000000 1.000000 1.000000
1.000000 1.000000 0.000000
1.000000 1.000000 0.476371
1.000000 1.000000 0.680792
1.000000 1.000000 0.827848
1.000000 1.000000 0.946814
1.000000 1.000000 1.000000
1.000000 1.000000 1.000000
1.000000 1.000000 1.000000
1.000000 1.000000 1.000000
1.000000 1.000000 0.000000
1.000000 1.000000 0.476371
1.000000 1.000000 0.680792
1.000000 1.000000 0.827848
1.000000 1.000000 0.946814
1.000000 1.000000 1.000000
1.000000 1.000000 1.000000
1.000000 1.000000 1.000000
1.000000 1.000000 1.000000
1.000000 0.000000 0.000000
1.000000 0.000000 0.476371
1.000000 0.000000 0.680792
1.000000 0.000000 0.827848
1.000000 0.000000 0.946814
1.000000 0.000000 1.000000
1.000000 0.000000 1.000000
1.000000 0.000000 1.000000
1.000000 0.000000 1.000000
1.000000 0.476371 0.000000
1.000000 0.476371 0.476371
1.000000 0.476371 0.680792
1.000000 0.476371 0.827848
1.000000 0.476371 0.946814
1.000000 0.476371 1.000000
1.000000 0.476371 1.000000
1.000000 0.476371 1.000000
1.000000 0.476371 1.000000
1.000000 0.680792 0.000000
1.000000 0.680792 0.476371
1.000000 0.680792 0.680792
1.000000 0.680792 0.827848
1.000000 0.680792 0.946814
1.000000 0.680792 1.000000
1.000000 0.680792 1.000000
1.000000 0.680792 1.000000
1.000000 0.680792 1.000000
1.000000 0.827848 0.000000
1.000000 0.827848 0.476371
1.000000 0.827848 0.680792
1.000000 0.827848 0.827848
1.000000 0.827848 0.946814
1.000000 0.827848 1.000000
1.000000 0.827848 1.000000
1.000000 0.827848 1.000000
1.000000 0.827848 1.000000
1.000000 0.946814 0.000000
1.000000 0.946814 0.476371
1.000000 0.946814 0.680792
1.000000 0.946814 0.827848
1.000000 0.946814 0.946814
1.000000 0.946814 1.000000
1.000000 0.946814 1.000000
1.000000 0.946814 1.000000
1.000000 0.946814 1.000000
1.000000 1.000000 0.000000
1.000000 1.000000 0.476371
1.000000 1.000000 0.680792
1.000000 1.000000 0.827848
1.000000 1.000000 0.946814
1.000000 1.000000 1.000000
1.000000 1.000000 1.000000
1.000000 1.000000 1.000000
1.000000 1.000000 1.000000
1.000000 1.000000 0.000000
1.000000 1.000000 0.476371
1.000000 1.000000 0.680792
1.000000 1.000000 0.827848
1.000000 1.000000 0.946814
1.000000 1.000000 1.000000
1.000000 1.000000 1.000000
1.000000 1.000000 1.000000
1.000000 1.000000 1.000000
1.000000 1.000000 0.000000
1.000000 1.000000 0.476371
1.000000 1.000000 0.680792
1.000000 1.000000 0.827848
1.000000 1.000000 0.946814
1.000000 1.000000 1.000000
1.000000 1.000000 1.000000
1.000000 1.000000 1.000000
1.000000 1.000000 1.000000
1.000000 1.000000 0.000000
1.000000 1.000000 0.476371
1.000000 1.000000 0.680792
1.000000 1.000000 0.827848
1.000000 1.000000 0.946814
1.000000 1.000000 1.000000
1.000000 1.000000 1.000000
1.000000 1.000000 1.000000
1.000000 1.000000 1.000000
1.000000 0.000000 0.000000
1.000000 0.000000 0.476371
1.000000 0.000000 0.680792
1.000000 0.000000 0.827848
1.000000 0.000000 0.946814
1.000000 0.000000 1.000000
1.000000 0.000000 1.000000
1.000000 0.000000 1.000000
1.000000 0.000000 1.000000
1.000000 0.476371 0.000000
1.000000 0.476371 0.476371
1.000000 0.476371 0.680792
1.000000 0.476371 0.827848
1.000000 0.476371 0.946814
1.000000 0.476371 1.000000
1.000000 0.476371 1.000000
1.000000 0.476371 1.000000
1.000000 0.476371 1.000000
1.000000 0.680792 0.000000
1.000000 0.680792 0.476371
1.000000 0.680792 0.680792
1.000000 0.680792 0.827848
1.000000 0.680792 0.946814
1.000000 0.680792 1.000000
1.000000 0.680792 1.000000
1.000000 0.680792 1.000000
1.000000 0.680792 1.000000
1.000000 0.827848 0.000000
1.000000 0.827848 0.476371
1.000000 0.827848 0.680792
1.000000 0.827848 0.827848
1.000000 0.827848 0.946814
1.000000 0.827848 1.000000
1.000000 0.827848 1.000000
1.000000 0.827848 1.000000
1.000000 0.827848 1.000000
1.000000 0.946814 0.000000
1.000000 0.946814 0.476371
1.000000 0.946814 0.680792
1.000000 0.946814 0.827848
1.000000 0.946814 0.946814
1.000000 0.946814 1.000000
1.000000 0.946814 1.000000
1.000000 0.946814 1.000000
1.000000 0.946814 1.000000
1.000000 1.000000 0.000000
1.000000 1.000000 0.476371
1.000000 1.000000 0.680792
1.000000 1.000000 0.827848
1.000000 1.000000 0.946814
1.000000 1.000000 1.000000
1.000000 1.000000 1.000000
1.000000 1.000000 1.000000
1.000000 1.000000 1.000000
1.000000 1.000000 0.000000
1.000000 1.000000 0.476371
1.000000 1.000000 0.680792
1.000000 1.000000 0.827848
1.000000 1.000000 0.946814
1.000000 1.000000 1.000000
1.000000 1.000000 1.000000
1.000000 1.000000 1.000000
1.000000 1.000000 1.000000
1.000000 1.000000 0.000000
1.000000 1.000000 0.476371
1.000000 1.000000 0.680792
1.000000 1.000000 0.827848
1.000000 1.000000 0.946814
1.000000 1.000000 1.000000
1.000000 1.000000 1.000000
1.000000 1.000000 1.000000
1.000000 1.000000 1.000000
1.000000 1.000000 0.000000
1.000000 1.000000 0.476371
1.000000 1.000000 0.680792
1.000000 1.000000 0.827848
1.000000 1.000000 0.946814
1.000000 1.000000 1.000000
1.000000 1.000000 1.000000
1.000000 1.000000 1.000000
1.000000 1.000000 1.000000
