luts/high-contrast.cube
# High Contrast
TITLE "High Contrast"
LUT_3D_SIZE 5
0.000000 0.000000 0.000000
0.000000 0.000000 0.680792
0.000000 0.000000 0.946814
0.000000 0.000000 1.000000
0.000000 0.000000 1.000000
0.000000 0.680792 0.000000
0.000000 0.680792 0.680792
0.000000 0.680792 0.946814
0.000000 0.680792 1.000000
0.000000 0.680792 1.000000
0.000000 0.946814 0.000000
0.000000 0.946814 0.680792
0.000000 0.946814 0.946814
0.000000 0.946814 1.000000
0.000000 0.946814 1.000000
0.000000 1.000000 0.000000
0.000000 1.000000 0.680792
0.000000 1.000000 0.946814
0.000000 1.000000 1.000000
0.000000 1.000000 1.000000
0.000000 1.000000 0.000000
0.000000 1.000000 0.680792
0.000000 1.000000 0.946814
0.000000 1.000000 1.000000
0.000000 1.000000 1.000000
0.680792 0.000000 0.000000
0.680792 0.000000 0.680792
0.680792 0.000000 0.946814
0.680792 0.000000 1.000000
0.680792 0.000000 1.000000
0.680792 0.680792 0.000000
0.680792 0.680792 0.680792
0.680792 0.680792 0.946814
0.680792 0.680792 1.000000
0.680792 0.680792 1.000000
0.680792 0.946814 0.000000
0.680792 0.946814 0.680792
0.680792 0.946814 0.946814
0.680792 0.946814 1.000000
0.680792 0.946814 1.000000
0.680792 1.000000 0.000000
0.680792 1.000000 0.680792
0.680792 1.000000 0.946814
0.680792 1.000000 1.000000
0.680792 1.000000 1.000000
0.680792 1.000000 0.000000
0.680792 1.000000 0.680792
0.680792 1.000000 0.946814
0.680792 1.000000 1.000000
0.680792 1.000000 1.000000
0.946814 0.000000 0.000000
0.946814 0.000000 0.680792
0.946814 0.000000 0.946814
0.946814 0.000000 1.000000
0.946814 0.000000 1.000000
0.946814 0.680792 0.000000
0.946814 0.680792 0.680792
0.946814 0.680792 0.946814
0.946814 0.680792 1.000000
0.946814 0.680792 1.000000
0.946814 0.946814 0.000000
0.946814 0.946814 0.680792
0.946814 0.946814 0.946814
0.946814 0.946814 1.000000
0.946814 0.946814 1.000000
0.946814 1.000000 0.000000
0.946814 1.000000 0.680792
0.946814 1.000000 0.946814
0.946814 1.000000 1.000000
0.946814 1.000000 1.000000
0.946814 1.000000 0.000000
0.946814 1.000000 0.680792
0.946814 1.000000 0.946814
0.946814 1.000000 1.000000
0.946814 1.000000 1.000000
1.000000 0.000000 0.000000
1.000000 0.000000 0.680792
1.000000 0.000000 0.946814
1.000000 0.000000 1.000000
1.000000 0.000000 1.000000
1.000000 0.680792 0.000000
1.000000 0.680792 0.680792
1.000000 0.680792 0.946814
1.000000 0.680792 1.000000
1.000000 0.680792 1.000000
1.000000 0.946814 0.000000
1.000000 0.946814 0.680792
1.000000 0.946814 0.946814
1.000000 0.946814 1.000000
1.000000 0.946814 1.000000
1.000000 1.000000 0.000000
1.000000 1.000000 0.680792
1.000000 1.000000 0.946814
1.000000 1.000000 1.000000
1.000000 1.000000 1.000000
1.000000 1.000000 0.000000
1.000000 1.000000 0.680792
1.000000 1.000000 0.946814
1.000000 1.000000 1.000000
1.000000 1.000000 1.000000
1.000000 0.000000 0.000000
1.000000 0.000000 0.680792
1.000000 0.000000 0.946814
1.000000 0.000000 1.000000
1.000000 0.000000 1.000000
1.000000 0.680792 0.000000
1.000000 0.680792 0.680792
1.000000 0.680792 0.946814
1.000000 0.680792 1.000000
1.000000 0.680792 1.000000
1.000000 0.946814 0.000000
1.000000 0.946814 0.680792
1.000000 0.946814 0.946814
1.000000 0.946814 1.000000
1.000000 0.946814 1.000000
1.000000 1.000000 0.000000
1.000000 1.000000 0.680792
1.000000 1.000000 0.946814
1.000000 1.000000 1.000000
1.000000 1.000000 1.000000
1.000000 1.000000 0.000000
1.000000 1.000000 0.680792
1.000000 1.000000 0.946814
1.000000 1.000000 1.000000
1.000000 1.000000 1.000000
