luts/high-contrast.cube
# High Contrast
TITLE "High Contrast"
LUT_3D_SIZE 17
0.000000 0.000000 0.000000
0.000000 0.000000 0.319285
0.000000 0.000000 0.476371
0.000000 0.000000 0.589374
0.000000 0.000000 0.680792
0.000000 0.000000 0.758913
0.000000 0.000000 0.827848
0.000000 0.000000 0.889975
0.000000 0.000000 0.946814
0.000000 0.000000 0.999400
0.000000 0.000000 1.000000
0.000000 0.000000 1.000000
0.000000 0.000000 1.000000
0.000000 0.000000 1.000000
0.000000 0.000000 1.000000
0.000000 0.000000 1.000000
0.000000 0.000000 1.000000
0.000000 0.319285 0.000000
0.000000 0.319285 0.319285
0.000000 0.319285 0.476371
0.000000 0.319285 0.589374
0.000000 0.319285 0.680792
0.000000 0.319285 0.758913
0.000000 0.319285 0.827848
0.000000 0.319285 0.889975
0.000000 0.319285 0.946814
0.000000 0.319285 0.999400
0.000000 0.319285 1.000000
0.000000 0.319285 1.000000
0.000000 0.319285 1.000000
0.000000 0.319285 1.000000
0.000000 0.319285 1.000000
0.000000 0.319285 1.000000
0.000000 0.319285 1.000000
0.000000 0.476371 0.000000
0.000000 0.476371 0.319285
0.000000 0.476371 0.476371
0.000000 0.476371 0.589374
0.000000 0.476371 0.680792
0.000000 0.476371 0.758913
0.000000 0.476371 0.827848
0.000000 0.476371 0.889975
0.000000 0.476371 0.946814
0.000000 0.476371 0.999400
0.000000 0.476371 1.000000
0.000000 0.476371 1.000000
0.000000 0.476371 1.000000
0.000000 0.476371 1.000000
0.000000 0.476371 1.000000
0.000000 0.476371 1.000000
0.000000 0.476371 1.000000
0.000000 0.589374 0.000000
0.000000 0.589374 0.319285
0.000000 0.589374 0.476371
0.000000 0.589374 0.589374
0.000000 0.589374 0.680792
0.000000 0.589374 0.758913
0.000000 0.589374 0.827848
0.000000 0.589374 0.889975
0.000000 0.589374 0.946814
0.000000 0.589374 0.999400
0.000000 0.589374 1.000000
0.000000 0.589374 1.000000
0.000000 0.589374 1.000000
0.000000 0.589374 1.000000
0.000000 0.589374 1.000000
0.000000 0.589374 1.000000
0.000000 0.589374 1.000000
0.000000 0.680792 0.000000
0.000000 0.680792 0.319285
0.000000 0.680792 0.476371
0.000000 0.680792 0.589374
0.000000 0.680792 0.680792
0.000000 0.680792 0.758913
0.000000 0.680792 0.827848
0.000000 0.680792 0.889975
0.000000 0.680792 0.946814
0.000000 0.680792 0.999400
0.000000 0.680792 1.000000
0.000000 0.680792 1.000000
0.000000 0.680792 1.000000
0.000000 0.680792 1.000000
0.000000 0.680792 1.000000
0.000000 0.680792 1.000000
0.000000 0.680792 1.000000
0.000000 0.758913 0.000000
0.000000 0.758913 0.319285
0.000000 0.758913 0.476371
0.000000 0.758913 0.589374
0.000000 0.758913 0.680792
0.000000 0.758913 0.758913
0.000000 0.758913 0.827848
0.000000 0.758913 0.889975
0.000000 0.758913 0.946814
0.000000 0.758913 0.999400
0.000000 0.758913 1.000000
0.000000 0.758913 1.000000
0.000000 0.758913 1.000000
0.000000 0.758913 1.000000
0.000000 0.758913 1.000000
0.000000 0.758913 1.000000
0.000000 0.758913 1.000000
0.000000 0.827848 0.000000
0.000000 0.827848 0.319285
0.000000 0.827848 0.476371
0.000000 0.827848 0.589374
0.000000 0.827848 0.680792
0.000000 0.827848 0.758913
0.000000 0.827848 0.827848
0.000000 0.827848 0.889975
0.000000 0.827848 0.946814
0.000000 0.827848 0.999400
0.000000 0.827848 1.000000
0.000000 0.827848 1.000000
0.000000 0.827848 1.000000
0.000000 0.827848 1.000000
0.000000 0.827848 1.000000
0.000000 0.827848 1.000000
0.000000 0.827848 1.000000
0.000000 0.889975 0.000000
0.000000 0.889975 0.319285
0.000000 0.889975 0.476371
0.000000 0.889975 0.589374
0.000000 0.889975 0.680792
0.000000 0.889975 0.758913
0.000000 0.889975 0.827848
0.000000 0.889975 0.889975
0.000000 0.889975 0.946814
0.000000 0.889975 0.999400
0.000000 0.889975 1.000000
0.000000 0.889975 1.000000
0.000000 0.889975 1.000000
0.000000 0.889975 1.000000
0.000000 0.889975 1.000000
0.000000 0.889975 1.000000
0.000000 0.889975 1.000000
0.000000 0.946814 0.000000
0.000000 0.946814 0.319285
0.000000 0.946814 0.476371
0.000000 0.946814 0.589374
0.000000 0.946814 0.680792
0.000000 0.946814 0.758913
0.000000 0.946814 0.827848
0.000000 0.946814 0.889975
0.000000 0.946814 0.946814
0.000000 0.946814 0.999400
0.000000 0.946814 1.000000
0.000000 0.946814 1.000000
0.000000 0.946814 1.000000
0.000000 0.946814 1.000000
0.000000 0.946814 1.000000
0.000000 0.946814 1.000000
0.000000 0.946814 1.000000
0.000000 0.999400 0.000000
0.000000 0.999400 0.319285
0.000000 0.999400 0.476371
0.000000 0.999400 0.589374
0.000000 0.999400 0.680792
0.000000 0.999400 0.758913
0.000000 0.999400 0.827848
0.000000 0.999400 0.889975
0.000000 0.999400 0.946814
0.000000 0.999400 0.999400
0.000000 0.999400 1.000000
0.000000 0.999400 1.000000
0.000000 0.999400 1.000000
0.000000 0.999400 1.000000
0.000000 0.999400 1.000000
0.000000 0.999400 1.000000
0.000000 0.999400 1.000000
0.000000 1.000000 0.000000
0.000000 1.000000 0.319285
0.000000 1.000000 0.476371
0.000000 1.000000 0.589374
0.000000 1.000000 0.680792
0.000000 1.000000 0.758913
0.000000 1.000000 0.827848
0.000000 1.000000 0.889975
0.000000 1.000000 0.946814
0.000000 1.000000 0.999400
0.000000 1.000000 1.000000
0.000000 1.000000 1.000000
0.000000 1.000000 1.000000
0.000000 1.000000 1.000000
0.000000 1.000000 1.000000
0.000000 1.000000 1.000000
0.000000 1.000000 1.000000
0.000000 1.000000 0.000000
0.000000 1.000000 0.319285
0.000000 1.000000 0.476371
0.000000 1.000000 0.589374
0.000000 1.000000 0.680792
0.000000 1.000000 0.758913
0.000000 1.000000 0.827848
0.000000 1.000000 0.889975
0.000000 1.000000 0.946814
0.000000 1.000000 0.999400
0.000000 1.000000 1.000000
0.000000 1.000000 1.000000
0.000000 1.000000 1.000000
0.000000 1.000000 1.000000
0.000000 1.000000 1.000000
0.000000 1.000000 1.000000
0.000000 1.000000 1.000000
0.000000 1.000000 0.000000
0.000000 1.000000 0.319285
0.000000 1.000000 0.476371
0.000000 1.000000 0.589374
0.000000 1.000000 0.680792
0.000000 1.000000 0.758913
0.000000 1.000000 0.827848
0.000000 1.000000 0.889975
0.000000 1.000000 0.946814
0.000000 1.000000 0.999400
0.000000 1.000000 1.000000
0.000000 1.000000 1.000000
0.000000 1.000000 1.000000
0.000000 1.000000 1.000000
0.000000 1.000000 1.000000
0.000000 1.000000 1.000000
0.000000 1.000000 1.000000
0.000000 1.000000 0.000000
0.000000 1.000000 0.319285
0.000000 1.000000 0.476371
0.000000 1.000000 0.589374
0.000000 1.000000 0.680792
0.000000 1.000000 0.758913
0.000000 1.000000 0.827848
0.000000 1.000000 0.889975
0.000000 1.000000 0.946814
0.000000 1.000000 0.999400
0.000000 1.000000 1.000000
0.000000 1.000000 1.000000
0.000000 1.000000 1.000000
0.000000 1.000000 1.000000
0.000000 1.000000 1.000000
0.000000 1.000000 1.000000
0.000000 1.000000 1.000000
0.000000 1.000000 0.000000
0.000000 1.000000 0.319285
0.000000 1.000000 0.476371
0.000000 1.000000 0.589374
0.000000 1.000000 0.680792
0.000000 1.000000 0.758913
0.000000 1.000000 0.827848
0.000000 1.000000 0.889975
0.000000 1.000000 0.946814
0.000000 1.000000 0.999400
0.000000 1.000000 1.000000
0.000000 1.000000 1.000000
0.000000 1.000000 1.000000
0.000000 1.000000 1.000000
0.000000 1.000000 1.000000
0.000000 1.000000 1.000000
0.000000 1.000000 1.000000
0.000000 1.000000 0.000000
0.000000 1.000000 0.319285
0.000000 1.000000 0.476371
0.000000 1.000000 0.589374
0.000000 1.000000 0.680792
0.000000 1.000000 0.758913
0.000000 1.000000 0.827848
0.000000 1.000000 0.889975
0.000000 1.000000 0.946814
0.000000 1.000000 0.999400
0.000000 1.000000 1.000000
0.000000 1.000000 1.000000
0.000000 1.000000 1.000000
0.000000 1.000000 1.000000
0.000000 1.000000 1.000000
0.000000 1.000000 1.000000
0.000000 1.000000 1.000000
0.000000 1.000000 0.000000
0.000000 1.000000 0.319285
0.000000 1.000000 0.476371
0.000000 1.000000 0.589374
0.000000 1.000000 0.680792
0.000000 1.000000 0.758913
0.000000 1.000000 0.827848
0.000000 1.000000 0.889975
0.000000 1.000000 0.946814
0.000000 1.000000 0.999400
0.000000 1.000000 1.000000
0.000000 1.000000 1.000000
0.000000 1.000000 1.000000
0.000000 1.000000 1.000000
0.000000 1.000000 1.000000
0.000000 1.000000 1.000000
0.000000 1.000000 1.000000
0.319285 0.000000 0.000000
0.319285 0.000000 0.319285
0.319285 0.000000 0.476371
0.319285 0.000000 0.589374
0.319285 0.000000 0.680792
0.319285 0.000000 0.758913
0.319285 0.000000 0.827848
0.319285 0.000000 0.889975
0.319285 0.000000 0.946814
0.319285 0.000000 0.999400
0.319285 0.000000 1.000000
0.319285 0.000000 1.000000
0.319285 0.000000 1.000000
0.319285 0.000000 1.000000
0.319285 0.000000 1.000000
0.319285 0.000000 1.000000
0.319285 0.000000 1.000000
0.319285 0.319285 0.000000
0.319285 0.319285 0.319285
0.319285 0.319285 0.476371
0.319285 0.319285 0.589374
0.319285 0.319285 0.680792
0.319285 0.319285 0.758913
0.319285 0.319285 0.827848
0.319285 0.319285 0.889975
0.319285 0.319285 0.946814
0.319285 0.319285 0.999400
0.319285 0.319285 1.000000
0.319285 0.319285 1.000000
0.319285 0.319285 1.000000
0.319285 0.319285 1.000000
0.319285 0.319285 1.000000
0.319285 0.319285 1.000000
0.319285 0.319285 1.000000
0.319285 0.476371 0.000000
0.319285 0.476371 0.319285
0.319285 0.476371 0.476371
0.319285 0.476371 0.589374
0.319285 0.476371 0.680792
0.319285 0.476371 0.758913
0.319285 0.476371 0.827848
0.319285 0.476371 0.889975
0.319285 0.476371 0.946814
0.319285 0.476371 0.999400
0.319285 0.476371 1.000000
0.319285 0.476371 1.000000
0.319285 0.476371 1.000000
0.319285 0.476371 1.000000
0.319285 0.476371 1.000000
0.319285 0.476371 1.000000
0.319285 0.476371 1.000000
0.319285 0.589374 0.000000
0.319285 0.589374 0.319285
0.319285 0.589374 0.476371
0.319285 0.589374 0.589374
0.319285 0.589374 0.680792
0.319285 0.589374 0.758913
0.319285 0.589374 0.827848
0.319285 0.589374 0.889975
0.319285 0.589374 0.946814
0.319285 0.589374 0.999400
0.319285 0.589374 1.000000
0.319285 0.589374 1.000000
0.319285 0.589374 1.000000
0.319285 0.589374 1.000000
0.319285 0.589374 1.000000
0.319285 0.589374 1.000000
0.319285 0.589374 1.000000
0.319285 0.680792 0.000000
0.319285 0.680792 0.319285
0.319285 0.680792 0.476371
0.319285 0.680792 0.589374
0.319285 0.680792 0.680792
0.319285 0.680792 0.758913
0.319285 0.680792 0.827848
0.319285 0.680792 0.889975
0.319285 0.680792 0.946814
0.319285 0.680792 0.999400
0.319285 0.680792 1.000000
0.319285 0.680792 1.000000
0.319285 0.680792 1.000000
0.319285 0.680792 1.000000
0.319285 0.680792 1.000000
0.319285 0.680792 1.000000
0.319285 0.680792 1.000000
0.319285 0.758913 0.000000
0.319285 0.758913 0.319285
0.319285 0.758913 0.476371
0.319285 0.758913 0.589374
0.319285 0.758913 0.680792
0.319285 0.758913 0.758913
0.319285 0.758913 0.827848
0.319285 0.758913 0.889975
0.319285 0.758913 0.946814
0.319285 0.758913 0.999400
0.319285 0.758913 1.000000
0.319285 0.758913 1.000000
0.319285 0.758913 1.000000
0.319285 0.758913 1.000000
0.319285 0.758913 1.000000
0.319285 0.758913 1.000000
0.319285 0.758913 1.000000
0.319285 0.827848 0.000000
0.319285 0.827848 0.319285
0.319285 0.827848 0.476371
0.319285 0.827848 0.589374
0.319285 0.827848 0.680792
0.319285 0.827848 0.758913
0.319285 0.827848 0.827848
0.319285 0.827848 0.889975
0.319285 0.827848 0.946814
0.319285 0.827848 0.999400
0.319285 0.827848 1.000000
0.319285 0.827848 1.000000
0.319285 0.827848 1.000000
0.319285 0.827848 1.000000
0.319285 0.827848 1.000000
0.319285 0.827848 1.000000
0.319285 0.827848 1.000000
0.319285 0.889975 0.000000
0.319285 0.889975 0.319285
0.319285 0.889975 0.476371
0.319285 0.889975 0.589374
0.319285 0.889975 0.680792
0.319285 0.889975 0.758913
0.319285 0.889975 0.827848
0.319285 0.889975 0.889975
0.319285 0.889975 0.946814
0.319285 0.889975 0.999400
0.319285 0.889975 1.000000
0.319285 0.889975 1.000000
0.319285 0.889975 1.000000
0.319285 0.889975 1.000000
0.319285 0.889975 1.000000
0.319285 0.889975 1.000000
0.319285 0.889975 1.000000
0.319285 0.946814 0.000000
0.319285 0.946814 0.319285
0.319285 0.946814 0.476371
0.319285 0.946814 0.589374
0.319285 0.946814 0.680792
0.319285 0.946814 0.758913
0.319285 0.946814 0.827848
0.319285 0.946814 0.889975
0.319285 0.946814 0.946814
0.319285 0.946814 0.999400
0.319285 0.946814 1.000000
0.319285 0.946814 1.000000
0.319285 0.946814 1.000000
0.319285 0.946814 1.000000
0.319285 0.946814 1.000000
0.319285 0.946814 1.000000
0.319285 0.946814 1.000000
0.319285 0.999400 0.000000
0.319285 0.999400 0.319285
0.319285 0.999400 0.476371
0.319285 0.999400 0.589374
0.319285 0.999400 0.680792
0.319285 0.999400 0.758913
0.319285 0.999400 0.827848
0.319285 0.999400 0.889975
0.319285 0.999400 0.946814
0.319285 0.999400 0.999400
0.319285 0.999400 1.000000
0.319285 0.999400 1.000000
0.319285 0.999400 1.000000
0.319285 0.999400 1.000000
0.319285 0.999400 1.000000
0.319285 0.999400 1.000000
0.319285 0.999400 1.000000
0.319285 1.000000 0.000000
0.319285 1.000000 0.319285
0.319285 1.000000 0.476371
0.319285 1.000000 0.589374
0.319285 1.000000 0.680792
0.319285 1.000000 0.758913
0.319285 1.000000 0.827848
0.319285 1.000000 0.889975
0.319285 1.000000 0.946814
0.319285 1.000000 0.999400
0.319285 1.000000 1.000000
0.319285 1.000000 1.000000
0.319285 1.000000 1.000000
0.319285 1.000000 1.000000
0.319285 1.000000 1.000000
0.319285 1.000000 1.000000
0.319285 1.000000 1.000000
0.319285 1.000000 0.000000
0.319285 1.000000 0.319285
0.319285 1.000000 0.476371
0.319285 1.000000 0.589374
0.319285 1.000000 0.680792
0.319285 1.000000 0.758913
0.319285 1.000000 0.827848
0.319285 1.000000 0.889975
0.319285 1.000000 0.946814
0.319285 1.000000 0.999400
0.319285 1.000000 1.000000
0.319285 1.000000 1.000000
0.319285 1.000000 1.000000
0.319285 1.000000 1.000000
0.319285 1.000000 1.000000
0.319285 1.000000 1.000000
0.319285 1.000000 1.000000
0.319285 1.000000 0.000000
0.319285 1.000000 0.319285
0.319285 1.000000 0.476371
0.319285 1.000000 0.589374
0.319285 1.000000 0.680792
0.319285 1.000000 0.758913
0.319285 1.000000 0.827848
0.319285 1.000000 0.889975
0.319285 1.000000 0.946814
0.319285 1.000000 0.999400
0.319285 1.000000 1.000000
0.319285 1.000000 1.000000
0.319285 1.000000 1.000000
0.319285 1.000000 1.000000
0.319285 1.000000 1.000000
0.319285 1.000000 1.000000
0.319285 1.000000 1.000000
0.319285 1.000000 0.000000
0.319285 1.000000 0.319285
0.319285 1.000000 0.476371
0.319285 1.000000 0.589374
0.319285 1.000000 0.680792
0.319285 1.000000 0.758913
0.319285 1.000000 0.827848
0.319285 1.000000 0.889975
0.319285 1.000000 0.946814
0.319285 1.000000 0.999400
0.319285 1.000000 1.000000
0.319285 1.000000 1.000000
0.319285 1.000000 1.000000
0.319285 1.000000 1.000000
0.319285 1.000000 1.000000
0.319285 1.000000 1.000000
0.319285 1.000000 1.000000
0.319285 1.000000 0.000000
0.319285 1.000000 0.319285
0.319285 1.000000 0.476371
0.319285 1.000000 0.589374
0.319285 1.000000 0.680792
0.319285 1.000000 0.758913
0.319285 1.000000 0.827848
0.319285 1.000000 0.889975
0.319285 1.000000 0.946814
0.319285 1.000000 0.999400
0.319285 1.000000 1.000000
0.319285 1.000000 1.000000
0.319285 1.000000 1.000000
0.319285 1.000000 1.000000
0.319285 1.000000 1.000000
0.319285 1.000000 1.000000
0.319285 1.000000 1.000000
0.319285 1.000000 0.000000
0.319285 1.000000 0.319285
0.319285 1.000000 0.476371
0.319285 1.000000 0.589374
0.319285 1.000000 0.680792
0.319285 1.000000 0.758913
0.319285 1.000000 0.827848
0.319285 1.000000 0.889975
0.319285 1.000000 0.946814
0.319285 1.000000 0.999400
0.319285 1.000000 1.000000
0.319285 1.000000 1.000000
0.319285 1.000000 1.000000
0.319285 1.000000 1.000000
0.319285 1.000000 1.000000
0.319285 1.000000 1.000000
0.319285 1.000000 1.000000
0.319285 1.000000 0.000000
0.319285 1.000000 0.319285
0.319285 1.000000 0.476371
0.319285 1.000000 0.589374
0.319285 1.000000 0.680792
0.319285 1.000000 0.758913
0.319285 1.000000 0.827848
0.319285 1.000000 0.889975
0.319285 1.000000 0.946814
0.319285 1.000000 0.999400
0.319285 1.000000 1.000000
0.319285 1.000000 1.000000
0.319285 1.000000 1.000000
0.319285 1.000000 1.000000
0.319285 1.000000 1.000000
0.319285 1.000000 1.000000
0.319285 1.000000 1.000000
0.476371 0.000000 0.000000
0.476371 0.000000 0.319285
0.476371 0.000000 0.476371
0.476371 0.000000 0.589374
0.476371 0.000000 0.680792
0.476371 0.000000 0.758913
0.476371 0.000000 0.827848
0.476371 0.000000 0.889975
0.476371 0.000000 0.946814
0.476371 0.000000 0.999400
0.476371 0.000000 1.000000
0.476371 0.000000 1.000000
0.476371 0.000000 1.000000
0.476371 0.000000 1.000000
0.476371 0.000000 1.000000
0.476371 0.000000 1.000000
0.476371 0.000000 1.000000
0.476371 0.319285 0.000000
0.476371 0.319285 0.319285
0.476371 0.319285 0.476371
0.476371 0.319285 0.589374
0.476371 0.319285 0.680792
0.476371 0.319285 0.758913
0.476371 0.319285 0.827848
0.476371 0.319285 0.889975
0.476371 0.319285 0.946814
0.476371 0.319285 0.999400
0.476371 0.319285 1.000000
0.476371 0.319285 1.000000
0.476371 0.319285 1.000000
0.476371 0.319285 1.000000
0.476371 0.319285 1.000000
0.476371 0.319285 1.000000
0.476371 0.319285 1.000000
0.476371 0.476371 0.000000
0.476371 0.476371 0.319285
0.476371 0.476371 0.476371
0.476371 0.476371 0.589374
0.476371 0.476371 0.680792
0.476371 0.476371 0.758913
0.476371 0.476371 0.827848
0.476371 0.476371 0.889975
0.476371 0.476371 0.946814
0.476371 0.476371 0.999400
0.476371 0.476371 1.000000
0.476371 0.476371 1.000000
0.476371 0.476371 1.000000
0.476371 0.476371 1.000000
0.476371 0.476371 1.000000
0.476371 0.476371 1.000000
0.476371 0.476371 1.000000
0.476371 0.589374 0.000000
0.476371 0.589374 0.319285
0.476371 0.589374 0.476371
0.476371 0.589374 0.589374
0.476371 0.589374 0.680792
0.476371 0.589374 0.758913
0.476371 0.589374 0.827848
0.476371 0.589374 0.889975
0.476371 0.589374 0.946814
0.476371 0.589374 0.999400
0.476371 0.589374 1.000000
0.476371 0.589374 1.000000
0.476371 0.589374 1.000000
0.476371 0.589374 1.000000
0.476371 0.589374 1.000000
0.476371 0.589374 1.000000
0.476371 0.589374 1.000000
0.476371 0.680792 0.000000
0.476371 0.680792 0.319285
0.476371 0.680792 0.476371
0.476371 0.680792 0.589374
0.476371 0.680792 0.680792
0.476371 0.680792 0.758913
0.476371 0.680792 0.827848
0.476371 0.680792 0.889975
0.476371 0.680792 0.946814
0.476371 0.680792 0.999400
0.476371 0.680792 1.000000
0.476371 0.680792 1.000000
0.476371 0.680792 1.000000
0.476371 0.680792 1.000000
0.476371 0.680792 1.000000
0.476371 0.680792 1.000000
0.476371 0.680792 1.000000
0.476371 0.758913 0.000000
0.476371 0.758913 0.319285
0.476371 0.758913 0.476371
0.476371 0.758913 0.589374
0.476371 0.758913 0.680792
0.476371 0.758913 0.758913
0.476371 0.758913 0.827848
0.476371 0.758913 0.889975
0.476371 0.758913 0.946814
0.476371 0.758913 0.999400
0.476371 0.758913 1.000000
0.476371 0.758913 1.000000
0.476371 0.758913 1.000000
0.476371 0.758913 1.000000
0.476371 0.758913 1.000000
0.476371 0.758913 1.000000
0.476371 0.758913 1.000000
0.476371 0.827848 0.000000
0.476371 0.827848 0.319285
0.476371 0.827848 0.476371
0.476371 0.827848 0.589374
0.476371 0.827848 0.680792
0.476371 0.827848 0.758913
0.476371 0.827848 0.827848
0.476371 0.827848 0.889975
0.476371 0.827848 0.946814
0.476371 0.827848 0.999400
0.476371 0.827848 1.000000
0.476371 0.827848 1.000000
0.476371 0.827848 1.000000
0.476371 0.827848 1.000000
0.476371 0.827848 1.000000
0.476371 0.827848 1.000000
0.476371 0.827848 1.000000
0.476371 0.889975 0.000000
0.476371 0.889975 0.319285
0.476371 0.889975 0.476371
0.476371 0.889975 0.589374
0.476371 0.889975 0.680792
0.476371 0.889975 0.758913
0.476371 0.889975 0.827848
0.476371 0.889975 0.889975
0.476371 0.889975 0.946814
0.476371 0.889975 0.999400
0.476371 0.889975 1.000000
0.476371 0.889975 1.000000
0.476371 0.889975 1.000000
0.476371 0.889975 1.000000
0.476371 0.889975 1.000000
0.476371 0.889975 1.000000
0.476371 0.889975 1.000000
0.476371 0.946814 0.000000
0.476371 0.946814 0.319285
0.476371 0.946814 0.476371
0.476371 0.946814 0.589374
0.476371 0.946814 0.680792
0.476371 0.946814 0.758913
0.476371 0.946814 0.827848
0.476371 0.946814 0.889975
0.476371 0.946814 0.946814
0.476371 0.946814 0.999400
0.476371 0.946814 1.000000
0.476371 0.946814 1.000000
0.476371 0.946814 1.000000
0.476371 0.946814 1.000000
0.476371 0.946814 1.000000
0.476371 0.946814 1.000000
0.476371 0.946814 1.000000
0.476371 0.999400 0.000000
0.476371 0.999400 0.319285
0.476371 0.999400 0.476371
0.476371 0.999400 0.589374
0.476371 0.999400 0.680792
0.476371 0.999400 0.758913
0.476371 0.999400 0.827848
0.476371 0.999400 0.889975
0.476371 0.999400 0.946814
0.476371 0.999400 0.999400
0.476371 0.999400 1.000000
0.476371 0.999400 1.000000
0.476371 0.999400 1.000000
0.476371 0.999400 1.000000
0.476371 0.999400 1.000000
0.476371 0.999400 1.000000
0.476371 0.999400 1.000000
0.476371 1.000000 0.000000
0.476371 1.000000 0.319285
0.476371 1.000000 0.476371
0.476371 1.000000 0.589374
0.476371 1.000000 0.680792
0.476371 1.000000 0.758913
0.476371 1.000000 0.827848
0.476371 1.000000 0.889975
0.476371 1.000000 0.946814
0.476371 1.000000 0.999400
0.476371 1.000000 1.000000
0.476371 1.000000 1.000000
0.476371 1.000000 1.000000
0.476371 1.000000 1.000000
0.476371 1.000000 1.000000
0.476371 1.000000 1.000000
0.476371 1.000000 1.000000
0.476371 1.000000 0.000000
0.476371 1.000000 0.319285
0.476371 1.000000 0.476371
0.476371 1.000000 0.589374
0.476371 1.000000 0.680792
0.476371 1.000000 0.758913
0.476371 1.000000 0.827848
0.476371 1.000000 0.889975
0.476371 1.000000 0.946814
0.476371 1.000000 0.999400
0.476371 1.000000 1.000000
0.476371 1.000000 1.000000
0.476371 1.000000 1.000000
0.476371 1.000000 1.000000
0.476371 1.000000 1.000000
0.476371 1.000000 1.000000
0.476371 1.000000 1.000000
0.476371 1.000000 0.000000
0.476371 1.000000 0.319285
0.476371 1.000000 0.476371
0.476371 1.000000 0.589374
0.476371 1.000000 0.680792
0.476371 1.000000 0.758913
0.476371 1.000000 0.827848
0.476371 1.000000 0.889975
0.476371 1.000000 0.946814
0.476371 1.000000 0.999400
0.476371 1.000000 1.000000
0.476371 1.000000 1.000000
0.476371 1.000000 1.000000
0.476371 1.000000 1.000000
0.476371 1.000000 1.000000
0.476371 1.000000 1.000000
0.476371 1.000000 1.000000
0.476371 1.000000 0.000000
0.476371 1.000000 0.319285
0.476371 1.000000 0.476371
0.476371 1.000000 0.589374
0.476371 1.000000 0.680792
0.476371 1.000000 0.758913
0.476371 1.000000 0.827848
0.476371 1.000000 0.889975
0.476371 1.000000 0.946814
0.476371 1.000000 0.999400
0.476371 1.000000 1.000000
0.476371 1.000000 1.000000
0.476371 1.000000 1.000000
0.476371 1.000000 1.000000
0.476371 1.000000 1.000000
0.476371 1.000000 1.000000
0.476371 1.000000 1.000000
0.476371 1.000000 0.000000
0.476371 1.000000 0.319285
0.476371 1.000000 0.476371
0.476371 1.000000 0.589374
0.476371 1.000000 0.680792
0.476371 1.000000 0.758913
0.476371 1.000000 0.827848
0.476371 1.000000 0.889975
0.476371 1.000000 0.946814
0.476371 1.000000 0.999400
0.476371 1.000000 1.000000
0.476371 1.000000 1.000000
0.476371 1.000000 1.000000
0.476371 1.000000 1.000000
0.476371 1.000000 1.000000
0.476371 1.000000 1.000000
0.476371 1.000000 1.000000
0.476371 1.000000 0.000000
0.476371 1.000000 0.319285
0.476371 1.000000 0.476371
0.476371 1.000000 0.589374
0.476371 1.000000 0.680792
0.476371 1.000000 0.758913
0.476371 1.000000 0.827848
0.476371 1.000000 0.889975
0.476371 1.000000 0.946814
0.476371 1.000000 0.999400
0.476371 1.000000 1.000000
0.476371 1.000000 1.000000
0.476371 1.000000 1.000000
0.476371 1.000000 1.000000
0.476371 1.000000 1.000000
0.476371 1.000000 1.000000
0.476371 1.000000 1.000000
0.476371 1.000000 0.000000
0.476371 1.000000 0.319285
0.476371 1.000000 0.476371
0.476371 1.000000 0.589374
0.476371 1.000000 0.680792
0.476371 1.000000 0.758913
0.476371 1.000000 0.827848
0.476371 1.000000 0.889975
0.476371 1.000000 0.946814
0.476371 1.000000 0.999400
0.476371 1.000000 1.000000
0.476371 1.000000 1.000000
0.476371 1.000000 1.000000
0.476371 1.000000 1.000000
0.476371 1.000000 1.000000
0.476371 1.000000 1.000000
0.476371 1.000000 1.000000
0.589374 0.000000 0.000000
0.589374 0.000000 0.319285
0.589374 0.000000 0.476371
0.589374 0.000000 0.589374
0.589374 0.000000 0.680792
0.589374 0.000000 0.758913
0.589374 0.000000 0.827848
0.589374 0.000000 0.889975
0.589374 0.000000 0.946814
0.589374 0.000000 0.999400
0.589374 0.000000 1.000000
0.589374 0.000000 1.000000
0.589374 0.000000 1.000000
0.589374 0.000000 1.000000
0.589374 0.000000 1.000000
0.589374 0.000000 1.000000
0.589374 0.000000 1.000000
0.589374 0.319285 0.000000
0.589374 0.319285 0.319285
