luts/neutral.cube
# S-Log3 to Rec.709
TITLE "S-Log3 to Rec.709"
LUT_3D_SIZE 9
0.000000 0.000000 0.000000
0.000000 0.000000 0.391907
0.000000 0.000000 0.542681
0.000000 0.000000 0.655310
0.000000 0.000000 0.748645
0.000000 0.000000 0.829836
0.000000 0.000000 0.902501
0.000000 0.000000 0.968765
0.000000 0.000000 1.000000
0.000000 0.391907 0.000000
0.000000 0.391907 0.391907
0.000000 0.391907 0.542681
0.000000 0.391907 0.655310
0.000000 0.391907 0.748645
0.000000 0.391907 0.829836
0.000000 0.391907 0.902501
0.000000 0.391907 0.968765
0.000000 0.391907 1.000000
0.000000 0.542681 0.000000
0.000000 0.542681 0.391907
0.000000 0.542681 0.542681
0.000000 0.542681 0.655310
0.000000 0.542681 0.748645
0.000000 0.542681 0.829836
0.000000 0.542681 0.902501
0.000000 0.542681 0.968765
0.000000 0.542681 1.000000
0.000000 0.655310 0.000000
0.000000 0.655310 0.391907
0.000000 0.655310 0.542681
0.000000 0.655310 0.655310
0.000000 0.655310 0.748645
0.000000 0.655310 0.829836
0.000000 0.655310 0.902501
0.000000 0.655310 0.968765
0.000000 0.655310 1.000000
0.000000 0.748645 0.000000
0.000000 0.748645 0.391907
0.000000 0.748645 0.542681
0.000000 0.748645 0.655310
0.000000 0.748645 0.748645
0.000000 0.748645 0.829836
0.000000 0.748645 0.902501
0.000000 0.748645 0.968765
0.000000 0.748645 1.000000
0.000000 0.829836 0.000000
0.000000 0.829836 0.391907
0.000000 0.829836 0.542681
0.000000 0.829836 0.655310
0.000000 0.829836 0.748645
0.000000 0.829836 0.829836
0.000000 0.829836 0.902501
0.000000 0.829836 0.968765
0.000000 0.829836 1.000000
0.000000 0.902501 0.000000
0.000000 0.902501 0.391907
0.000000 0.902501 0.542681
0.000000 0.902501 0.655310
0.000000 0.902501 0.748645
0.000000 0.902501 0.829836
0.000000 0.902501 0.902501
0.000000 0.902501 0.968765
0.000000 0.902501 1.000000
0.000000 0.968765 0.000000
0.000000 0.968765 0.391907
0.000000 0.968765 0.542681
0.000000 0.968765 0.655310
0.000000 0.968765 0.748645
0.000000 0.968765 0.829836
0.000000 0.968765 0.902501
0.000000 0.968765 0.968765
0.000000 0.968765 1.000000
0.000000 1.000000 0.000000
0.000000 1.000000 0.391907
0.000000 1.000000 0.542681
0.000000 1.000000 0.655310
0.000000 1.000000 0.748645
0.000000 1.000000 0.829836
0.000000 1.000000 0.902501
0.000000 1.000000 0.968765
0.000000 1.000000 1.000000
0.391907 0.000000 0.000000
0.391907 0.000000 0.391907
0.391907 0.000000 0.542681
0.391907 0.000000 0.655310
0.391907 0.000000 0.748645
0.391907 0.000000 0.829836
0.391907 0.000000 0.902501
0.391907 0.000000 0.968765
0.391907 0.000000 1.000000
0.391907 0.391907 0.000000
0.391907 0.391907 0.391907
0.391907 0.391907 0.542681
0.391907 0.391907 0.655310
0.391907 0.391907 0.748645
0.391907 0.391907 0.829836
0.391907 0.391907 0.902501
0.391907 0.391907 0.968765
0.391907 0.391907 1.000000
0.391907 0.542681 0.000000
0.391907 0.542681 0.391907
0.391907 0.542681 0.542681
0.391907 0.542681 0.655310
0.391907 0.542681 0.748645
0.391907 0.542681 0.829836
0.391907 0.542681 0.902501
0.391907 0.542681 0.968765
0.391907 0.542681 1.000000
0.391907 0.655310 0.000000
0.391907 0.655310 0.391907
0.391907 0.655310 0.542681
0.391907 0.655310 0.655310
0.391907 0.655310 0.748645
0.391907 0.655310 0.829836
0.391907 0.655310 0.902501
0.391907 0.655310 0.968765
0.391907 0.655310 1.000000
0.391907 0.748645 0.000000
0.391907 0.748645 0.391907
0.391907 0.748645 0.542681
0.391907 0.748645 0.655310
0.391907 0.748645 0.748645
0.391907 0.748645 0.829836
0.391907 0.748645 0.902501
0.391907 0.748645 0.968765
0.391907 0.748645 1.000000
0.391907 0.829836 0.000000
0.391907 0.829836 0.391907
0.391907 0.829836 0.542681
0.391907 0.829836 0.655310
0.391907 0.829836 0.748645
0.391907 0.829836 0.829836
0.391907 0.829836 0.902501
0.391907 0.829836 0.968765
0.391907 0.829836 1.000000
0.391907 0.902501 0.000000
0.391907 0.902501 0.391907
0.391907 0.902501 0.542681
0.391907 0.902501 0.655310
0.391907 0.902501 0.748645
0.391907 0.902501 0.829836
0.391907 0.902501 0.902501
0.391907 0.902501 0.968765
0.391907 0.902501 1.000000
0.391907 0.968765 0.000000
0.391907 0.968765 0.391907
0.391907 0.968765 0.542681
0.391907 0.968765 0.655310
0.391907 0.968765 0.748645
0.391907 0.968765 0.829836
0.391907 0.968765 0.902501
0.391907 0.968765 0.968765
0.391907 0.968765 1.000000
0.391907 1.000000 0.000000
0.391907 1.000000 0.391907
0.391907 1.000000 0.542681
0.391907 1.000000 0.655310
0.391907 1.000000 0.748645
0.391907 1.000000 0.829836
0.391907 1.000000 0.902501
0.391907 1.000000 0.968765
0.391907 1.000000 1.000000
0.542681 0.000000 0.000000
0.542681 0.000000 0.391907
0.542681 0.000000 0.542681
0.542681 0.000000 0.655310
0.542681 0.000000 0.748645
0.542681 0.000000 0.829836
0.542681 0.000000 0.902501
0.542681 0.000000 0.968765
0.542681 0.000000 1.000000
0.542681 0.391907 0.000000
0.542681 0.391907 0.391907
0.542681 0.391907 0.542681
0.542681 0.391907 0.655310
0.542681 0.391907 0.748645
0.542681 0.391907 0.829836
0.542681 0.391907 0.902501
0.542681 0.391907 0.968765
0.542681 0.391907 1.000000
0.542681 0.542681 0.000000
0.542681 0.542681 0.391907
0.542681 0.542681 0.542681
0.542681 0.542681 0.655310
0.542681 0.542681 0.748645
0.542681 0.542681 0.829836
0.542681 0.542681 0.902501
0.542681 0.542681 0.968765
0.542681 0.542681 1.000000
0.542681 0.655310 0.000000
0.542681 0.655310 0.391907
0.542681 0.655310 0.542681
0.542681 0.655310 0.655310
0.542681 0.655310 0.748645
0.542681 0.655310 0.829836
0.542681 0.655310 0.902501
0.542681 0.655310 0.968765
0.542681 0.655310 1.000000
0.542681 0.748645 0.000000
0.542681 0.748645 0.391907
0.542681 0.748645 0.542681
0.542681 0.748645 0.655310
0.542681 0.748645 0.748645
0.542681 0.748645 0.829836
0.542681 0.748645 0.902501
0.542681 0.748645 0.968765
0.542681 0.748645 1.000000
0.542681 0.829836 0.000000
0.542681 0.829836 0.391907
0.542681 0.829836 0.542681
0.542681 0.829836 0.655310
0.542681 0.829836 0.748645
0.542681 0.829836 0.829836
0.542681 0.829836 0.902501
0.542681 0.829836 0.968765
0.542681 0.829836 1.000000
0.542681 0.902501 0.000000
0.542681 0.902501 0.391907
0.542681 0.902501 0.542681
0.542681 0.902501 0.655310
0.542681 0.902501 0.748645
0.542681 0.902501 0.829836
0.542681 0.902501 0.902501
0.542681 0.902501 0.968765
0.542681 0.902501 1.000000
0.542681 0.968765 0.000000
0.542681 0.968765 0.391907
0.542681 0.968765 0.542681
0.542681 0.968765 0.655310
0.542681 0.968765 0.748645
0.542681 0.968765 0.829836
0.542681 0.968765 0.902501
0.542681 0.968765 0.968765
0.542681 0.968765 1.000000
0.542681 1.000000 0.000000
0.542681 1.000000 0.391907
0.542681 1.000000 0.542681
0.542681 1.000000 0.655310
0.542681 1.000000 0.748645
0.542681 1.000000 0.829836
0.542681 1.000000 0.902501
0.542681 1.000000 0.968765
0.542681 1.000000 1.000000
0.655310 0.000000 0.000000
0.655310 0.000000 0.391907
0.655310 0.000000 0.542681
0.655310 0.000000 0.655310
0.655310 0.000000 0.748645
0.655310 0.000000 0.829836
0.655310 0.000000 0.902501
0.655310 0.000000 0.968765
0.655310 0.000000 1.000000
0.655310 0.391907 0.000000
0.655310 0.391907 0.391907
0.655310 0.391907 0.542681
0.655310 0.391907 0.655310
0.655310 0.391907 0.748645
0.655310 0.391907 0.829836
0.655310 0.391907 0.902501
0.655310 0.391907 0.968765
0.655310 0.391907 1.000000
0.655310 0.542681 0.000000
0.655310 0.542681 0.391907
0.655310 0.542681 0.542681
0.655310 0.542681 0.655310
0.655310 0.542681 0.748645
0.655310 0.542681 0.829836
0.655310 0.542681 0.902501
0.655310 0.542681 0.968765
0.655310 0.542681 1.000000
0.655310 0.655310 0.000000
0.655310 0.655310 0.391907
0.655310 0.655310 0.542681
0.655310 0.655310 0.655310
0.655310 0.655310 0.748645
0.655310 0.655310 0.829836
0.655310 0.655310 0.902501
0.655310 0.655310 0.968765
0.655310 0.655310 1.000000
0.655310 0.748645 0.000000
0.655310 0.748645 0.391907
0.655310 0.748645 0.542681
0.655310 0.748645 0.655310
0.655310 0.748645 0.748645
0.655310 0.748645 0.829836
0.655310 0.748645 0.902501
0.655310 0.748645 0.968765
0.655310 0.748645 1.000000
0.655310 0.829836 0.000000
0.655310 0.829836 0.391907
0.655310 0.829836 0.542681
0.655310 0.829836 0.655310
0.655310 0.829836 0.748645
0.655310 0.829836 0.829836
0.655310 0.829836 0.902501
0.655310 0.829836 0.968765
0.655310 0.829836 1.000000
0.655310 0.902501 0.000000
0.655310 0.902501 0.391907
0.655310 0.902501 0.542681
0.655310 0.902501 0.655310
0.655310 0.902501 0.748645
0.655310 0.902501 0.829836
0.655310 0.902501 0.902501
0.655310 0.902501 0.968765
0.655310 0.902501 1.000000
0.655310 0.968765 0.000000
0.655310 0.968765 0.391907
0.655310 0.968765 0.542681
0.655310 0.968765 0.655310
0.655310 0.968765 0.748645
0.655310 0.968765 0.829836
0.655310 0.968765 0.902501
0.655310 0.968765 0.968765
0.655310 0.968765 1.000000
0.655310 1.000000 0.000000
0.655310 1.000000 0.391907
0.655310 1.000000 0.542681
0.655310 1.000000 0.655310
0.655310 1.000000 0.748645
0.655310 1.000000 0.829836
0.655310 1.000000 0.902501
0.655310 1.000000 0.968765
0.655310 1.000000 1.000000
0.748645 0.000000 0.000000
0.748645 0.000000 0.391907
0.748645 0.000000 0.542681
0.748645 0.000000 0.655310
0.748645 0.000000 0.748645
0.748645 0.000000 0.829836
0.748645 0.000000 0.902501
0.748645 0.000000 0.968765
0.748645 0.000000 1.000000
0.748645 0.391907 0.000000
0.748645 0.391907 0.391907
0.748645 0.391907 0.542681
0.748645 0.391907 0.655310
0.748645 0.391907 0.748645
0.748645 0.391907 0.829836
0.748645 0.391907 0.902501
0.748645 0.391907 0.968765
0.748645 0.391907 1.000000
0.748645 0.542681 0.000000
0.748645 0.542681 0.391907
0.748645 0.542681 0.542681
0.748645 0.542681 0.655310
0.748645 0.542681 0.748645
0.748645 0.542681 0.829836
0.748645 0.542681 0.902501
0.748645 0.542681 0.968765
0.748645 0.542681 1.000000
0.748645 0.655310 0.000000
0.748645 0.655310 0.391907
0.748645 0.655310 0.542681
0.748645 0.655310 0.655310
0.748645 0.655310 0.748645
0.748645 0.655310 0.829836
0.748645 0.655310 0.902501
0.748645 0.655310 0.968765
0.748645 0.655310 1.000000
0.748645 0.748645 0.000000
0.748645 0.748645 0.391907
0.748645 0.748645 0.542681
0.748645 0.748645 0.655310
0.748645 0.748645 0.748645
0.748645 0.748645 0.829836
0.748645 0.748645 0.902501
0.748645 0.748645 0.968765
0.748645 0.748645 1.000000
0.748645 0.829836 0.000000
0.748645 0.829836 0.391907
0.748645 0.829836 0.542681
0.748645 0.829836 0.655310
0.748645 0.829836 0.748645
0.748645 0.829836 0.829836
0.748645 0.829836 0.902501
0.748645 0.829836 0.968765
0.748645 0.829836 1.000000
0.748645 0.902501 0.000000
0.748645 0.902501 0.391907
0.748645 0.902501 0.542681
0.748645 0.902501 0.655310
0.748645 0.902501 0.748645
0.748645 0.902501 0.829836
0.748645 0.902501 0.902501
0.748645 0.902501 0.968765
0.748645 0.902501 1.000000
0.748645 0.968765 0.000000
0.748645 0.968765 0.391907
0.748645 0.968765 0.542681
0.748645 0.968765 0.655310
0.748645 0.968765 0.748645
0.748645 0.968765 0.829836
0.748645 0.968765 0.902501
0.748645 0.968765 0.968765
0.748645 0.968765 1.000000
0.748645 1.000000 0.000000
0.748645 1.000000 0.391907
0.748645 1.000000 0.542681
0.748645 1.000000 0.655310
0.748645 1.000000 0.748645
0.748645 1.000000 0.829836
0.748645 1.000000 0.902501
0.748645 1.000000 0.968765
0.748645 1.000000 1.000000
0.829836 0.000000 0.000000
0.829836 0.000000 0.391907
0.829836 0.000000 0.542681
0.829836 0.000000 0.655310
0.829836 0.000000 0.748645
0.829836 0.000000 0.829836
0.829836 0.000000 0.902501
0.829836 0.000000 0.968765
0.829836 0.000000 1.000000
0.829836 0.391907 0.000000
0.829836 0.391907 0.391907
0.829836 0.391907 0.542681
0.829836 0.391907 0.655310
0.829836 0.391907 0.748645
0.829836 0.391907 0.829836
0.829836 0.391907 0.902501
0.829836 0.391907 0.968765
0.829836 0.391907 1.000000
0.829836 0.542681 0.000000
0.829836 0.542681 0.391907
0.829836 0.542681 0.542681
0.829836 0.542681 0.655310
0.829836 0.542681 0.748645
0.829836 0.542681 0.829836
0.829836 0.542681 0.902501
0.829836 0.542681 0.968765
0.829836 0.542681 1.000000
0.829836 0.655310 0.000000
0.829836 0.655310 0.391907
0.829836 0.655310 0.542681
0.829836 0.655310 0.655310
0.829836 0.655310 0.748645
0.829836 0.655310 0.829836
0.829836 0.655310 0.902501
0.829836 0.655310 0.968765
0.829836 0.655310 1.000000
0.829836 0.748645 0.000000
0.829836 0.748645 0.391907
0.829836 0.748645 0.542681
0.829836 0.748645 0.655310
0.829836 0.748645 0.748645
0.829836 0.748645 0.829836
0.829836 0.748645 0.902501
0.829836 0.748645 0.968765
0.829836 0.748645 1.000000
0.829836 0.829836 0.000000
0.829836 0.829836 0.391907
0.829836 0.829836 0.542681
0.829836 0.829836 0.655310
0.829836 0.829836 0.748645
0.829836 0.829836 0.829836
0.829836 0.829836 0.902501
0.829836 0.829836 0.968765
0.829836 0.829836 1.000000
0.829836 0.902501 0.000000
0.829836 0.902501 0.391907
0.829836 0.902501 0.542681
0.829836 0.902501 0.655310
0.829836 0.902501 0.748645
0.829836 0.902501 0.829836
0.829836 0.902501 0.902501
0.829836 0.902501 0.968765
0.829836 0.902501 1.000000
0.829836 0.968765 0.000000
0.829836 0.968765 0.391907
0.829836 0.968765 0.542681
0.829836 0.968765 0.655310
0.829836 0.968765 0.748645
0.829836 0.968765 0.829836
0.829836 0.968765 0.902501
0.829836 0.968765 0.968765
0.829836 0.968765 1.000000
0.829836 1.000000 0.000000
0.829836 1.000000 0.391907
0.829836 1.000000 0.542681
0.829836 1.000000 0.655310
0.829836 1.000000 0.748645
0.829836 1.000000 0.829836
0.829836 1.000000 0.902501
0.829836 1.000000 0.968765
0.829836 1.000000 1.000000
0.902501 0.000000 0.000000
0.902501 0.000000 0.391907
0.902501 0.000000 0.542681
0.902501 0.000000 0.655310
0.902501 0.000000 0.748645
0.902501 0.000000 0.829836
0.902501 0.000000 0.902501
0.902501 0.000000 0.968765
0.902501 0.000000 1.000000
0.902501 0.391907 0.000000
0.902501 0.391907 0.391907
0.902501 0.391907 0.542681
0.902501 0.391907 0.655310
0.902501 0.391907 0.748645
0.902501 0.391907 0.829836
0.902501 0.391907 0.902501
0.902501 0.391907 0.968765
0.902501 0.391907 1.000000
0.902501 0.542681 0.000000
0.902501 0.542681 0.391907
0.902501 0.542681 0.542681
0.902501 0.542681 0.655310
0.902501 0.542681 0.748645
0.902501 0.542681 0.829836
0.902501 0.542681 0.902501
0.902501 0.542681 0.968765
0.902501 0.542681 1.000000
0.902501 0.655310 0.000000
0.902501 0.655310 0.391907
0.902501 0.655310 0.542681
0.902501 0.655310 0.655310
0.902501 0.655310 0.748645
0.902501 0.655310 0.829836
0.902501 0.655310 0.902501
0.902501 0.655310 0.968765
0.902501 0.655310 1.000000
0.902501 0.748645 0.000000
0.902501 0.748645 0.391907
0.902501 0.748645 0.542681
0.902501 0.748645 0.655310
0.902501 0.748645 0.748645
0.902501 0.748645 0.829836
0.902501 0.748645 0.902501
0.902501 0.748645 0.968765
0.902501 0.748645 1.000000
0.902501 0.829836 0.000000
0.902501 0.829836 0.391907
0.902501 0.829836 0.542681
0.902501 0.829836 0.655310
0.902501 0.829836 0.748645
0.902501 0.829836 0.829836
0.902501 0.829836 0.902501
0.902501 0.829836 0.968765
0.902501 0.829836 1.000000
0.902501 0.902501 0.000000
0.902501 0.902501 0.391907
0.902501 0.902501 0.542681
0.902501 0.902501 0.655310
0.902501 0.902501 0.748645
0.902501 0.902501 0.829836
0.902501 0.902501 0.902501
0.902501 0.902501 0.968765
0.902501 0.902501 1.000000
0.902501 0.968765 0.000000
0.902501 0.968765 0.391907
0.902501 0.968765 0.542681
0.902501 0.968765 0.655310
0.902501 0.968765 0.748645
0.902501 0.968765 0.829836
0.902501 0.968765 0.902501
0.902501 0.968765 0.968765
0.902501 0.968765 1.000000
0.902501 1.000000 0.000000
0.902501 1.000000 0.391907
0.902501 1.000000 0.542681
0.902501 1.000000 0.655310
0.902501 1.000000 0.748645
0.902501 1.000000 0.829836
0.902501 1.000000 0.902501
0.902501 1.000000 0.968765
0.902501 1.000000 1.000000
0.968765 0.000000 0.000000
0.968765 0.000000 0.391907
0.968765 0.000000 0.542681
0.968765 0.000000 0.655310
0.968765 0.000000 0.748645
0.968765 0.000000 0.829836
0.968765 0.000000 0.902501
0.968765 0.000000 0.968765
0.968765 0.000000 1.000000
0.968765 0.391907 0.000000
0.968765 0.391907 0.391907
0.968765 0.391907 0.542681
0.968765 0.391907 0.655310
0.968765 0.391907 0.748645
0.968765 0.391907 0.829836
0.968765 0.391907 0.902501
0.968765 0.391907 0.968765
0.968765 0.391907 1.000000
0.968765 0.542681 0.000000
0.968765 0.542681 0.391907
0.968765 0.542681 0.542681
0.968765 0.542681 0.655310
0.968765 0.542681 0.748645
0.968765 0.542681 0.829836
0.968765 0.542681 0.902501
0.968765 0.542681 0.968765
0.968765 0.542681 1.000000
0.968765 0.655310 0.000000
0.968765 0.655310 0.391907
0.968765 0.655310 0.542681
0.968765 0.655310 0.655310
0.968765 0.655310 0.748645
0.968765 0.655310 0.829836
0.968765 0.655310 0.902501
0.968765 0.655310 0.968765
0.968765 0.655310 1.000000
0.968765 0.748645 0.000000
0.968765 0.748645 0.391907
0.968765 0.748645 0.542681
0.968765 0.748645 0.655310
0.968765 0.748645 0.748645
0.968765 0.748645 0.829836
0.968765 0.748645 0.902501
0.968765 0.748645 0.968765
0.968765 0.748645 1.000000
0.968765 0.829836 0.000000
0.968765 0.829836 0.391907
0.968765 0.829836 0.542681
0.968765 0.829836 0.655310
0.968765 0.829836 0.748645
0.968765 0.829836 0.829836
0.968765 0.829836 0.902501
0.968765 0.829836 0.968765
0.968765 0.829836 1.000000
0.968765 0.902501 0.000000
0.968765 0.902501 0.391907
0.968765 0.902501 0.542681
0.968765 0.902501 0.655310
0.968765 0.902501 0.748645
0.968765 0.902501 0.829836
0.968765 0.902501 0.902501
0.968765 0.902501 0.968765
0.968765 0.902501 1.000000
0.968765 0.968765 0.000000
0.968765 0.968765 0.391907
0.968765 0.968765 0.542681
0.968765 0.968765 0.655310
0.968765 0.968765 0.748645
0.968765 0.968765 0.829836
0.968765 0.968765 0.902501
0.968765 0.968765 0.968765
0.968765 0.968765 1.000000
0.968765 1.000000 0.000000
0.968765 1.000000 0.391907
0.968765 1.000000 0.542681
0.968765 1.000000 0.655310
0.968765 1.000000 0.748645
0.968765 1.000000 0.829836
0.968765 1.000000 0.902501
0.968765 1.000000 0.968765
0.968765 1.000000 1.000000
1.000000 0.000000 0.000000
1.000000 0.000000 0.391907
1.000000 0.000000 0.542681
1.000000 0.000000 0.655310
1.000000 0.000000 0.748645
1.000000 0.000000 0.829836
1.000000 0.000000 0.902501
1.000000 0.000000 0.968765
1.000000 0.000000 1.000000
1.000000 0.391907 0.000000
1.000000 0.391907 0.391907
1.000000 0.391907 0.542681
1.000000 0.391907 0.655310
1.000000 0.391907 0.748645
1.000000 0.391907 0.829836
1.000000 0.391907 0.902501
1.000000 0.391907 0.968765
1.000000 0.391907 1.000000
1.000000 0.542681 0.000000
1.000000 0.542681 0.391907
1.000000 0.542681 0.542681
1.000000 0.542681 0.655310
1.000000 0.542681 0.748645
1.000000 0.542681 0.829836
1.000000 0.542681 0.902501
1.000000 0.542681 0.968765
1.000000 0.542681 1.000000
1.000000 0.655310 0.000000
1.000000 0.655310 0.391907
1.000000 0.655310 0.542681
1.000000 0.655310 0.655310
1.000000 0.655310 0.748645
1.000000 0.655310 0.829836
1.000000 0.655310 0.902501
1.000000 0.655310 0.968765
1.000000 0.655310 1.000000
1.000000 0.748645 0.000000
1.000000 0.748645 0.391907
1.000000 0.748645 0.542681
1.000000 0.748645 0.655310
1.000000 0.748645 0.748645
1.000000 0.748645 0.829836
1.000000 0.748645 0.902501
1.000000 0.748645 0.968765
1.000000 0.748645 1.000000
1.000000 0.829836 0.000000
1.000000 0.829836 0.391907
1.000000 0.829836 0.542681
1.000000 0.829836 0.655310
1.000000 0.829836 0.748645
1.000000 0.829836 0.829836
1.000000 0.829836 0.902501
1.000000 0.829836 0.968765
1.000000 0.829836 1.000000
1.000000 0.902501 0.000000
1.000000 0.902501 0.391907
1.000000 0.902501 0.542681
1.000000 0.902501 0.655310
1.000000 0.902501 0.748645
1.000000 0.902501 0.829836
1.000000 0.902501 0.902501
1.000000 0.902501 0.968765
1.000000 0.902501 1.000000
1.000000 0.968765 0.000000
1.000000 0.968765 0.391907
1.000000 0.968765 0.542681
1.000000 0.968765 0.655310
1.000000 0.968765 0.748645
1.000000 0.968765 0.829836
1.000000 0.968765 0.902501
1.000000 0.968765 0.968765
1.000000 0.968765 1.000000
1.000000 1.000000 0.000000
1.000000 1.000000 0.391907
1.000000 1.000000 0.542681
1.000000 1.000000 0.655310
1.000000 1.000000 0.748645
1.000000 1.000000 0.829836
1.000000 1.000000 0.902501
1.000000 1.000000 0.968765
1.000000 1.000000 1.000000
