luts/neutral.cube
# S-Log3 to Rec.709
TITLE "S-Log3 to Rec.709"
LUT_3D_SIZE 17
0.000000 0.000000 0.000000
0.000000 0.000000 0.281533
0.000000 0.000000 0.391907
0.000000 0.000000 0.474356
0.000000 0.000000 0.542681
0.000000 0.000000 0.602117
0.000000 0.000000 0.655310
0.000000 0.000000 0.703818
0.000000 0.000000 0.748645
0.000000 0.000000 0.790484
0.000000 0.000000 0.829836
0.000000 0.000000 0.867078
0.000000 0.000000 0.902501
0.000000 0.000000 0.936334
0.000000 0.000000 0.968765
0.000000 0.000000 0.999944
0.000000 0.000000 1.000000
0.000000 0.281533 0.000000
0.000000 0.281533 0.281533
0.000000 0.281533 0.391907
0.000000 0.281533 0.474356
0.000000 0.281533 0.542681
0.000000 0.281533 0.602117
0.000000 0.281533 0.655310
0.000000 0.281533 0.703818
0.000000 0.281533 0.748645
0.000000 0.281533 0.790484
0.000000 0.281533 0.829836
0.000000 0.281533 0.867078
0.000000 0.281533 0.902501
0.000000 0.281533 0.936334
0.000000 0.281533 0.968765
0.000000 0.281533 0.999944
0.000000 0.281533 1.000000
0.000000 0.391907 0.000000
0.000000 0.391907 0.281533
0.000000 0.391907 0.391907
0.000000 0.391907 0.474356
0.000000 0.391907 0.542681
0.000000 0.391907 0.602117
0.000000 0.391907 0.655310
0.000000 0.391907 0.703818
0.000000 0.391907 0.748645
0.000000 0.391907 0.790484
0.000000 0.391907 0.829836
0.000000 0.391907 0.867078
0.000000 0.391907 0.902501
0.000000 0.391907 0.936334
0.000000 0.391907 0.968765
0.000000 0.391907 0.999944
0.000000 0.391907 1.000000
0.000000 0.474356 0.000000
0.000000 0.474356 0.281533
0.000000 0.474356 0.391907
0.000000 0.474356 0.474356
0.000000 0.474356 0.542681
0.000000 0.474356 0.602117
0.000000 0.474356 0.655310
0.000000 0.474356 0.703818
0.000000 0.474356 0.748645
0.000000 0.474356 0.790484
0.000000 0.474356 0.829836
0.000000 0.474356 0.867078
0.000000 0.474356 0.902501
0.000000 0.474356 0.936334
0.000000 0.474356 0.968765
0.000000 0.474356 0.999944
0.000000 0.474356 1.000000
0.000000 0.542681 0.000000
0.000000 0.542681 0.281533
0.000000 0.542681 0.391907
0.000000 0.542681 0.474356
0.000000 0.542681 0.542681
0.000000 0.542681 0.602117
0.000000 0.542681 0.655310
0.000000 0.542681 0.703818
0.000000 0.542681 0.748645
0.000000 0.542681 0.790484
0.000000 0.542681 0.829836
0.000000 0.542681 0.867078
0.000000 0.542681 0.902501
0.000000 0.542681 0.936334
0.000000 0.542681 0.968765
0.000000 0.542681 0.999944
0.000000 0.542681 1.000000
0.000000 0.602117 0.000000
0.000000 0.602117 0.281533
0.000000 0.602117 0.391907
0.000000 0.602117 0.474356
0.000000 0.602117 0.542681
0.000000 0.602117 0.602117
0.000000 0.602117 0.655310
0.000000 0.602117 0.703818
0.000000 0.602117 0.748645
0.000000 0.602117 0.790484
0.000000 0.602117 0.829836
0.000000 0.602117 0.867078
0.000000 0.602117 0.902501
0.000000 0.602117 0.936334
0.000000 0.602117 0.968765
0.000000 0.602117 0.999944
0.000000 0.602117 1.000000
0.000000 0.655310 0.000000
0.000000 0.655310 0.281533
0.000000 0.655310 0.391907
0.000000 0.655310 0.474356
0.000000 0.655310 0.542681
0.000000 0.655310 0.602117
0.000000 0.655310 0.655310
0.000000 0.655310 0.703818
0.000000 0.655310 0.748645
0.000000 0.655310 0.790484
0.000000 0.655310 0.829836
0.000000 0.655310 0.867078
0.000000 0.655310 0.902501
0.000000 0.655310 0.936334
0.000000 0.655310 0.968765
0.000000 0.655310 0.999944
0.000000 0.655310 1.000000
0.000000 0.703818 0.000000
0.000000 0.703818 0.281533
0.000000 0.703818 0.391907
0.000000 0.703818 0.474356
0.000000 0.703818 0.542681
0.000000 0.703818 0.602117
0.000000 0.703818 0.655310
0.000000 0.703818 0.703818
0.000000 0.703818 0.748645
0.000000 0.703818 0.790484
0.000000 0.703818 0.829836
0.000000 0.703818 0.867078
0.000000 0.703818 0.902501
0.000000 0.703818 0.936334
0.000000 0.703818 0.968765
0.000000 0.703818 0.999944
0.000000 0.703818 1.000000
0.000000 0.748645 0.000000
0.000000 0.748645 0.281533
0.000000 0.748645 0.391907
0.000000 0.748645 0.474356
0.000000 0.748645 0.542681
0.000000 0.748645 0.602117
0.000000 0.748645 0.655310
0.000000 0.748645 0.703818
0.000000 0.748645 0.748645
0.000000 0.748645 0.790484
0.000000 0.748645 0.829836
0.000000 0.748645 0.867078
0.000000 0.748645 0.902501
0.000000 0.748645 0.936334
0.000000 0.748645 0.968765
0.000000 0.748645 0.999944
0.000000 0.748645 1.000000
0.000000 0.790484 0.000000
0.000000 0.790484 0.281533
0.000000 0.790484 0.391907
0.000000 0.790484 0.474356
0.000000 0.790484 0.542681
0.000000 0.790484 0.602117
0.000000 0.790484 0.655310
0.000000 0.790484 0.703818
0.000000 0.790484 0.748645
0.000000 0.790484 0.790484
0.000000 0.790484 0.829836
0.000000 0.790484 0.867078
0.000000 0.790484 0.902501
0.000000 0.790484 0.936334
0.000000 0.790484 0.968765
0.000000 0.790484 0.999944
0.000000 0.790484 1.000000
0.000000 0.829836 0.000000
0.000000 0.829836 0.281533
0.000000 0.829836 0.391907
0.000000 0.829836 0.474356
0.000000 0.829836 0.542681
0.000000 0.829836 0.602117
0.000000 0.829836 0.655310
0.000000 0.829836 0.703818
0.000000 0.829836 0.748645
0.000000 0.829836 0.790484
0.000000 0.829836 0.829836
0.000000 0.829836 0.867078
0.000000 0.829836 0.902501
0.000000 0.829836 0.936334
0.000000 0.829836 0.968765
0.000000 0.829836 0.999944
0.000000 0.829836 1.000000
0.000000 0.867078 0.000000
0.000000 0.867078 0.281533
0.000000 0.867078 0.391907
0.000000 0.867078 0.474356
0.000000 0.867078 0.542681
0.000000 0.867078 0.602117
0.000000 0.867078 0.655310
0.000000 0.867078 0.703818
0.000000 0.867078 0.748645
0.000000 0.867078 0.790484
0.000000 0.867078 0.829836
0.000000 0.867078 0.867078
0.000000 0.867078 0.902501
0.000000 0.867078 0.936334
0.000000 0.867078 0.968765
0.000000 0.867078 0.999944
0.000000 0.867078 1.000000
0.000000 0.902501 0.000000
0.000000 0.902501 0.281533
0.000000 0.902501 0.391907
0.000000 0.902501 0.474356
0.000000 0.902501 0.542681
0.000000 0.902501 0.602117
0.000000 0.902501 0.655310
0.000000 0.902501 0.703818
0.000000 0.902501 0.748645
0.000000 0.902501 0.790484
0.000000 0.902501 0.829836
0.000000 0.902501 0.867078
0.000000 0.902501 0.902501
0.000000 0.902501 0.936334
0.000000 0.902501 0.968765
0.000000 0.902501 0.999944
0.000000 0.902501 1.000000
0.000000 0.936334 0.000000
0.000000 0.936334 0.281533
0.000000 0.936334 0.391907
0.000000 0.936334 0.474356
0.000000 0.936334 0.542681
0.000000 0.936334 0.602117
0.000000 0.936334 0.655310
0.000000 0.936334 0.703818
0.000000 0.936334 0.748645
0.000000 0.936334 0.790484
0.000000 0.936334 0.829836
0.000000 0.936334 0.867078
0.000000 0.936334 0.902501
0.000000 0.936334 0.936334
0.000000 0.936334 0.968765
0.000000 0.936334 0.999944
0.000000 0.936334 1.000000
0.000000 0.968765 0.000000
0.000000 0.968765 0.281533
0.000000 0.968765 0.391907
0.000000 0.968765 0.474356
0.000000 0.968765 0.542681
0.000000 0.968765 0.602117
0.000000 0.968765 0.655310
0.000000 0.968765 0.703818
0.000000 0.968765 0.748645
0.000000 0.968765 0.790484
0.000000 0.968765 0.829836
0.000000 0.968765 0.867078
0.000000 0.968765 0.902501
0.000000 0.968765 0.936334
0.000000 0.968765 0.968765
0.000000 0.968765 0.999944
0.000000 0.968765 1.000000
0.000000 0.999944 0.000000
0.000000 0.999944 0.281533
0.000000 0.999944 0.391907
0.000000 0.999944 0.474356
0.000000 0.999944 0.542681
0.000000 0.999944 0.602117
0.000000 0.999944 0.655310
0.000000 0.999944 0.703818
0.000000 0.999944 0.748645
0.000000 0.999944 0.790484
0.000000 0.999944 0.829836
0.000000 0.999944 0.867078
0.000000 0.999944 0.902501
0.000000 0.999944 0.936334
0.000000 0.999944 0.968765
0.000000 0.999944 0.999944
0.000000 0.999944 1.000000
0.000000 1.000000 0.000000
0.000000 1.000000 0.281533
0.000000 1.000000 0.391907
0.000000 1.000000 0.474356
0.000000 1.000000 0.542681
0.000000 1.000000 0.602117
0.000000 1.000000 0.655310
0.000000 1.000000 0.703818
0.000000 1.000000 0.748645
0.000000 1.000000 0.790484
0.000000 1.000000 0.829836
0.000000 1.000000 0.867078
0.000000 1.000000 0.902501
0.000000 1.000000 0.936334
0.000000 1.000000 0.968765
0.000000 1.000000 0.999944
0.000000 1.000000 1.000000
0.281533 0.000000 0.000000
0.281533 0.000000 0.281533
0.281533 0.000000 0.391907
0.281533 0.000000 0.474356
0.281533 0.000000 0.542681
0.281533 0.000000 0.602117
0.281533 0.000000 0.655310
0.281533 0.000000 0.703818
0.281533 0.000000 0.748645
0.281533 0.000000 0.790484
0.281533 0.000000 0.829836
0.281533 0.000000 0.867078
0.281533 0.000000 0.902501
0.281533 0.000000 0.936334
0.281533 0.000000 0.968765
0.281533 0.000000 0.999944
0.281533 0.000000 1.000000
0.281533 0.281533 0.000000
0.281533 0.281533 0.281533
0.281533 0.281533 0.391907
0.281533 0.281533 0.474356
0.281533 0.281533 0.542681
0.281533 0.281533 0.602117
0.281533 0.281533 0.655310
0.281533 0.281533 0.703818
0.281533 0.281533 0.748645
0.281533 0.281533 0.790484
0.281533 0.281533 0.829836
0.281533 0.281533 0.867078
0.281533 0.281533 0.902501
0.281533 0.281533 0.936334
0.281533 0.281533 0.968765
0.281533 0.281533 0.999944
0.281533 0.281533 1.000000
0.281533 0.391907 0.000000
0.281533 0.391907 0.281533
0.281533 0.391907 0.391907
0.281533 0.391907 0.474356
0.281533 0.391907 0.542681
0.281533 0.391907 0.602117
0.281533 0.391907 0.655310
0.281533 0.391907 0.703818
0.281533 0.391907 0.748645
0.281533 0.391907 0.790484
0.281533 0.391907 0.829836
0.281533 0.391907 0.867078
0.281533 0.391907 0.902501
0.281533 0.391907 0.936334
0.281533 0.391907 0.968765
0.281533 0.391907 0.999944
0.281533 0.391907 1.000000
0.281533 0.474356 0.000000
0.281533 0.474356 0.281533
0.281533 0.474356 0.391907
0.281533 0.474356 0.474356
0.281533 0.474356 0.542681
0.281533 0.474356 0.602117
0.281533 0.474356 0.655310
0.281533 0.474356 0.703818
0.281533 0.474356 0.748645
0.281533 0.474356 0.790484
0.281533 0.474356 0.829836
0.281533 0.474356 0.867078
0.281533 0.474356 0.902501
0.281533 0.474356 0.936334
0.281533 0.474356 0.968765
0.281533 0.474356 0.999944
0.281533 0.474356 1.000000
0.281533 0.542681 0.000000
0.281533 0.542681 0.281533
0.281533 0.542681 0.391907
0.281533 0.542681 0.474356
0.281533 0.542681 0.542681
0.281533 0.542681 0.602117
0.281533 0.542681 0.655310
0.281533 0.542681 0.703818
0.281533 0.542681 0.748645
0.281533 0.542681 0.790484
0.281533 0.542681 0.829836
0.281533 0.542681 0.867078
0.281533 0.542681 0.902501
0.281533 0.542681 0.936334
0.281533 0.542681 0.968765
0.281533 0.542681 0.999944
0.281533 0.542681 1.000000
0.281533 0.602117 0.000000
0.281533 0.602117 0.281533
0.281533 0.602117 0.391907
0.281533 0.602117 0.474356
0.281533 0.602117 0.542681
0.281533 0.602117 0.602117
0.281533 0.602117 0.655310
0.281533 0.602117 0.703818
0.281533 0.602117 0.748645
0.281533 0.602117 0.790484
0.281533 0.602117 0.829836
0.281533 0.602117 0.867078
0.281533 0.602117 0.902501
0.281533 0.602117 0.936334
0.281533 0.602117 0.968765
0.281533 0.602117 0.999944
0.281533 0.602117 1.000000
0.281533 0.655310 0.000000
0.281533 0.655310 0.281533
0.281533 0.655310 0.391907
0.281533 0.655310 0.474356
0.281533 0.655310 0.542681
0.281533 0.655310 0.602117
0.281533 0.655310 0.655310
0.281533 0.655310 0.703818
0.281533 0.655310 0.748645
0.281533 0.655310 0.790484
0.281533 0.655310 0.829836
0.281533 0.655310 0.867078
0.281533 0.655310 0.902501
0.281533 0.655310 0.936334
0.281533 0.655310 0.968765
0.281533 0.655310 0.999944
0.281533 0.655310 1.000000
0.281533 0.703818 0.000000
0.281533 0.703818 0.281533
0.281533 0.703818 0.391907
0.281533 0.703818 0.474356
0.281533 0.703818 0.542681
0.281533 0.703818 0.602117
0.281533 0.703818 0.655310
0.281533 0.703818 0.703818
0.281533 0.703818 0.748645
0.281533 0.703818 0.790484
0.281533 0.703818 0.829836
0.281533 0.703818 0.867078
0.281533 0.703818 0.902501
0.281533 0.703818 0.936334
0.281533 0.703818 0.968765
0.281533 0.703818 0.999944
0.281533 0.703818 1.000000
0.281533 0.748645 0.000000
0.281533 0.748645 0.281533
0.281533 0.748645 0.391907
0.281533 0.748645 0.474356
0.281533 0.748645 0.542681
0.281533 0.748645 0.602117
0.281533 0.748645 0.655310
0.281533 0.748645 0.703818
0.281533 0.748645 0.748645
0.281533 0.748645 0.790484
0.281533 0.748645 0.829836
0.281533 0.748645 0.867078
0.281533 0.748645 0.902501
0.281533 0.748645 0.936334
0.281533 0.748645 0.968765
0.281533 0.748645 0.999944
0.281533 0.748645 1.000000
0.281533 0.790484 0.000000
0.281533 0.790484 0.281533
0.281533 0.790484 0.391907
0.281533 0.790484 0.474356
0.281533 0.790484 0.542681
0.281533 0.790484 0.602117
0.281533 0.790484 0.655310
0.281533 0.790484 0.703818
0.281533 0.790484 0.748645
0.281533 0.790484 0.790484
0.281533 0.790484 0.829836
0.281533 0.790484 0.867078
0.281533 0.790484 0.902501
0.281533 0.790484 0.936334
0.281533 0.790484 0.968765
0.281533 0.790484 0.999944
0.281533 0.790484 1.000000
0.281533 0.829836 0.000000
0.281533 0.829836 0.281533
0.281533 0.829836 0.391907
0.281533 0.829836 0.474356
0.281533 0.829836 0.542681
0.281533 0.829836 0.602117
0.281533 0.829836 0.655310
0.281533 0.829836 0.703818
0.281533 0.829836 0.748645
0.281533 0.829836 0.790484
0.281533 0.829836 0.829836
0.281533 0.829836 0.867078
0.281533 0.829836 0.902501
0.281533 0.829836 0.936334
0.281533 0.829836 0.968765
0.281533 0.829836 0.999944
0.281533 0.829836 1.000000
0.281533 0.867078 0.000000
0.281533 0.867078 0.281533
0.281533 0.867078 0.391907
0.281533 0.867078 0.474356
0.281533 0.867078 0.542681
0.281533 0.867078 0.602117
0.281533 0.867078 0.655310
0.281533 0.867078 0.703818
0.281533 0.867078 0.748645
0.281533 0.867078 0.790484
0.281533 0.867078 0.829836
0.281533 0.867078 0.867078
0.281533 0.867078 0.902501
0.281533 0.867078 0.936334
0.281533 0.867078 0.968765
0.281533 0.867078 0.999944
0.281533 0.867078 1.000000
0.281533 0.902501 0.000000
0.281533 0.902501 0.281533
0.281533 0.902501 0.391907
0.281533 0.902501 0.474356
0.281533 0.902501 0.542681
0.281533 0.902501 0.602117
0.281533 0.902501 0.655310
0.281533 0.902501 0.703818
0.281533 0.902501 0.748645
0.281533 0.902501 0.790484
0.281533 0.902501 0.829836
0.281533 0.902501 0.867078
0.281533 0.902501 0.902501
0.281533 0.902501 0.936334
0.281533 0.902501 0.968765
0.281533 0.902501 0.999944
0.281533 0.902501 1.000000
0.281533 0.936334 0.000000
0.281533 0.936334 0.281533
0.281533 0.936334 0.391907
0.281533 0.936334 0.474356
0.281533 0.936334 0.542681
0.281533 0.936334 0.602117
0.281533 0.936334 0.655310
0.281533 0.936334 0.703818
0.281533 0.936334 0.748645
0.281533 0.936334 0.790484
0.281533 0.936334 0.829836
0.281533 0.936334 0.867078
0.281533 0.936334 0.902501
0.281533 0.936334 0.936334
0.281533 0.936334 0.968765
0.281533 0.936334 0.999944
0.281533 0.936334 1.000000
0.281533 0.968765 0.000000
0.281533 0.968765 0.281533
0.281533 0.968765 0.391907
0.281533 0.968765 0.474356
0.281533 0.968765 0.542681
0.281533 0.968765 0.602117
0.281533 0.968765 0.655310
0.281533 0.968765 0.703818
0.281533 0.968765 0.748645
0.281533 0.968765 0.790484
0.281533 0.968765 0.829836
0.281533 0.968765 0.867078
0.281533 0.968765 0.902501
0.281533 0.968765 0.936334
0.281533 0.968765 0.968765
0.281533 0.968765 0.999944
0.281533 0.968765 1.000000
0.281533 0.999944 0.000000
0.281533 0.999944 0.281533
0.281533 0.999944 0.391907
0.281533 0.999944 0.474356
0.281533 0.999944 0.542681
0.281533 0.999944 0.602117
0.281533 0.999944 0.655310
0.281533 0.999944 0.703818
0.281533 0.999944 0.748645
0.281533 0.999944 0.790484
0.281533 0.999944 0.829836
0.281533 0.999944 0.867078
0.281533 0.999944 0.902501
0.281533 0.999944 0.936334
0.281533 0.999944 0.968765
0.281533 0.999944 0.999944
0.281533 0.999944 1.000000
0.281533 1.000000 0.000000
0.281533 1.000000 0.281533
0.281533 1.000000 0.391907
0.281533 1.000000 0.474356
0.281533 1.000000 0.542681
0.281533 1.000000 0.602117
0.281533 1.000000 0.655310
0.281533 1.000000 0.703818
0.281533 1.000000 0.748645
0.281533 1.000000 0.790484
0.281533 1.000000 0.829836
0.281533 1.000000 0.867078
0.281533 1.000000 0.902501
0.281533 1.000000 0.936334
0.281533 1.000000 0.968765
0.281533 1.000000 0.999944
0.281533 1.000000 1.000000
0.391907 0.000000 0.000000
0.391907 0.000000 0.281533
0.391907 0.000000 0.391907
0.391907 0.000000 0.474356
0.391907 0.000000 0.542681
0.391907 0.000000 0.602117
0.391907 0.000000 0.655310
0.391907 0.000000 0.703818
0.391907 0.000000 0.748645
0.391907 0.000000 0.790484
0.391907 0.000000 0.829836
0.391907 0.000000 0.867078
0.391907 0.000000 0.902501
0.391907 0.000000 0.936334
0.391907 0.000000 0.968765
0.391907 0.000000 0.999944
0.391907 0.000000 1.000000
0.391907 0.281533 0.000000
0.391907 0.281533 0.281533
0.391907 0.281533 0.391907
0.391907 0.281533 0.474356
0.391907 0.281533 0.542681
0.391907 0.281533 0.602117
0.391907 0.281533 0.655310
0.391907 0.281533 0.703818
0.391907 0.281533 0.748645
0.391907 0.281533 0.790484
0.391907 0.281533 0.829836
0.391907 0.281533 0.867078
0.391907 0.281533 0.902501
0.391907 0.281533 0.936334
0.391907 0.281533 0.968765
0.391907 0.281533 0.999944
0.391907 0.281533 1.000000
0.391907 0.391907 0.000000
0.391907 0.391907 0.281533
0.391907 0.391907 0.391907
0.391907 0.391907 0.474356
0.391907 0.391907 0.542681
0.391907 0.391907 0.602117
0.391907 0.391907 0.655310
0.391907 0.391907 0.703818
0.391907 0.391907 0.748645
0.391907 0.391907 0.790484
0.391907 0.391907 0.829836
0.391907 0.391907 0.867078
0.391907 0.391907 0.902501
0.391907 0.391907 0.936334
0.391907 0.391907 0.968765
0.391907 0.391907 0.999944
0.391907 0.391907 1.000000
0.391907 0.474356 0.000000
0.391907 0.474356 0.281533
0.391907 0.474356 0.391907
0.391907 0.474356 0.474356
0.391907 0.474356 0.542681
0.391907 0.474356 0.602117
0.391907 0.474356 0.655310
0.391907 0.474356 0.703818
0.391907 0.474356 0.748645
0.391907 0.474356 0.790484
0.391907 0.474356 0.829836
0.391907 0.474356 0.867078
0.391907 0.474356 0.902501
0.391907 0.474356 0.936334
0.391907 0.474356 0.968765
0.391907 0.474356 0.999944
0.391907 0.474356 1.000000
0.391907 0.542681 0.000000
0.391907 0.542681 0.281533
0.391907 0.542681 0.391907
0.391907 0.542681 0.474356
0.391907 0.542681 0.542681
0.391907 0.542681 0.602117
0.391907 0.542681 0.655310
0.391907 0.542681 0.703818
0.391907 0.542681 0.748645
0.391907 0.542681 0.790484
0.391907 0.542681 0.829836
0.391907 0.542681 0.867078
0.391907 0.542681 0.902501
0.391907 0.542681 0.936334
0.391907 0.542681 0.968765
0.391907 0.542681 0.999944
0.391907 0.542681 1.000000
0.391907 0.602117 0.000000
0.391907 0.602117 0.281533
0.391907 0.602117 0.391907
0.391907 0.602117 0.474356
0.391907 0.602117 0.542681
0.391907 0.602117 0.602117
0.391907 0.602117 0.655310
0.391907 0.602117 0.703818
0.391907 0.602117 0.748645
0.391907 0.602117 0.790484
0.391907 0.602117 0.829836
0.391907 0.602117 0.867078
0.391907 0.602117 0.902501
0.391907 0.602117 0.936334
0.391907 0.602117 0.968765
0.391907 0.602117 0.999944
0.391907 0.602117 1.000000
0.391907 0.655310 0.000000
0.391907 0.655310 0.281533
0.391907 0.655310 0.391907
0.391907 0.655310 0.474356
0.391907 0.655310 0.542681
0.391907 0.655310 0.602117
0.391907 0.655310 0.655310
0.391907 0.655310 0.703818
0.391907 0.655310 0.748645
0.391907 0.655310 0.790484
0.391907 0.655310 0.829836
0.391907 0.655310 0.867078
0.391907 0.655310 0.902501
0.391907 0.655310 0.936334
0.391907 0.655310 0.968765
0.391907 0.655310 0.999944
0.391907 0.655310 1.000000
0.391907 0.703818 0.000000
0.391907 0.703818 0.281533
0.391907 0.703818 0.391907
0.391907 0.703818 0.474356
0.391907 0.703818 0.542681
0.391907 0.703818 0.602117
0.391907 0.703818 0.655310
0.391907 0.703818 0.703818
0.391907 0.703818 0.748645
0.391907 0.703818 0.790484
0.391907 0.703818 0.829836
0.391907 0.703818 0.867078
0.391907 0.703818 0.902501
0.391907 0.703818 0.936334
0.391907 0.703818 0.968765
0.391907 0.703818 0.999944
0.391907 0.703818 1.000000
0.391907 0.748645 0.000000
0.391907 0.748645 0.281533
0.391907 0.748645 0.391907
0.391907 0.748645 0.474356
0.391907 0.748645 0.542681
0.391907 0.748645 0.602117
0.391907 0.748645 0.655310
0.391907 0.748645 0.703818
0.391907 0.748645 0.748645
0.391907 0.748645 0.790484
0.391907 0.748645 0.829836
0.391907 0.748645 0.867078
0.391907 0.748645 0.902501
0.391907 0.748645 0.936334
0.391907 0.748645 0.968765
0.391907 0.748645 0.999944
0.391907 0.748645 1.000000
0.391907 0.790484 0.000000
0.391907 0.790484 0.281533
0.391907 0.790484 0.391907
0.391907 0.790484 0.474356
0.391907 0.790484 0.542681
0.391907 0.790484 0.602117
0.391907 0.790484 0.655310
0.391907 0.790484 0.703818
0.391907 0.790484 0.748645
0.391907 0.790484 0.790484
0.391907 0.790484 0.829836
0.391907 0.790484 0.867078
0.391907 0.790484 0.902501
0.391907 0.790484 0.936334
0.391907 0.790484 0.968765
0.391907 0.790484 0.999944
0.391907 0.790484 1.000000
0.391907 0.829836 0.000000
0.391907 0.829836 0.281533
0.391907 0.829836 0.391907
0.391907 0.829836 0.474356
0.391907 0.829836 0.542681
0.391907 0.829836 0.602117
0.391907 0.829836 0.655310
0.391907 0.829836 0.703818
0.391907 0.829836 0.748645
0.391907 0.829836 0.790484
0.391907 0.829836 0.829836
0.391907 0.829836 0.867078
0.391907 0.829836 0.902501
0.391907 0.829836 0.936334
0.391907 0.829836 0.968765
0.391907 0.829836 0.999944
0.391907 0.829836 1.000000
0.391907 0.867078 0.000000
0.391907 0.867078 0.281533
0.391907 0.867078 0.391907
0.391907 0.867078 0.474356
0.391907 0.867078 0.542681
0.391907 0.867078 0.602117
0.391907 0.867078 0.655310
0.391907 0.867078 0.703818
0.391907 0.867078 0.748645
0.391907 0.867078 0.790484
0.391907 0.867078 0.829836
0.391907 0.867078 0.867078
0.391907 0.867078 0.902501
0.391907 0.867078 0.936334
0.391907 0.867078 0.968765
0.391907 0.867078 0.999944
0.391907 0.867078 1.000000
0.391907 0.902501 0.000000
0.391907 0.902501 0.281533
0.391907 0.902501 0.391907
0.391907 0.902501 0.474356
0.391907 0.902501 0.542681
0.391907 0.902501 0.602117
0.391907 0.902501 0.655310
0.391907 0.902501 0.703818
0.391907 0.902501 0.748645
0.391907 0.902501 0.790484
0.391907 0.902501 0.829836
0.391907 0.902501 0.867078
0.391907 0.902501 0.902501
0.391907 0.902501 0.936334
0.391907 0.902501 0.968765
0.391907 0.902501 0.999944
0.391907 0.902501 1.000000
0.391907 0.936334 0.000000
0.391907 0.936334 0.281533
0.391907 0.936334 0.391907
0.391907 0.936334 0.474356
0.391907 0.936334 0.542681
0.391907 0.936334 0.602117
0.391907 0.936334 0.655310
0.391907 0.936334 0.703818
0.391907 0.936334 0.748645
0.391907 0.936334 0.790484
0.391907 0.936334 0.829836
0.391907 0.936334 0.867078
0.391907 0.936334 0.902501
0.391907 0.936334 0.936334
0.391907 0.936334 0.968765
0.391907 0.936334 0.999944
0.391907 0.936334 1.000000
0.391907 0.968765 0.000000
0.391907 0.968765 0.281533
0.391907 0.968765 0.391907
0.391907 0.968765 0.474356
0.391907 0.968765 0.542681
0.391907 0.968765 0.602117
0.391907 0.968765 0.655310
0.391907 0.968765 0.703818
0.391907 0.968765 0.748645
0.391907 0.968765 0.790484
0.391907 0.968765 0.829836
0.391907 0.968765 0.867078
0.391907 0.968765 0.902501
0.391907 0.968765 0.936334
0.391907 0.968765 0.968765
0.391907 0.968765 0.999944
0.391907 0.968765 1.000000
0.391907 0.999944 0.000000
0.391907 0.999944 0.281533
0.391907 0.999944 0.391907
0.391907 0.999944 0.474356
0.391907 0.999944 0.542681
0.391907 0.999944 0.602117
0.391907 0.999944 0.655310
0.391907 0.999944 0.703818
0.391907 0.999944 0.748645
0.391907 0.999944 0.790484
0.391907 0.999944 0.829836
0.391907 0.999944 0.867078
0.391907 0.999944 0.902501
0.391907 0.999944 0.936334
0.391907 0.999944 0.968765
0.391907 0.999944 0.999944
0.391907 0.999944 1.000000
0.391907 1.000000 0.000000
0.391907 1.000000 0.281533
0.391907 1.000000 0.391907
0.391907 1.000000 0.474356
0.391907 1.000000 0.542681
0.391907 1.000000 0.602117
0.391907 1.000000 0.655310
0.391907 1.000000 0.703818
0.391907 1.000000 0.748645
0.391907 1.000000 0.790484
0.391907 1.000000 0.829836
0.391907 1.000000 0.867078
0.391907 1.000000 0.902501
0.391907 1.000000 0.936334
0.391907 1.000000 0.968765
0.391907 1.000000 0.999944
0.391907 1.000000 1.000000
0.474356 0.000000 0.000000
0.474356 0.000000 0.281533
0.474356 0.000000 0.391907
0.474356 0.000000 0.474356
0.474356 0.000000 0.542681
0.474356 0.000000 0.602117
0.474356 0.000000 0.655310
0.474356 0.000000 0.703818
0.474356 0.000000 0.748645
0.474356 0.000000 0.790484
0.474356 0.000000 0.829836
0.474356 0.000000 0.867078
0.474356 0.000000 0.902501
0.474356 0.000000 0.936334
0.474356 0.000000 0.968765
0.474356 0.000000 0.999944
0.474356 0.000000 1.000000
0.474356 0.281533 0.000000
0.474356 0.281533 0.281533
