luts/neutral.cube
# S-Log3 to Rec.709
TITLE "S-Log3 to Rec.709"
LUT_3D_SIZE 5
0.000000 0.000000 0.000000
0.000000 0.000000 0.542681
0.000000 0.000000 0.748645
0.000000 0.000000 0.902501
0.000000 0.000000 1.000000
0.000000 0.542681 0.000000
0.000000 0.542681 0.542681
0.000000 0.542681 0.748645
0.000000 0.542681 0.902501
0.000000 0.542681 1.000000
0.000000 0.748645 0.000000
0.000000 0.748645 0.542681
0.000000 0.748645 0.748645
0.000000 0.748645 0.902501
0.000000 0.748645 1.000000
0.000000 0.902501 0.000000
0.000000 0.902501 0.542681
0.000000 0.902501 0.748645
0.000000 0.902501 0.902501
0.000000 0.902501 1.000000
0.000000 1.000000 0.000000
0.000000 1.000000 0.542681
0.000000 1.000000 0.748645
0.000000 1.000000 0.902501
0.000000 1.000000 1.000000
0.542681 0.000000 0.000000
0.542681 0.000000 0.542681
0.542681 0.000000 0.748645
0.542681 0.000000 0.902501
0.542681 0.000000 1.000000
0.542681 0.542681 0.000000
0.542681 0.542681 0.542681
0.542681 0.542681 0.748645
0.542681 0.542681 0.902501
0.542681 0.542681 1.000000
0.542681 0.748645 0.000000
0.542681 0.748645 0.542681
0.542681 0.748645 0.748645
0.542681 0.748645 0.902501
0.542681 0.748645 1.000000
0.542681 0.902501 0.000000
0.542681 0.902501 0.542681
0.542681 0.902501 0.748645
0.542681 0.902501 0.902501
0.542681 0.902501 1.000000
0.542681 1.000000 0.000000
0.542681 1.000000 0.542681
0.542681 1.000000 0.748645
0.542681 1.000000 0.902501
0.542681 1.000000 1.000000
0.748645 0.000000 0.000000
0.748645 0.000000 0.542681
0.748645 0.000000 0.748645
0.748645 0.000000 0.902501
0.748645 0.000000 1.000000
0.748645 0.542681 0.000000
0.748645 0.542681 0.542681
0.748645 0.542681 0.748645
0.748645 0.542681 0.902501
0.748645 0.542681 1.000000
0.748645 0.748645 0.000000
0.748645 0.748645 0.542681
0.748645 0.748645 0.748645
0.748645 0.748645 0.902501
0.748645 0.748645 1.000000
0.748645 0.902501 0.000000
0.748645 0.902501 0.542681
0.748645 0.902501 0.748645
0.748645 0.902501 0.902501
0.748645 0.902501 1.000000
0.748645 1.000000 0.000000
0.748645 1.000000 0.542681
0.748645 1.000000 0.748645
0.748645 1.000000 0.902501
0.748645 1.000000 1.000000
0.902501 0.000000 0.000000
0.902501 0.000000 0.542681
0.902501 0.000000 0.748645
0.902501 0.000000 0.902501
0.902501 0.000000 1.000000
0.902501 0.542681 0.000000
0.902501 0.542681 0.542681
0.902501 0.542681 0.748645
0.902501 0.542681 0.902501
0.902501 0.542681 1.000000
0.902501 0.748645 0.000000
0.902501 0.748645 0.542681
0.902501 0.748645 0.748645
0.902501 0.748645 0.902501
0.902501 0.748645 1.000000
0.902501 0.902501 0.000000
0.902501 0.902501 0.542681
0.902501 0.902501 0.748645
0.902501 0.902501 0.902501
0.902501 0.902501 1.000000
0.902501 1.000000 0.000000
0.902501 1.000000 0.542681
0.902501 1.000000 0.748645
0.902501 1.000000 0.902501
0.902501 1.000000 1.000000
1.000000 0.000000 0.000000
1.000000 0.000000 0.542681
1.000000 0.000000 0.748645
1.000000 0.000000 0.902501
1.000000 0.000000 1.000000
1.000000 0.542681 0.000000
1.000000 0.542681 0.542681
1.000000 0.542681 0.748645
1.000000 0.542681 0.902501
1.000000 0.542681 1.000000
1.000000 0.748645 0.000000
1.000000 0.748645 0.542681
1.000000 0.748645 0.748645
1.000000 0.748645 0.902501
1.000000 0.748645 1.000000
1.000000 0.902501 0.000000
1.000000 0.902501 0.542681
1.000000 0.902501 0.748645
1.000000 0.902501 0.902501
1.000000 0.902501 1.000000
1.000000 1.000000 0.000000
1.000000 1.000000 0.542681
1.000000 1.000000 0.748645
1.000000 1.000000 0.902501
1.000000 1.000000 1.000000
