luts/teal-orange.cube
# Teal & Orange
TITLE "Teal & Orange"
LUT_3D_SIZE 5
0.000000 0.050000 0.100000
0.009280 0.050000 0.631459
0.012802 0.050000 0.830526
0.015433 0.050000 0.978284
0.017613 0.050000 1.000000
0.047783 0.592681 0.068145
0.057063 0.592681 0.573672
0.060585 0.592681 0.762898
0.063216 0.592681 0.903305
0.065396 0.592681 1.000000
0.065918 0.798645 0.056055
0.075198 0.798645 0.551740
0.078720 0.798645 0.737232
0.081351 0.798645 0.874848
0.083531 0.798645 0.988275
0.079465 0.952501 0.047023
0.088745 0.952501 0.535357
0.092267 0.952501 0.718058
0.094898 0.952501 0.853590
0.097078 0.952501 0.965291
0.090691 1.000000 0.039539
0.099971 1.000000 0.521781
0.103493 1.000000 0.702170
0.106124 1.000000 0.835974
0.108304 1.000000 0.946243
0.476095 0.050000 0.083774
0.492090 0.050000 0.602024
0.498160 0.050000 0.796079
0.502695 0.050000 0.940092
0.506453 0.050000 1.000000
0.558453 0.592681 0.051918
0.574448 0.592681 0.544238
0.580518 0.592681 0.728451
0.585053 0.592681 0.865112
0.588810 0.592681 0.977749
0.589710 0.798645 0.039828
0.605705 0.798645 0.522306
0.611775 0.798645 0.702784
0.616310 0.798645 0.836655
0.620068 0.798645 0.946980
0.613060 0.952501 0.030797
0.629054 0.952501 0.505923
0.635125 0.952501 0.683611
0.639659 0.952501 0.815398
0.643417 0.952501 0.923995
0.632409 1.000000 0.023313
0.648403 1.000000 0.492346
0.654474 1.000000 0.667722
0.659008 1.000000 0.797782
0.662766 1.000000 0.904948
0.666009 0.050000 0.077616
0.684552 0.050000 0.590853
0.691589 0.050000 0.783005
0.696846 0.050000 0.925597
0.701203 0.050000 1.000000
0.761489 0.592681 0.045760
0.780032 0.592681 0.533066
0.787069 0.592681 0.715377
0.792326 0.592681 0.850617
0.796683 0.592681 0.962076
0.797726 0.798645 0.033670
0.816269 0.798645 0.511135
0.823307 0.798645 0.689710
0.828564 0.798645 0.822160
0.832920 0.798645 0.931307
0.824796 0.952501 0.024639
0.843339 0.952501 0.494751
0.850376 0.952501 0.670537
0.855633 0.952501 0.800903
0.859990 0.952501 0.908322
0.847228 1.000000 0.017155
0.865771 1.000000 0.481175
0.872808 1.000000 0.654648
0.878066 1.000000 0.783287
0.882422 1.000000 0.889275
0.811186 0.050000 0.073015
0.831632 0.050000 0.582508
0.839392 0.050000 0.773239
0.845189 0.050000 0.914769
0.849993 0.050000 1.000000
0.916468 0.592681 0.041160
0.936914 0.592681 0.524721
0.944674 0.592681 0.705611
0.950471 0.592681 0.839789
0.955275 0.592681 0.950368
0.956425 0.798645 0.029070
0.976872 0.798645 0.502790
0.984632 0.798645 0.679944
0.990429 0.798645 0.811332
0.995233 0.798645 0.919599
0.986274 0.952501 0.020038
1.000000 0.952501 0.486406
1.000000 0.952501 0.660771
1.000000 0.952501 0.790075
1.000000 0.952501 0.896614
1.000000 1.000000 0.012554
1.000000 1.000000 0.472830
1.000000 1.000000 0.644882
1.000000 1.000000 0.772459
1.000000 1.000000 0.877567
0.933637 0.050000 0.069203
0.955661 0.050000 0.575592
0.964020 0.050000 0.765145
0.970264 0.050000 0.905796
0.975439 0.050000 1.000000
1.000000 0.592681 0.037348
1.000000 0.592681 0.517806
1.000000 0.592681 0.697517
1.000000 0.592681 0.830816
1.000000 0.592681 0.940666
1.000000 0.798645 0.025258
1.000000 0.798645 0.495874
1.000000 0.798645 0.671851
1.000000 0.798645 0.802359
1.000000 0.798645 0.909897
1.000000 0.952501 0.016226
1.000000 0.952501 0.479491
1.000000 0.952501 0.652677
1.000000 0.952501 0.781102
1.000000 0.952501 0.886912
1.000000 1.000000 0.008742
1.000000 1.000000 0.465915
1.000000 1.000000 0.636789
1.000000 1.000000 0.763486
1.000000 1.000000 0.867865
