luts/teal-orange.cube
# Teal & Orange
TITLE "Teal & Orange"
LUT_3D_SIZE 9
0.000000 0.050000 0.100000
0.006702 0.050000 0.484813
0.009280 0.050000 0.631459
0.011206 0.050000 0.740496
0.012802 0.050000 0.830526
0.014190 0.050000 0.908601
0.015433 0.050000 0.978284
0.016566 0.050000 1.000000
0.017613 0.050000 1.000000
0.034507 0.441907 0.076995
0.041209 0.441907 0.448284
0.043787 0.441907 0.589727
0.045713 0.441907 0.694879
0.047309 0.441907 0.781688
0.048698 0.441907 0.856960
0.049940 0.441907 0.924137
0.051073 0.441907 0.985238
0.052120 0.441907 1.000000
0.047783 0.592681 0.068145
0.054485 0.592681 0.434231
0.057063 0.592681 0.573672
0.058989 0.592681 0.677328
0.060585 0.592681 0.762898
0.061973 0.592681 0.837093
0.063216 0.592681 0.903305
0.064349 0.592681 0.963526
0.065396 0.592681 1.000000
0.057700 0.705310 0.061533
0.064402 0.705310 0.423733
0.066980 0.705310 0.561679
0.068906 0.705310 0.664218
0.070502 0.705310 0.748863
0.071890 0.705310 0.822252
0.073133 0.705310 0.887743
0.074266 0.705310 0.947308
0.075313 0.705310 1.000000
0.065918 0.798645 0.056055
0.072620 0.798645 0.415033
0.075198 0.798645 0.551740
0.077124 0.798645 0.653354
0.078720 0.798645 0.737232
0.080108 0.798645 0.809954
0.081351 0.798645 0.874848
0.082484 0.798645 0.933868
0.083531 0.798645 0.988275
0.073067 0.879836 0.051289
0.079769 0.879836 0.407466
0.082347 0.879836 0.543095
0.084273 0.879836 0.643903
0.085869 0.879836 0.727114
0.087257 0.879836 0.799256
0.088500 0.879836 0.863630
0.089633 0.879836 0.922176
0.090680 0.879836 0.976146
0.079465 0.952501 0.047023
0.086167 0.952501 0.400693
0.088745 0.952501 0.535357
0.090671 0.952501 0.635445
0.092267 0.952501 0.718058
0.093655 0.952501 0.789681
0.094898 0.952501 0.853590
0.096031 0.952501 0.911712
0.097078 0.952501 0.965291
0.085300 1.000000 0.043134
0.092001 1.000000 0.394516
0.094580 1.000000 0.528301
0.096506 1.000000 0.627732
0.098102 1.000000 0.709801
0.099490 1.000000 0.780949
0.100732 1.000000 0.844435
0.101866 1.000000 0.902170
0.102913 1.000000 0.955391
0.090691 1.000000 0.039539
0.097393 1.000000 0.388809
0.099971 1.000000 0.521781
0.101897 1.000000 0.620604
0.103493 1.000000 0.702170
0.104882 1.000000 0.772881
0.106124 1.000000 0.835974
0.107257 1.000000 0.893353
0.108304 1.000000 0.946243
0.340287 0.050000 0.088282
0.350491 0.050000 0.466206
0.354416 0.050000 0.610202
0.357348 0.050000 0.717260
0.359778 0.050000 0.805649
0.361892 0.050000 0.882297
0.363784 0.050000 0.950703
0.365509 0.050000 1.000000
0.367104 0.050000 1.000000
0.392826 0.441907 0.065277
0.403029 0.441907 0.429677
0.406955 0.441907 0.568470
0.409887 0.441907 0.671642
0.412317 0.441907 0.756811
0.414431 0.441907 0.830656
0.416323 0.441907 0.896555
0.418048 0.441907 0.956492
0.419643 0.441907 1.000000
0.413039 0.592681 0.056427
0.423242 0.592681 0.415624
0.427168 0.592681 0.552415
0.430100 0.592681 0.654092
0.432530 0.592681 0.738022
0.434644 0.592681 0.810789
0.436536 0.592681 0.875724
0.438261 0.592681 0.934780
0.439855 0.592681 0.989222
0.428138 0.705310 0.049815
0.438341 0.705310 0.405126
0.442267 0.705310 0.540422
0.445199 0.705310 0.640982
0.447629 0.705310 0.723986
0.449743 0.705310 0.795948
0.451635 0.705310 0.860162
0.453360 0.705310 0.918562
0.454954 0.705310 0.972396
0.440650 0.798645 0.044337
0.450854 0.798645 0.396427
0.454779 0.798645 0.530484
0.457712 0.798645 0.630118
0.460142 0.798645 0.712355
0.462255 0.798645 0.783650
0.464147 0.798645 0.847266
0.465873 0.798645 0.905122
0.467467 0.798645 0.958453
0.451535 0.879836 0.039571
0.461738 0.879836 0.388859
0.465664 0.879836 0.521838
0.468596 0.879836 0.620667
0.471026 0.879836 0.702237
0.473140 0.879836 0.772952
0.475032 0.879836 0.836049
0.476757 0.879836 0.893430
0.478351 0.879836 0.946324
0.461276 0.952501 0.035305
0.471480 0.952501 0.382086
0.475405 0.952501 0.514101
0.478338 0.952501 0.612209
0.480768 0.952501 0.693181
0.482881 0.952501 0.763377
0.484773 0.952501 0.826009
0.486498 0.952501 0.882966
0.488093 0.952501 0.935468
0.470159 1.000000 0.031416
0.480363 1.000000 0.375910
0.484288 1.000000 0.507045
0.487221 1.000000 0.604496
0.489651 1.000000 0.684924
0.491765 1.000000 0.754645
0.493657 1.000000 0.816854
0.495382 1.000000 0.873424
0.496976 1.000000 0.925569
0.478369 1.000000 0.027821
0.488572 1.000000 0.370202
0.492498 1.000000 0.500524
0.495430 1.000000 0.597368
0.497860 1.000000 0.677293
0.499974 1.000000 0.746577
0.501866 1.000000 0.808393
0.503591 1.000000 0.864607
0.505185 1.000000 0.916421
0.476095 0.050000 0.083774
0.487646 0.050000 0.459048
0.492090 0.050000 0.602024
0.495409 0.050000 0.708321
0.498160 0.050000 0.796079
0.500553 0.050000 0.872177
0.502695 0.050000 0.940092
0.504648 0.050000 1.000000
0.506453 0.050000 1.000000
0.535571 0.441907 0.060769
0.547122 0.441907 0.422519
0.551566 0.441907 0.560292
0.554885 0.441907 0.662703
0.557636 0.441907 0.747240
0.560029 0.441907 0.820537
0.562171 0.441907 0.885944
0.564124 0.441907 0.945433
0.565929 0.441907 1.000000
0.558453 0.592681 0.051918
0.570004 0.592681 0.408466
0.574448 0.592681 0.544238
0.577767 0.592681 0.645152
0.580518 0.592681 0.728451
0.582911 0.592681 0.800669
0.585053 0.592681 0.865112
0.587006 0.592681 0.923721
0.588810 0.592681 0.977749
0.575546 0.705310 0.045307
0.587096 0.705310 0.397968
0.591540 0.705310 0.532244
0.594860 0.705310 0.632042
0.597611 0.705310 0.714415
0.600004 0.705310 0.785829
0.602145 0.705310 0.849551
0.604098 0.705310 0.907503
0.605903 0.705310 0.960923
0.589710 0.798645 0.039828
0.601261 0.798645 0.389268
0.605705 0.798645 0.522306
0.609024 0.798645 0.621178
0.611775 0.798645 0.702784
0.614168 0.798645 0.773530
0.616310 0.798645 0.836655
0.618263 0.798645 0.894062
0.620068 0.798645 0.946980
0.602032 0.879836 0.035062
0.613583 0.879836 0.381701
0.618026 0.879836 0.513660
0.621346 0.879836 0.611728
0.624097 0.879836 0.692666
0.626490 0.879836 0.762832
0.628631 0.879836 0.825438
0.630584 0.879836 0.882371
0.632389 0.879836 0.934851
0.613060 0.952501 0.030797
0.624610 0.952501 0.374928
0.629054 0.952501 0.505923
0.632374 0.952501 0.603269
0.635125 0.952501 0.683611
0.637517 0.952501 0.753257
0.639659 0.952501 0.815398
0.641612 0.952501 0.871907
0.643417 0.952501 0.923995
0.623116 1.000000 0.026907
0.634667 1.000000 0.368752
0.639110 1.000000 0.498867
0.642430 1.000000 0.595556
0.645181 1.000000 0.675353
0.647574 1.000000 0.744526
0.649715 1.000000 0.806243
0.651668 1.000000 0.862365
0.653473 1.000000 0.914096
0.632409 1.000000 0.023313
0.643960 1.000000 0.363044
0.648403 1.000000 0.492346
0.651723 1.000000 0.588428
0.654474 1.000000 0.667722
0.656867 1.000000 0.736457
0.659008 1.000000 0.797782
0.660961 1.000000 0.853547
0.662766 1.000000 0.904948
0.579319 0.050000 0.080406
0.591876 0.050000 0.453700
0.596707 0.050000 0.595915
0.600316 0.050000 0.701643
0.603306 0.050000 0.788929
0.605908 0.050000 0.864617
0.608236 0.050000 0.932166
0.610359 0.050000 0.993606
0.612321 0.050000 1.000000
0.643977 0.441907 0.057401
0.656534 0.441907 0.417172
0.661365 0.441907 0.554184
0.664974 0.441907 0.656025
0.667964 0.441907 0.740091
0.670566 0.441907 0.812977
0.672894 0.441907 0.878018
0.675017 0.441907 0.937171
0.676979 0.441907 0.991703
0.668852 0.592681 0.048551
0.681409 0.592681 0.403118
0.686240 0.592681 0.538129
0.689849 0.592681 0.638475
0.692840 0.592681 0.721302
0.695441 0.592681 0.793110
0.697769 0.592681 0.857186
0.699893 0.592681 0.915460
0.701855 0.592681 0.969179
0.687434 0.705310 0.041940
0.699991 0.705310 0.392621
0.704822 0.705310 0.526136
0.708431 0.705310 0.625365
0.711422 0.705310 0.707266
0.714023 0.705310 0.778269
0.716351 0.705310 0.841624
0.718475 0.705310 0.899241
0.720437 0.705310 0.952353
0.702833 0.798645 0.036461
0.715390 0.798645 0.383921
0.720221 0.798645 0.516197
0.723830 0.798645 0.614500
0.726820 0.798645 0.695635
0.729422 0.798645 0.765971
0.731750 0.798645 0.828729
0.733873 0.798645 0.885801
0.735835 0.798645 0.938409
0.716228 0.879836 0.031695
0.728785 0.879836 0.376353
0.733616 0.879836 0.507551
0.737225 0.879836 0.605050
0.740216 0.879836 0.685517
0.742817 0.879836 0.755272
0.745145 0.879836 0.817511
0.747268 0.879836 0.874110
0.749230 0.879836 0.926280
0.728217 0.952501 0.027429
0.740774 0.952501 0.369581
0.745605 0.952501 0.499814
0.749213 0.952501 0.596592
0.752204 0.952501 0.676461
0.754805 0.952501 0.745698
0.757134 0.952501 0.807471
0.759257 0.952501 0.863646
0.761219 0.952501 0.915424
0.739149 1.000000 0.023540
0.751706 1.000000 0.363404
0.756537 1.000000 0.492758
0.760146 1.000000 0.588878
0.763136 1.000000 0.668204
0.765738 1.000000 0.736966
0.768066 1.000000 0.798316
0.770189 1.000000 0.854104
0.772151 1.000000 0.905525
0.749252 1.000000 0.019945
0.761809 1.000000 0.357697
0.766640 1.000000 0.486237
0.770249 1.000000 0.581751
0.773239 1.000000 0.660573
0.775841 1.000000 0.728897
0.778169 1.000000 0.789855
0.780292 1.000000 0.845286
0.782254 1.000000 0.896377
0.666009 0.050000 0.077616
0.679400 0.050000 0.449269
0.684552 0.050000 0.590853
0.688400 0.050000 0.696109
0.691589 0.050000 0.783005
0.694364 0.050000 0.858353
0.696846 0.050000 0.925597
0.699111 0.050000 0.986760
0.701203 0.050000 1.000000
0.734961 0.441907 0.054611
0.748352 0.441907 0.412740
0.753504 0.441907 0.549121
0.757353 0.441907 0.650491
0.760542 0.441907 0.734166
0.763316 0.441907 0.806713
0.765799 0.441907 0.871449
0.768063 0.441907 0.930325
0.770155 0.441907 0.984601
0.761489 0.592681 0.045760
0.774880 0.592681 0.398687
0.780032 0.592681 0.533066
0.783880 0.592681 0.632941
0.787069 0.592681 0.715377
0.789843 0.592681 0.786845
0.792326 0.592681 0.850617
0.794590 0.592681 0.908614
0.796683 0.592681 0.962076
0.781305 0.705310 0.039149
0.794696 0.705310 0.388189
0.799848 0.705310 0.521073
0.803696 0.705310 0.619831
0.806885 0.705310 0.701341
0.809659 0.705310 0.772005
0.812142 0.705310 0.835056
0.814407 0.705310 0.892395
0.816499 0.705310 0.945250
0.797726 0.798645 0.033670
0.811117 0.798645 0.379490
0.816269 0.798645 0.511135
0.820117 0.798645 0.608966
0.823307 0.798645 0.689710
0.826081 0.798645 0.759706
0.828564 0.798645 0.822160
0.830828 0.798645 0.878955
0.832920 0.798645 0.931307
0.812011 0.879836 0.028904
0.825402 0.879836 0.371922
0.830554 0.879836 0.502489
0.834402 0.879836 0.599516
0.837591 0.879836 0.679592
0.840366 0.879836 0.749008
0.842849 0.879836 0.810942
0.845113 0.879836 0.867264
0.847205 0.879836 0.919178
0.824796 0.952501 0.024639
0.838187 0.952501 0.365149
0.843339 0.952501 0.494751
0.847187 0.952501 0.591058
0.850376 0.952501 0.670537
0.853150 0.952501 0.739433
0.855633 0.952501 0.800903
0.857897 0.952501 0.856800
0.859990 0.952501 0.908322
0.836454 1.000000 0.020749
0.849845 1.000000 0.358973
0.854997 1.000000 0.487696
0.858845 1.000000 0.583345
0.862035 1.000000 0.662279
0.864809 1.000000 0.730702
0.867292 1.000000 0.791747
0.869556 1.000000 0.847258
0.871648 1.000000 0.898423
0.847228 1.000000 0.017155
0.860619 1.000000 0.353265
0.865771 1.000000 0.481175
0.869619 1.000000 0.576217
0.872808 1.000000 0.654648
0.875583 1.000000 0.722633
0.878066 1.000000 0.783287
0.880330 1.000000 0.838440
0.882422 1.000000 0.889275
0.742267 0.050000 0.075188
0.756384 0.050000 0.445414
0.761815 0.050000 0.586449
0.765872 0.050000 0.691295
0.769234 0.050000 0.777851
0.772158 0.050000 0.852904
0.774776 0.050000 0.919883
0.777162 0.050000 0.980805
0.779368 0.050000 1.000000
0.814955 0.441907 0.052183
0.829072 0.441907 0.408886
0.834503 0.441907 0.544717
0.838560 0.441907 0.645677
0.841922 0.441907 0.729012
0.844846 0.441907 0.801263
0.847464 0.441907 0.865735
0.849850 0.441907 0.924370
0.852056 0.441907 0.978422
0.842920 0.592681 0.043333
0.857036 0.592681 0.394832
0.862467 0.592681 0.528662
0.866524 0.592681 0.628127
0.869886 0.592681 0.710223
0.872811 0.592681 0.781396
0.875428 0.592681 0.844903
0.877815 0.592681 0.902659
0.880021 0.592681 0.955898
0.863809 0.705310 0.036721
0.877926 0.705310 0.384335
0.883357 0.705310 0.516669
0.887414 0.705310 0.615017
0.890776 0.705310 0.696188
0.893700 0.705310 0.766555
0.896318 0.705310 0.829342
0.898705 0.705310 0.886440
0.900910 0.705310 0.939072
0.881120 0.798645 0.031242
0.895237 0.798645 0.375635
0.900668 0.798645 0.506731
0.904725 0.798645 0.604153
0.908087 0.798645 0.684556
0.911011 0.798645 0.754257
0.913629 0.798645 0.816446
0.916016 0.798645 0.873000
0.918221 0.798645 0.925129
0.896179 0.879836 0.026476
0.910296 0.879836 0.368067
0.915727 0.879836 0.498085
0.919784 0.879836 0.594702
0.923146 0.879836 0.674438
0.926070 0.879836 0.743558
0.928688 0.879836 0.805228
0.931074 0.879836 0.861308
0.933280 0.879836 0.912999
0.909657 0.952501 0.022211
0.923773 0.952501 0.361295
0.929204 0.952501 0.490348
0.933261 0.952501 0.586244
0.936623 0.952501 0.665383
0.939548 0.952501 0.733984
0.942165 0.952501 0.795189
0.944552 0.952501 0.850845
0.946757 0.952501 0.902144
0.921947 1.000000 0.018321
0.936063 1.000000 0.355118
0.941494 1.000000 0.483292
0.945551 1.000000 0.578531
0.948913 1.000000 0.657125
0.951838 1.000000 0.725252
0.954455 1.000000 0.786033
0.956842 1.000000 0.841303
0.959048 1.000000 0.892245
0.933304 1.000000 0.014727
0.947421 1.000000 0.349411
0.952852 1.000000 0.476771
0.956909 1.000000 0.571403
0.960271 1.000000 0.649494
0.963195 1.000000 0.717183
0.965813 1.000000 0.777573
0.968199 1.000000 0.832485
0.970405 1.000000 0.883097
0.811186 0.050000 0.073015
0.825951 0.050000 0.441964
0.831632 0.050000 0.582508
0.835876 0.050000 0.686987
0.839392 0.050000 0.773239
0.842451 0.050000 0.848026
0.845189 0.050000 0.914769
0.847686 0.050000 0.975475
0.849993 0.050000 1.000000
0.887217 0.441907 0.050010
0.901983 0.441907 0.405436
0.907664 0.441907 0.540776
0.911907 0.441907 0.641369
0.915424 0.441907 0.724400
0.918483 0.441907 0.796386
0.921220 0.441907 0.860621
0.923717 0.441907 0.919040
0.926024 0.441907 0.972893
0.916468 0.592681 0.041160
0.931234 0.592681 0.391383
0.936914 0.592681 0.524721
0.941158 0.592681 0.623818
0.944674 0.592681 0.705611
0.947733 0.592681 0.776519
0.950471 0.592681 0.839789
0.952968 0.592681 0.897329
0.955275 0.592681 0.950368
0.938318 0.705310 0.034549
0.953084 0.705310 0.380885
0.958765 0.705310 0.512728
0.963008 0.705310 0.610708
0.966525 0.705310 0.691575
0.969584 0.705310 0.761678
0.972322 0.705310 0.824228
0.974818 0.705310 0.881110
0.977126 0.705310 0.933543
0.956425 0.798645 0.029070
0.971191 0.798645 0.372185
0.976872 0.798645 0.502790
0.981116 0.798645 0.599844
0.984632 0.798645 0.679944
0.987691 0.798645 0.749380
0.990429 0.798645 0.811332
0.992926 0.798645 0.867670
0.995233 0.798645 0.919599
0.972177 0.879836 0.024304
0.986943 0.879836 0.364618
0.992623 0.879836 0.494144
0.996867 0.879836 0.590394
1.000000 0.879836 0.669826
1.000000 0.879836 0.738681
1.000000 0.879836 0.800114
1.000000 0.879836 0.855978
1.000000 0.879836 0.907470
0.986274 0.952501 0.020038
1.000000 0.952501 0.357845
1.000000 0.952501 0.486406
1.000000 0.952501 0.581935
1.000000 0.952501 0.660771
1.000000 0.952501 0.729107
1.000000 0.952501 0.790075
1.000000 0.952501 0.845515
1.000000 0.952501 0.896614
0.999129 1.000000 0.016149
1.000000 1.000000 0.351668
1.000000 1.000000 0.479351
1.000000 1.000000 0.574222
1.000000 1.000000 0.652513
1.000000 1.000000 0.720375
1.000000 1.000000 0.780919
1.000000 1.000000 0.835973
1.000000 1.000000 0.886715
1.000000 1.000000 0.012554
1.000000 1.000000 0.345961
1.000000 1.000000 0.472830
1.000000 1.000000 0.567095
1.000000 1.000000 0.644882
1.000000 1.000000 0.712306
1.000000 1.000000 0.772459
1.000000 1.000000 0.827155
1.000000 1.000000 0.877567
0.874583 0.050000 0.071034
0.889941 0.050000 0.438818
0.895850 0.050000 0.578913
0.900264 0.050000 0.683058
0.903921 0.050000 0.769032
0.907103 0.050000 0.843579
0.909950 0.050000 0.910106
0.912547 0.050000 0.970614
0.914947 0.050000 1.000000
0.953663 0.441907 0.048029
0.969021 0.441907 0.402290
0.974930 0.441907 0.537182
0.979344 0.441907 0.637440
0.983001 0.441907 0.720194
0.986183 0.441907 0.791939
0.989031 0.441907 0.855958
0.991627 0.441907 0.914180
0.994027 0.441907 0.967850
0.984087 0.592681 0.039179
0.999445 0.592681 0.388237
1.000000 0.592681 0.521127
1.000000 0.592681 0.619890
1.000000 0.592681 0.701404
1.000000 0.592681 0.772071
1.000000 0.592681 0.835126
1.000000 0.592681 0.892468
1.000000 0.592681 0.945326
1.000000 0.705310 0.032567
1.000000 0.705310 0.377739
1.000000 0.705310 0.509134
1.000000 0.705310 0.606780
1.000000 0.705310 0.687369
1.000000 0.705310 0.757231
1.000000 0.705310 0.819564
1.000000 0.705310 0.876250
1.000000 0.705310 0.928500
1.000000 0.798645 0.027088
1.000000 0.798645 0.369039
1.000000 0.798645 0.499195
1.000000 0.798645 0.595915
1.000000 0.798645 0.675738
1.000000 0.798645 0.744932
1.000000 0.798645 0.806669
1.000000 0.798645 0.862810
1.000000 0.798645 0.914557
1.000000 0.879836 0.022323
1.000000 0.879836 0.361472
1.000000 0.879836 0.490550
1.000000 0.879836 0.586465
1.000000 0.879836 0.665620
1.000000 0.879836 0.734234
1.000000 0.879836 0.795451
1.000000 0.879836 0.851118
1.000000 0.879836 0.902427
1.000000 0.952501 0.018057
1.000000 0.952501 0.354699
1.000000 0.952501 0.482812
1.000000 0.952501 0.578007
1.000000 0.952501 0.656564
1.000000 0.952501 0.724659
1.000000 0.952501 0.785411
1.000000 0.952501 0.840654
1.000000 0.952501 0.891572
1.000000 1.000000 0.014167
1.000000 1.000000 0.348522
1.000000 1.000000 0.475756
1.000000 1.000000 0.570294
1.000000 1.000000 0.648307
1.000000 1.000000 0.715928
1.000000 1.000000 0.776256
1.000000 1.000000 0.831112
1.000000 1.000000 0.881673
1.000000 1.000000 0.010573
1.000000 1.000000 0.342815
1.000000 1.000000 0.469236
1.000000 1.000000 0.563166
1.000000 1.000000 0.640676
1.000000 1.000000 0.707859
1.000000 1.000000 0.767795
1.000000 1.000000 0.822295
1.000000 1.000000 0.872525
0.933637 0.050000 0.069203
0.949542 0.050000 0.435911
0.955661 0.050000 0.575592
0.960232 0.050000 0.679427
0.964020 0.050000 0.765145
0.967315 0.050000 0.839469
0.970264 0.050000 0.905796
0.972954 0.050000 0.966123
0.975439 0.050000 1.000000
1.000000 0.441907 0.046198
1.000000 0.441907 0.399383
1.000000 0.441907 0.533861
1.000000 0.441907 0.633809
1.000000 0.441907 0.716307
1.000000 0.441907 0.787829
1.000000 0.441907 0.851648
1.000000 0.441907 0.909688
1.000000 0.441907 0.963191
1.000000 0.592681 0.037348
1.000000 0.592681 0.385329
1.000000 0.592681 0.517806
1.000000 0.592681 0.616259
1.000000 0.592681 0.697517
1.000000 0.592681 0.767961
1.000000 0.592681 0.830816
1.000000 0.592681 0.887977
1.000000 0.592681 0.940666
1.000000 0.705310 0.030736
1.000000 0.705310 0.374831
1.000000 0.705310 0.505813
1.000000 0.705310 0.603149
1.000000 0.705310 0.683482
1.000000 0.705310 0.753121
1.000000 0.705310 0.815255
1.000000 0.705310 0.871758
1.000000 0.705310 0.923840
1.000000 0.798645 0.025258
1.000000 0.798645 0.366132
1.000000 0.798645 0.495874
1.000000 0.798645 0.592285
1.000000 0.798645 0.671851
1.000000 0.798645 0.740822
1.000000 0.798645 0.802359
1.000000 0.798645 0.858318
1.000000 0.798645 0.909897
1.000000 0.879836 0.020492
1.000000 0.879836 0.358564
1.000000 0.879836 0.487229
1.000000 0.879836 0.582834
1.000000 0.879836 0.661733
1.000000 0.879836 0.730124
1.000000 0.879836 0.791141
1.000000 0.879836 0.846627
1.000000 0.879836 0.897768
1.000000 0.952501 0.016226
1.000000 0.952501 0.351791
1.000000 0.952501 0.479491
1.000000 0.952501 0.574376
1.000000 0.952501 0.652677
1.000000 0.952501 0.720549
1.000000 0.952501 0.781102
1.000000 0.952501 0.836163
1.000000 0.952501 0.886912
1.000000 1.000000 0.012337
1.000000 1.000000 0.345615
1.000000 1.000000 0.472435
1.000000 1.000000 0.566663
1.000000 1.000000 0.644420
1.000000 1.000000 0.711818
1.000000 1.000000 0.771946
1.000000 1.000000 0.826621
1.000000 1.000000 0.877013
1.000000 1.000000 0.008742
1.000000 1.000000 0.339908
1.000000 1.000000 0.465915
1.000000 1.000000 0.559535
1.000000 1.000000 0.636789
1.000000 1.000000 0.703749
1.000000 1.000000 0.763486
1.000000 1.000000 0.817803
1.000000 1.000000 0.867865
