luts/teal-orange.cube
# Teal & Orange
TITLE "Teal & Orange"
LUT_3D_SIZE 17
0.000000 0.050000 0.100000
0.004814 0.050000 0.376968
0.006702 0.050000 0.484813
0.008111 0.050000 0.565101
0.009280 0.050000 0.631459
0.010296 0.050000 0.689053
0.011206 0.050000 0.740496
0.012035 0.050000 0.787324
0.012802 0.050000 0.830526
0.013517 0.050000 0.870787
0.014190 0.050000 0.908601
0.014827 0.050000 0.944338
0.015433 0.050000 0.978284
0.016011 0.050000 1.000000
0.016566 0.050000 1.000000
0.017099 0.050000 1.000000
0.017613 0.050000 1.000000
0.024789 0.331533 0.083474
0.029603 0.331533 0.353464
0.031491 0.331533 0.458572
0.032900 0.331533 0.536816
0.034069 0.331533 0.601480
0.035085 0.331533 0.657601
0.035995 0.331533 0.707726
0.036824 0.331533 0.753351
0.037591 0.331533 0.795442
0.038306 0.331533 0.834666
0.038979 0.331533 0.871504
0.039616 0.331533 0.906318
0.040222 0.331533 0.939386
0.040800 0.331533 0.970932
0.041355 0.331533 1.000000
0.041888 0.331533 1.000000
0.042402 0.331533 1.000000
0.034507 0.441907 0.076995
0.039322 0.441907 0.344249
0.041209 0.441907 0.448284
0.042619 0.441907 0.525727
0.043787 0.441907 0.589727
0.044804 0.441907 0.645271
0.045713 0.441907 0.694879
0.046543 0.441907 0.740032
0.047309 0.441907 0.781688
0.048025 0.441907 0.820505
0.048698 0.441907 0.856960
0.049334 0.441907 0.891412
0.049940 0.441907 0.924137
0.050519 0.441907 0.955353
0.051073 0.441907 0.985238
0.051606 0.441907 1.000000
0.052120 0.441907 1.000000
0.041767 0.524356 0.072155
0.046581 0.524356 0.337365
0.048469 0.524356 0.440599
0.049879 0.524356 0.517444
0.051047 0.524356 0.580948
0.052063 0.524356 0.636060
0.052973 0.524356 0.685281
0.053802 0.524356 0.730083
0.054569 0.524356 0.771413
0.055284 0.524356 0.809926
0.055957 0.524356 0.846096
0.056594 0.524356 0.880278
0.057200 0.524356 0.912745
0.057778 0.524356 0.943716
0.058333 0.524356 0.973365
0.058866 0.524356 1.000000
0.059380 0.524356 1.000000
0.047783 0.592681 0.068145
0.052597 0.592681 0.331661
0.054485 0.592681 0.434231
0.055895 0.592681 0.510579
0.057063 0.592681 0.573672
0.058079 0.592681 0.628427
0.058989 0.592681 0.677328
0.059818 0.592681 0.721838
0.060585 0.592681 0.762898
0.061300 0.592681 0.801160
0.061973 0.592681 0.837093
0.062610 0.592681 0.871050
0.063216 0.592681 0.903305
0.063794 0.592681 0.934072
0.064349 0.592681 0.963526
0.064882 0.592681 0.991811
0.065396 0.592681 1.000000
0.053016 0.652117 0.064656
0.057831 0.652117 0.326698
0.059718 0.652117 0.428691
0.061128 0.652117 0.504608
0.062296 0.652117 0.567343
0.063313 0.652117 0.621787
0.064222 0.652117 0.670410
0.065052 0.652117 0.714666
0.065818 0.652117 0.755492
0.066534 0.652117 0.793534
0.067207 0.652117 0.829262
0.067843 0.652117 0.863024
0.068449 0.652117 0.895093
0.069028 0.652117 0.925683
0.069582 0.652117 0.954968
0.070115 0.652117 0.983089
0.070629 0.652117 1.000000
0.057700 0.705310 0.061533
0.062514 0.705310 0.322257
0.064402 0.705310 0.423733
0.065812 0.705310 0.499264
0.066980 0.705310 0.561679
0.067996 0.705310 0.615844
0.068906 0.705310 0.664218
0.069735 0.705310 0.708247
0.070502 0.705310 0.748863
0.071217 0.705310 0.786710
0.071890 0.705310 0.822252
0.072527 0.705310 0.855840
0.073133 0.705310 0.887743
0.073711 0.705310 0.918175
0.074266 0.705310 0.947308
0.074799 0.705310 0.975283
0.075313 0.705310 1.000000
0.061971 0.753818 0.058686
0.066785 0.753818 0.318207
0.068673 0.753818 0.419211
0.070083 0.753818 0.494390
0.071251 0.753818 0.556514
0.072267 0.753818 0.610425
0.073177 0.753818 0.658572
0.074006 0.753818 0.702393
0.074773 0.753818 0.742818
0.075488 0.753818 0.780486
0.076161 0.753818 0.815861
0.076798 0.753818 0.849290
0.077404 0.753818 0.881041
0.077983 0.753818 0.911328
0.078537 0.753818 0.940323
0.079070 0.753818 0.968165
0.079584 0.753818 0.994972
0.065918 0.798645 0.056055
0.070732 0.798645 0.314465
0.072620 0.798645 0.415033
0.074030 0.798645 0.489887
0.075198 0.798645 0.551740
0.076214 0.798645 0.605417
0.077124 0.798645 0.653354
0.077953 0.798645 0.696984
0.078720 0.798645 0.737232
0.079435 0.798645 0.774735
0.080108 0.798645 0.809954
0.080745 0.798645 0.843236
0.081351 0.798645 0.874848
0.081930 0.798645 0.905001
0.082484 0.798645 0.933868
0.083017 0.798645 0.961587
0.083531 0.798645 0.988275
0.069602 0.840484 0.053599
0.074416 0.840484 0.310972
0.076304 0.840484 0.411134
0.077714 0.840484 0.485683
0.078882 0.840484 0.547285
0.079898 0.840484 0.600743
0.080808 0.840484 0.648484
0.081637 0.840484 0.691935
0.082404 0.840484 0.732018
0.083119 0.840484 0.769367
0.083792 0.840484 0.804441
0.084429 0.840484 0.837586
0.085035 0.840484 0.869067
0.085613 0.840484 0.899096
0.086168 0.840484 0.927843
0.086701 0.840484 0.955447
0.087215 0.840484 0.982025
0.073067 0.879836 0.051289
0.077881 0.879836 0.307686
0.079769 0.879836 0.407466
0.081179 0.879836 0.481729
0.082347 0.879836 0.543095
0.083363 0.879836 0.596347
0.084273 0.879836 0.643903
0.085102 0.879836 0.687187
0.085869 0.879836 0.727114
0.086584 0.879836 0.764318
0.087257 0.879836 0.799256
0.087894 0.879836 0.832271
0.088500 0.879836 0.863630
0.089078 0.879836 0.893542
0.089633 0.879836 0.922176
0.090166 0.879836 0.949672
0.090680 0.879836 0.976146
0.076346 0.917078 0.049102
0.081160 0.917078 0.304577
0.083048 0.917078 0.403994
0.084458 0.917078 0.477988
0.085626 0.917078 0.539129
0.086642 0.917078 0.592186
0.087552 0.917078 0.639568
0.088382 0.917078 0.682693
0.089148 0.917078 0.722473
0.089864 0.917078 0.759539
0.090536 0.917078 0.794348
0.091173 0.917078 0.827242
0.091779 0.917078 0.858484
0.092358 0.917078 0.888285
0.092912 0.917078 0.916813
0.093445 0.917078 0.944207
0.093959 0.917078 0.970582
0.079465 0.952501 0.047023
0.084279 0.952501 0.301620
0.086167 0.952501 0.400693
0.087577 0.952501 0.474429
0.088745 0.952501 0.535357
0.089761 0.952501 0.588229
0.090671 0.952501 0.635445
0.091501 0.952501 0.678418
0.092267 0.952501 0.718058
0.092982 0.952501 0.754994
0.093655 0.952501 0.789681
0.094292 0.952501 0.822458
0.094898 0.952501 0.853590
0.095477 0.952501 0.883285
0.096031 0.952501 0.911712
0.096564 0.952501 0.939009
0.097078 0.952501 0.965291
0.082444 0.986334 0.045037
0.087258 0.986334 0.298795
0.089146 0.986334 0.397539
0.090556 0.986334 0.471030
0.091724 0.986334 0.531755
0.092740 0.986334 0.584449
0.093650 0.986334 0.631507
0.094480 0.986334 0.674335
0.095246 0.986334 0.713842
0.095962 0.986334 0.750654
0.096634 0.986334 0.785223
0.097271 0.986334 0.817889
0.097877 0.986334 0.848916
0.098456 0.986334 0.878510
0.099010 0.986334 0.906840
0.099543 0.986334 0.934044
0.100057 0.986334 0.960236
0.085300 1.000000 0.043134
0.090114 1.000000 0.296087
0.092001 1.000000 0.394516
0.093411 1.000000 0.467772
0.094580 1.000000 0.528301
0.095596 1.000000 0.580826
0.096506 1.000000 0.627732
0.097335 1.000000 0.670422
0.098102 1.000000 0.709801
0.098817 1.000000 0.746493
0.099490 1.000000 0.780949
0.100127 1.000000 0.813509
0.100732 1.000000 0.844435
0.101311 1.000000 0.873933
0.101866 1.000000 0.902170
0.102399 1.000000 0.929285
0.102913 1.000000 0.955391
0.088045 1.000000 0.041303
0.092859 1.000000 0.293484
0.094747 1.000000 0.391610
0.096157 1.000000 0.464639
0.097325 1.000000 0.524981
0.098341 1.000000 0.577343
0.099251 1.000000 0.624103
0.100080 1.000000 0.666659
0.100847 1.000000 0.705915
0.101562 1.000000 0.742492
0.102235 1.000000 0.776841
0.102872 1.000000 0.809299
0.103478 1.000000 0.840127
0.104056 1.000000 0.869532
0.104611 1.000000 0.897681
0.105144 1.000000 0.924710
0.105658 1.000000 0.950733
0.090691 1.000000 0.039539
0.095506 1.000000 0.290975
0.097393 1.000000 0.388809
0.098803 1.000000 0.461620
0.099971 1.000000 0.521781
0.100988 1.000000 0.573985
0.101897 1.000000 0.620604
0.102727 1.000000 0.663033
0.103493 1.000000 0.702170
0.104209 1.000000 0.738636
0.104882 1.000000 0.772881
0.105519 1.000000 0.805240
0.106124 1.000000 0.835974
0.106703 1.000000 0.865290
0.107257 1.000000 0.893353
0.107791 1.000000 0.920299
0.108304 1.000000 0.946243
0.242593 0.050000 0.091582
0.249215 0.050000 0.364996
0.251810 0.050000 0.471446
0.253750 0.050000 0.550693
0.255357 0.050000 0.616188
0.256754 0.050000 0.673032
0.258005 0.050000 0.723804
0.259146 0.050000 0.770019
0.260201 0.050000 0.812656
0.261185 0.050000 0.852388
0.262110 0.050000 0.889705
0.262986 0.050000 0.924971
0.263819 0.050000 0.958471
0.264615 0.050000 0.990428
0.265378 0.050000 1.000000
0.266111 0.050000 1.000000
0.266818 0.050000 1.000000
0.276687 0.331533 0.075056
0.283309 0.331533 0.341491
0.285905 0.331533 0.445205
0.287844 0.331533 0.522408
0.289451 0.331533 0.586210
0.290849 0.331533 0.641580
0.292100 0.331533 0.691034
0.293241 0.331533 0.736046
0.294295 0.331533 0.777571
0.295279 0.331533 0.816267
0.296204 0.331533 0.852608
0.297080 0.331533 0.886951
0.297913 0.331533 0.919573
0.298709 0.331533 0.950691
0.299472 0.331533 0.980481
0.300205 0.331533 1.000000
0.300912 0.331533 1.000000
0.290054 0.441907 0.068577
0.296675 0.441907 0.332276
0.299271 0.441907 0.434918
0.301210 0.441907 0.511320
0.302817 0.441907 0.574457
0.304215 0.441907 0.629250
0.305466 0.441907 0.678186
0.306607 0.441907 0.722727
0.307661 0.441907 0.763817
0.308645 0.441907 0.802106
0.309571 0.441907 0.838064
0.310447 0.441907 0.872046
0.311280 0.441907 0.904323
0.312076 0.441907 0.935112
0.312838 0.441907 0.964588
0.313572 0.441907 0.992892
0.314278 0.441907 1.000000
0.300039 0.524356 0.063737
0.306660 0.524356 0.325392
0.309256 0.524356 0.427233
0.311195 0.524356 0.503036
0.312802 0.524356 0.565677
0.314200 0.524356 0.620039
0.315451 0.524356 0.668589
0.316592 0.524356 0.712778
0.317646 0.524356 0.753542
0.318630 0.524356 0.791527
0.319556 0.524356 0.827200
0.320431 0.524356 0.860911
0.321265 0.524356 0.892931
0.322060 0.524356 0.923475
0.322823 0.524356 0.952715
0.323556 0.524356 0.980793
0.324263 0.524356 1.000000
0.308313 0.592681 0.059727
0.314934 0.592681 0.319688
0.317530 0.592681 0.420864
0.319469 0.592681 0.496172
0.321076 0.592681 0.558402
0.322474 0.592681 0.612406
0.323725 0.592681 0.660636
0.324866 0.592681 0.704533
0.325920 0.592681 0.745028
0.326904 0.592681 0.782761
0.327830 0.592681 0.818197
0.328706 0.592681 0.851684
0.329539 0.592681 0.883491
0.330335 0.592681 0.913831
0.331097 0.592681 0.942876
0.331831 0.592681 0.970767
0.332538 0.592681 0.997621
0.315511 0.652117 0.056238
0.322132 0.652117 0.314726
0.324728 0.652117 0.415324
0.326667 0.652117 0.490200
0.328274 0.652117 0.552073
0.329672 0.652117 0.605766
0.330923 0.652117 0.653718
0.332064 0.652117 0.697361
0.333118 0.652117 0.737621
0.334102 0.652117 0.775135
0.335028 0.652117 0.810366
0.335904 0.652117 0.843658
0.336737 0.652117 0.875279
0.337532 0.652117 0.905442
0.338295 0.652117 0.934317
0.339028 0.652117 0.962045
0.339735 0.652117 0.988742
0.321953 0.705310 0.053115
0.328574 0.705310 0.310285
0.331170 0.705310 0.410366
0.333109 0.705310 0.484856
0.334716 0.705310 0.546409
0.336114 0.705310 0.599823
0.337365 0.705310 0.647526
0.338506 0.705310 0.690942
0.339560 0.705310 0.730992
0.340544 0.705310 0.768310
0.341470 0.705310 0.803356
0.342345 0.705310 0.836474
0.343179 0.705310 0.867930
0.343974 0.705310 0.897934
0.344737 0.705310 0.926658
0.345470 0.705310 0.954239
0.346177 0.705310 0.980795
0.327827 0.753818 0.050268
0.334448 0.753818 0.306235
0.337044 0.753818 0.405845
0.338983 0.753818 0.479983
0.340590 0.753818 0.541244
0.341988 0.753818 0.594404
0.343239 0.753818 0.641880
0.344380 0.753818 0.685089
0.345434 0.753818 0.724947
0.346418 0.753818 0.762087
0.347344 0.753818 0.796965
0.348220 0.753818 0.829923
0.349053 0.753818 0.861228
0.349849 0.753818 0.891088
0.350611 0.753818 0.919672
0.351345 0.753818 0.947121
0.352052 0.753818 0.973549
0.333256 0.798645 0.047637
0.339877 0.798645 0.302492
0.342473 0.798645 0.401667
0.344412 0.798645 0.475479
0.346019 0.798645 0.536470
0.347417 0.798645 0.589396
0.348668 0.798645 0.636662
0.349809 0.798645 0.679679
0.350863 0.798645 0.719361
0.351847 0.798645 0.756335
0.352773 0.798645 0.791058
0.353648 0.798645 0.823870
0.354482 0.798645 0.855034
0.355277 0.798645 0.884761
0.356040 0.798645 0.913217
0.356773 0.798645 0.940543
0.357480 0.798645 0.966852
0.338322 0.840484 0.045181
0.344944 0.840484 0.298999
0.347540 0.840484 0.397767
0.349479 0.840484 0.471276
0.351086 0.840484 0.532015
0.352484 0.840484 0.584722
0.353735 0.840484 0.631792
0.354876 0.840484 0.674630
0.355930 0.840484 0.714147
0.356914 0.840484 0.750967
0.357839 0.840484 0.785545
0.358715 0.840484 0.818219
0.359548 0.840484 0.849254
0.360344 0.840484 0.878855
0.361107 0.840484 0.907193
0.361840 0.840484 0.934403
0.362547 0.840484 0.960602
0.343088 0.879836 0.042871
0.349709 0.879836 0.295714
0.352305 0.879836 0.394099
0.354244 0.879836 0.467322
0.355851 0.879836 0.527825
0.357249 0.879836 0.580326
0.358500 0.879836 0.627211
0.359641 0.879836 0.669882
0.360695 0.879836 0.709243
0.361679 0.879836 0.745918
0.362605 0.879836 0.780360
0.363481 0.879836 0.812905
0.364314 0.879836 0.843816
0.365110 0.879836 0.873301
0.365872 0.879836 0.901526
0.366606 0.879836 0.928628
0.367313 0.879836 0.954723
0.347598 0.917078 0.040685
0.354220 0.917078 0.292604
0.356815 0.917078 0.390628
0.358755 0.917078 0.463580
0.360361 0.917078 0.523859
0.361759 0.917078 0.576166
0.363010 0.917078 0.622876
0.364151 0.917078 0.665388
0.365206 0.917078 0.704602
0.366190 0.917078 0.741140
0.367115 0.917078 0.775452
0.367991 0.917078 0.807876
0.368824 0.917078 0.838671
0.369620 0.917078 0.868044
0.370383 0.917078 0.896163
0.371116 0.917078 0.923163
0.371823 0.917078 0.949159
0.351888 0.952501 0.038605
0.358509 0.952501 0.289647
0.361105 0.952501 0.387326
0.363044 0.952501 0.460022
0.364651 0.952501 0.520087
0.366049 0.952501 0.572208
0.367300 0.952501 0.618753
0.368441 0.952501 0.661113
0.369495 0.952501 0.700188
0.370479 0.952501 0.736595
0.371405 0.952501 0.770785
0.372281 0.952501 0.803092
0.373114 0.952501 0.833777
0.373910 0.952501 0.863045
0.374672 0.952501 0.891062
0.375406 0.952501 0.917965
0.376112 0.952501 0.943867
0.355985 0.986334 0.036619
0.362607 0.986334 0.286822
0.365202 0.986334 0.384173
0.367142 0.986334 0.456622
0.368749 0.986334 0.516485
0.370146 0.986334 0.568428
0.371397 0.986334 0.614815
0.372538 0.986334 0.657031
0.373593 0.986334 0.695971
0.374577 0.986334 0.732254
0.375502 0.986334 0.766327
0.376378 0.986334 0.798523
0.377211 0.986334 0.829102
0.378007 0.986334 0.858269
0.378770 0.986334 0.886190
0.379503 0.986334 0.913000
0.380210 0.986334 0.938813
0.359913 1.000000 0.034716
0.366534 1.000000 0.284115
0.369130 1.000000 0.381150
0.371069 1.000000 0.453364
0.372676 1.000000 0.513031
0.374074 1.000000 0.564805
0.375325 1.000000 0.611040
0.376466 1.000000 0.653117
0.377520 1.000000 0.691930
0.378504 1.000000 0.728094
0.379429 1.000000 0.762053
0.380305 1.000000 0.794143
0.381138 1.000000 0.824621
0.381934 1.000000 0.853692
0.382697 1.000000 0.881520
0.383430 1.000000 0.908241
0.384137 1.000000 0.933968
0.363688 1.000000 0.032885
0.370310 1.000000 0.281511
0.372906 1.000000 0.378244
0.374845 1.000000 0.450232
0.376452 1.000000 0.509711
0.377850 1.000000 0.561322
0.379101 1.000000 0.607411
0.380242 1.000000 0.649355
0.381296 1.000000 0.688044
0.382280 1.000000 0.724093
0.383205 1.000000 0.757945
0.384081 1.000000 0.789933
0.384914 1.000000 0.820313
0.385710 1.000000 0.849291
0.386473 1.000000 0.877030
0.387206 1.000000 0.903666
0.387913 1.000000 0.929310
0.367328 1.000000 0.031121
0.373950 1.000000 0.279002
0.376546 1.000000 0.375443
0.378485 1.000000 0.447212
0.380092 1.000000 0.506511
0.381489 1.000000 0.557964
0.382741 1.000000 0.603912
0.383881 1.000000 0.645728
0.384936 1.000000 0.684299
0.385920 1.000000 0.720237
0.386845 1.000000 0.753985
0.387721 1.000000 0.785874
0.388554 1.000000 0.816161
0.389350 1.000000 0.845049
0.390113 1.000000 0.872702
0.390846 1.000000 0.899255
0.391553 1.000000 0.924820
0.340287 0.050000 0.088282
0.347617 0.050000 0.360302
0.350491 0.050000 0.466206
0.352637 0.050000 0.545045
0.354416 0.050000 0.610202
0.355963 0.050000 0.666752
0.357348 0.050000 0.717260
0.358611 0.050000 0.763235
0.359778 0.050000 0.805649
0.360868 0.050000 0.845175
0.361892 0.050000 0.882297
0.362862 0.050000 0.917379
0.363784 0.050000 0.950703
0.364665 0.050000 0.982492
0.365509 0.050000 1.000000
0.366321 0.050000 1.000000
0.367104 0.050000 1.000000
0.378029 0.331533 0.071756
0.385359 0.331533 0.336797
0.388233 0.331533 0.439965
0.390379 0.331533 0.516760
0.392158 0.331533 0.580223
0.393706 0.331533 0.635300
0.395091 0.331533 0.684490
0.396354 0.331533 0.729262
0.397521 0.331533 0.770565
0.398610 0.331533 0.809054
0.399635 0.331533 0.845200
0.400604 0.331533 0.879359
0.401526 0.331533 0.911805
0.402407 0.331533 0.942756
0.403252 0.331533 0.972386
0.404063 0.331533 1.000000
0.404846 0.331533 1.000000
0.392826 0.441907 0.065277
0.400156 0.441907 0.327582
0.403029 0.441907 0.429677
0.405176 0.441907 0.505671
0.406955 0.441907 0.568470
0.408502 0.441907 0.622969
0.409887 0.441907 0.671642
0.411150 0.441907 0.715943
0.412317 0.441907 0.756811
0.413407 0.441907 0.794892
0.414431 0.441907 0.830656
0.415401 0.441907 0.864453
0.416323 0.441907 0.896555
0.417204 0.441907 0.927177
0.418048 0.441907 0.956492
0.418860 0.441907 0.984642
0.419643 0.441907 1.000000
0.403879 0.524356 0.060437
0.411209 0.524356 0.320698
0.414083 0.524356 0.421992
0.416229 0.524356 0.497388
0.418008 0.524356 0.559691
0.419556 0.524356 0.613758
0.420940 0.524356 0.662045
0.422203 0.524356 0.705994
0.423370 0.524356 0.746536
0.424460 0.524356 0.784314
0.425484 0.524356 0.819792
0.426454 0.524356 0.853319
0.427376 0.524356 0.885164
0.428257 0.524356 0.915540
0.429101 0.524356 0.944619
0.429913 0.524356 0.972543
0.430696 0.524356 0.999430
0.413039 0.592681 0.056427
0.420369 0.592681 0.314994
0.423242 0.592681 0.415624
0.425389 0.592681 0.490523
0.427168 0.592681 0.552415
0.428715 0.592681 0.606125
0.430100 0.592681 0.654092
0.431363 0.592681 0.697749
0.432530 0.592681 0.738022
0.433619 0.592681 0.775548
0.434644 0.592681 0.810789
0.435614 0.592681 0.844092
0.436536 0.592681 0.875724
0.437417 0.592681 0.905896
0.438261 0.592681 0.934780
0.439073 0.592681 0.962517
0.439855 0.592681 0.989222
0.421007 0.652117 0.052938
0.428337 0.652117 0.310032
0.431210 0.652117 0.410084
0.433357 0.652117 0.484552
0.435136 0.652117 0.546087
0.436683 0.652117 0.599485
0.438068 0.652117 0.647174
0.439331 0.652117 0.690577
0.440498 0.652117 0.730615
0.441587 0.652117 0.767922
0.442612 0.652117 0.802957
0.443582 0.652117 0.836065
0.444504 0.652117 0.867512
0.445385 0.652117 0.897507
0.446229 0.652117 0.926222
0.447041 0.652117 0.953795
0.447823 0.652117 0.980343
0.428138 0.705310 0.049815
0.435468 0.705310 0.305591
0.438341 0.705310 0.405126
0.440488 0.705310 0.479208
0.442267 0.705310 0.540422
0.443814 0.705310 0.593543
0.445199 0.705310 0.640982
0.446462 0.705310 0.684158
0.447629 0.705310 0.723986
0.448718 0.705310 0.761097
0.449743 0.705310 0.795948
0.450713 0.705310 0.828882
0.451635 0.705310 0.860162
0.452516 0.705310 0.889999
0.453360 0.705310 0.918562
0.454172 0.705310 0.945989
0.454954 0.705310 0.972396
0.434641 0.753818 0.046968
0.441971 0.753818 0.301541
0.444844 0.753818 0.400605
0.446991 0.753818 0.474334
0.448770 0.753818 0.535257
0.450317 0.753818 0.588124
0.451702 0.753818 0.635336
0.452965 0.753818 0.678304
0.454132 0.753818 0.717941
0.455221 0.753818 0.754874
0.456246 0.753818 0.789557
0.457216 0.753818 0.822331
0.458138 0.753818 0.853460
0.459019 0.753818 0.883152
0.459863 0.753818 0.911577
0.460675 0.753818 0.938871
0.461457 0.753818 0.965150
0.440650 0.798645 0.044337
0.447980 0.798645 0.297798
0.450854 0.798645 0.396427
0.453000 0.798645 0.469831
0.454779 0.798645 0.530484
0.456327 0.798645 0.583116
0.457712 0.798645 0.630118
0.458975 0.798645 0.672895
0.460142 0.798645 0.712355
0.461231 0.798645 0.749122
0.462255 0.798645 0.783650
0.463225 0.798645 0.816277
0.464147 0.798645 0.847266
0.465028 0.798645 0.876825
0.465873 0.798645 0.905122
0.466684 0.798645 0.932293
0.467467 0.798645 0.958453
0.446259 0.840484 0.041881
0.453589 0.840484 0.294305
0.456463 0.840484 0.392527
0.458609 0.840484 0.465627
0.460388 0.840484 0.526029
0.461936 0.840484 0.578442
0.463321 0.840484 0.625248
0.464583 0.840484 0.667846
0.465751 0.840484 0.707141
0.466840 0.840484 0.743754
0.467864 0.840484 0.778137
0.468834 0.840484 0.810627
0.469756 0.840484 0.841486
0.470637 0.840484 0.870920
0.471481 0.840484 0.899097
0.472293 0.840484 0.926153
0.473076 0.840484 0.952203
0.451535 0.879836 0.039571
0.458865 0.879836 0.291020
0.461738 0.879836 0.388859
0.463885 0.879836 0.461674
0.465664 0.879836 0.521838
0.467211 0.879836 0.574045
0.468596 0.879836 0.620667
0.469859 0.879836 0.663098
0.471026 0.879836 0.702237
0.472115 0.879836 0.738705
0.473140 0.879836 0.772952
0.474110 0.879836 0.805313
0.475032 0.879836 0.836049
0.475913 0.879836 0.865366
0.476757 0.879836 0.893430
0.477569 0.879836 0.920378
0.478351 0.879836 0.946324
0.456527 0.917078 0.037384
0.463857 0.917078 0.287910
0.466731 0.917078 0.385388
0.468878 0.917078 0.457932
0.470656 0.917078 0.517873
0.472204 0.917078 0.569885
0.473589 0.917078 0.616332
0.474852 0.917078 0.658603
0.476019 0.917078 0.697596
0.477108 0.917078 0.733927
0.478133 0.917078 0.768044
0.479102 0.917078 0.800283
0.480025 0.917078 0.830903
0.480905 0.917078 0.860109
0.481750 0.917078 0.888067
0.482561 0.917078 0.914913
0.483344 0.917078 0.940760
0.461276 0.952501 0.035305
0.468606 0.952501 0.284953
0.471480 0.952501 0.382086
0.473626 0.952501 0.454373
0.475405 0.952501 0.514101
0.476953 0.952501 0.565927
0.478338 0.952501 0.612209
0.479600 0.952501 0.654329
0.480768 0.952501 0.693181
0.481857 0.952501 0.729382
0.482881 0.952501 0.763377
0.483851 0.952501 0.795499
0.484773 0.952501 0.826009
0.485654 0.952501 0.855110
0.486498 0.952501 0.882966
0.487310 0.952501 0.909715
0.488093 0.952501 0.935468
0.465812 0.986334 0.033319
0.473142 0.986334 0.282128
0.476015 0.986334 0.378933
0.478162 0.986334 0.450974
0.479941 0.986334 0.510498
0.481488 0.986334 0.562148
0.482873 0.986334 0.608271
0.484136 0.986334 0.650246
0.485303 0.986334 0.688965
0.486393 0.986334 0.725041
0.487417 0.986334 0.758919
0.488387 0.986334 0.790930
0.489309 0.986334 0.821334
0.490190 0.986334 0.850334
0.491034 0.986334 0.878094
0.491846 0.986334 0.904750
0.492628 0.986334 0.930414
0.470159 1.000000 0.031416
0.477489 1.000000 0.279421
0.480363 1.000000 0.375910
0.482510 1.000000 0.447716
0.484288 1.000000 0.507045
0.485836 1.000000 0.558525
0.487221 1.000000 0.604496
0.488484 1.000000 0.646333
0.489651 1.000000 0.684924
0.490740 1.000000 0.720880
0.491765 1.000000 0.754645
0.492734 1.000000 0.786551
0.493657 1.000000 0.816854
0.494537 1.000000 0.845757
0.495382 1.000000 0.873424
0.496194 1.000000 0.899991
0.496976 1.000000 0.925569
0.474339 1.000000 0.029585
0.481669 1.000000 0.276818
0.484543 1.000000 0.373004
0.486689 1.000000 0.444583
0.488468 1.000000 0.503725
0.490016 1.000000 0.555041
0.491401 1.000000 0.600867
0.492664 1.000000 0.642570
0.493831 1.000000 0.681038
0.494920 1.000000 0.716880
0.495945 1.000000 0.750537
0.496914 1.000000 0.782340
0.497836 1.000000 0.812546
0.498717 1.000000 0.841356
0.499562 1.000000 0.868935
0.500373 1.000000 0.895416
0.501156 1.000000 0.920911
0.478369 1.000000 0.027821
0.485699 1.000000 0.274308
0.488572 1.000000 0.370202
0.490719 1.000000 0.441564
0.492498 1.000000 0.500524
0.494045 1.000000 0.551684
0.495430 1.000000 0.597368
0.496693 1.000000 0.638944
0.497860 1.000000 0.677293
0.498949 1.000000 0.713024
0.499974 1.000000 0.746577
0.500943 1.000000 0.778281
0.501866 1.000000 0.808393
0.502747 1.000000 0.837114
0.503591 1.000000 0.864607
0.504403 1.000000 0.891005
0.505185 1.000000 0.916421
0.414216 0.050000 0.085817
0.422075 0.050000 0.356796
0.425156 0.050000 0.462292
0.427457 0.050000 0.540826
0.429365 0.050000 0.605730
0.431024 0.050000 0.662060
0.432509 0.050000 0.712372
0.433863 0.050000 0.758167
0.435114 0.050000 0.800416
0.436282 0.050000 0.839787
0.437381 0.050000 0.876763
0.438420 0.050000 0.911707
0.439409 0.050000 0.944901
0.440354 0.050000 0.976565
0.441259 0.050000 1.000000
0.442129 0.050000 1.000000
0.442968 0.050000 1.000000
0.454683 0.331533 0.069291
0.462542 0.331533 0.333291
