luts/warm-cinematic.cube
# Warm Cinematic
TITLE "Warm Cinematic"
LUT_3D_SIZE 5
0.000000 0.000000 0.000000
0.000000 0.000000 0.490097
0.000000 0.000000 0.695080
0.000000 0.000000 0.848203
0.000000 0.000000 0.975095
0.001909 0.546949 0.006852
0.001909 0.546949 0.546949
0.001909 0.546949 0.751932
0.001909 0.546949 0.905056
0.001909 0.546949 1.000000
0.021610 0.773509 0.028429
0.021610 0.773509 0.568526
0.021610 0.773509 0.773509
0.021610 0.773509 0.926633
0.021610 0.773509 1.000000
0.036326 0.942751 0.044548
0.036326 0.942751 0.584645
0.036326 0.942751 0.789628
0.036326 0.942751 0.942751
0.036326 0.942751 1.000000
0.048522 1.000000 0.057905
0.048522 1.000000 0.598002
0.048522 1.000000 0.802985
0.048522 1.000000 0.956108
0.048522 1.000000 1.000000
0.495041 0.000000 0.000000
0.495041 0.000000 0.490097
0.495041 0.000000 0.695080
0.495041 0.000000 0.848203
0.495041 0.000000 0.975095
0.546949 0.546949 0.006852
0.546949 0.546949 0.546949
0.546949 0.546949 0.751932
0.546949 0.546949 0.905056
0.546949 0.546949 1.000000
0.566650 0.773509 0.028429
0.566650 0.773509 0.568526
0.566650 0.773509 0.773509
0.566650 0.773509 0.926633
0.566650 0.773509 1.000000
0.581367 0.942751 0.044548
0.581367 0.942751 0.584645
0.581367 0.942751 0.789628
0.581367 0.942751 0.942751
0.581367 0.942751 1.000000
0.593562 1.000000 0.057905
0.593562 1.000000 0.598002
0.593562 1.000000 0.802985
0.593562 1.000000 0.956108
0.593562 1.000000 1.000000
0.701900 0.000000 0.000000
0.701900 0.000000 0.490097
0.701900 0.000000 0.695080
0.701900 0.000000 0.848203
0.701900 0.000000 0.975095
0.753809 0.546949 0.006852
0.753809 0.546949 0.546949
0.753809 0.546949 0.751932
0.753809 0.546949 0.905056
0.753809 0.546949 1.000000
0.773509 0.773509 0.028429
0.773509 0.773509 0.568526
0.773509 0.773509 0.773509
0.773509 0.773509 0.926633
0.773509 0.773509 1.000000
0.788226 0.942751 0.044548
0.788226 0.942751 0.584645
0.788226 0.942751 0.789628
0.788226 0.942751 0.942751
0.788226 0.942751 1.000000
0.800422 1.000000 0.057905
0.800422 1.000000 0.598002
0.800422 1.000000 0.802985
0.800422 1.000000 0.956108
0.800422 1.000000 1.000000
0.856425 0.000000 0.000000
0.856425 0.000000 0.490097
0.856425 0.000000 0.695080
0.856425 0.000000 0.848203
0.856425 0.000000 0.975095
0.908334 0.546949 0.006852
0.908334 0.546949 0.546949
0.908334 0.546949 0.751932
0.908334 0.546949 0.905056
0.908334 0.546949 1.000000
0.928034 0.773509 0.028429
0.928034 0.773509 0.568526
0.928034 0.773509 0.773509
0.928034 0.773509 0.926633
0.928034 0.773509 1.000000
0.942751 0.942751 0.044548
0.942751 0.942751 0.584645
0.942751 0.942751 0.789628
0.942751 0.942751 0.942751
0.942751 0.942751 1.000000
0.954947 1.000000 0.057905
0.954947 1.000000 0.598002
0.954947 1.000000 0.802985
0.954947 1.000000 0.956108
0.954947 1.000000 1.000000
0.984478 0.000000 0.000000
0.984478 0.000000 0.490097
0.984478 0.000000 0.695080
0.984478 0.000000 0.848203
0.984478 0.000000 0.975095
1.000000 0.546949 0.006852
1.000000 0.546949 0.546949
1.000000 0.546949 0.751932
1.000000 0.546949 0.905056
1.000000 0.546949 1.000000
1.000000 0.773509 0.028429
1.000000 0.773509 0.568526
1.000000 0.773509 0.773509
1.000000 0.773509 0.926633
1.000000 0.773509 1.000000
1.000000 0.942751 0.044548
1.000000 0.942751 0.584645
1.000000 0.942751 0.789628
1.000000 0.942751 0.942751
1.000000 0.942751 1.000000
1.000000 1.000000 0.057905
1.000000 1.000000 0.598002
1.000000 1.000000 0.802985
1.000000 1.000000 0.956108
1.000000 1.000000 1.000000
