luts/warm-cinematic.cube
# Warm Cinematic
TITLE "Warm Cinematic"
LUT_3D_SIZE 9
0.000000 0.000000 0.000000
0.000000 0.000000 0.340040
0.000000 0.000000 0.490097
0.000000 0.000000 0.602190
0.000000 0.000000 0.695080
0.000000 0.000000 0.775885
0.000000 0.000000 0.848203
0.000000 0.000000 0.914151
0.000000 0.000000 0.975095
0.000000 0.381097 0.000000
0.000000 0.381097 0.381097
0.000000 0.381097 0.531154
0.000000 0.381097 0.643247
0.000000 0.381097 0.736137
0.000000 0.381097 0.816942
0.000000 0.381097 0.889260
0.000000 0.381097 0.955208
0.000000 0.381097 1.000000
0.001909 0.546949 0.006852
0.001909 0.546949 0.396893
0.001909 0.546949 0.546949
0.001909 0.546949 0.659042
0.001909 0.546949 0.751932
0.001909 0.546949 0.832737
0.001909 0.546949 0.905056
0.001909 0.546949 0.971004
0.001909 0.546949 1.000000
0.012682 0.670841 0.018652
0.012682 0.670841 0.408692
0.012682 0.670841 0.558748
0.012682 0.670841 0.670841
0.012682 0.670841 0.763732
0.012682 0.670841 0.844536
0.012682 0.670841 0.916855
0.012682 0.670841 0.982803
0.012682 0.670841 1.000000
0.021610 0.773509 0.028429
0.021610 0.773509 0.418470
0.021610 0.773509 0.568526
0.021610 0.773509 0.680619
0.021610 0.773509 0.773509
0.021610 0.773509 0.854314
0.021610 0.773509 0.926633
0.021610 0.773509 0.992581
0.021610 0.773509 1.000000
0.029376 0.862820 0.036935
0.029376 0.862820 0.426976
0.029376 0.862820 0.577032
0.029376 0.862820 0.689125
0.029376 0.862820 0.782015
0.029376 0.862820 0.862820
0.029376 0.862820 0.935139
0.029376 0.862820 1.000000
0.029376 0.862820 1.000000
0.036326 0.942751 0.044548
0.036326 0.942751 0.434588
0.036326 0.942751 0.584645
0.036326 0.942751 0.696737
0.036326 0.942751 0.789628
0.036326 0.942751 0.870432
0.036326 0.942751 0.942751
0.036326 0.942751 1.000000
0.036326 0.942751 1.000000
0.042664 1.000000 0.051490
0.042664 1.000000 0.441530
0.042664 1.000000 0.591587
0.042664 1.000000 0.703679
0.042664 1.000000 0.796570
0.042664 1.000000 0.877374
0.042664 1.000000 0.949693
0.042664 1.000000 1.000000
0.042664 1.000000 1.000000
0.048522 1.000000 0.057905
0.048522 1.000000 0.447945
0.048522 1.000000 0.598002
0.048522 1.000000 0.710095
0.048522 1.000000 0.802985
0.048522 1.000000 0.883790
0.048522 1.000000 0.956108
0.048522 1.000000 1.000000
0.048522 1.000000 1.000000
0.343611 0.000000 0.000000
0.343611 0.000000 0.340040
0.343611 0.000000 0.490097
0.343611 0.000000 0.602190
0.343611 0.000000 0.695080
0.343611 0.000000 0.775885
0.343611 0.000000 0.848203
0.343611 0.000000 0.914151
0.343611 0.000000 0.975095
0.381097 0.381097 0.000000
0.381097 0.381097 0.381097
0.381097 0.381097 0.531154
0.381097 0.381097 0.643247
0.381097 0.381097 0.736137
0.381097 0.381097 0.816942
0.381097 0.381097 0.889260
0.381097 0.381097 0.955208
0.381097 0.381097 1.000000
0.395519 0.546949 0.006852
0.395519 0.546949 0.396893
0.395519 0.546949 0.546949
0.395519 0.546949 0.659042
0.395519 0.546949 0.751932
0.395519 0.546949 0.832737
0.395519 0.546949 0.905056
0.395519 0.546949 0.971004
0.395519 0.546949 1.000000
0.406292 0.670841 0.018652
0.406292 0.670841 0.408692
0.406292 0.670841 0.558748
0.406292 0.670841 0.670841
0.406292 0.670841 0.763732
0.406292 0.670841 0.844536
0.406292 0.670841 0.916855
0.406292 0.670841 0.982803
0.406292 0.670841 1.000000
0.415220 0.773509 0.028429
0.415220 0.773509 0.418470
0.415220 0.773509 0.568526
0.415220 0.773509 0.680619
0.415220 0.773509 0.773509
0.415220 0.773509 0.854314
0.415220 0.773509 0.926633
0.415220 0.773509 0.992581
0.415220 0.773509 1.000000
0.422986 0.862820 0.036935
0.422986 0.862820 0.426976
0.422986 0.862820 0.577032
0.422986 0.862820 0.689125
0.422986 0.862820 0.782015
0.422986 0.862820 0.862820
0.422986 0.862820 0.935139
0.422986 0.862820 1.000000
0.422986 0.862820 1.000000
0.429937 0.942751 0.044548
0.429937 0.942751 0.434588
0.429937 0.942751 0.584645
0.429937 0.942751 0.696737
0.429937 0.942751 0.789628
0.429937 0.942751 0.870432
0.429937 0.942751 0.942751
0.429937 0.942751 1.000000
0.429937 0.942751 1.000000
0.436275 1.000000 0.051490
0.436275 1.000000 0.441530
0.436275 1.000000 0.591587
0.436275 1.000000 0.703679
0.436275 1.000000 0.796570
0.436275 1.000000 0.877374
0.436275 1.000000 0.949693
0.436275 1.000000 1.000000
0.436275 1.000000 1.000000
0.442132 1.000000 0.057905
0.442132 1.000000 0.447945
0.442132 1.000000 0.598002
0.442132 1.000000 0.710095
0.442132 1.000000 0.802985
0.442132 1.000000 0.883790
0.442132 1.000000 0.956108
0.442132 1.000000 1.000000
0.442132 1.000000 1.000000
0.495041 0.000000 0.000000
0.495041 0.000000 0.340040
0.495041 0.000000 0.490097
0.495041 0.000000 0.602190
0.495041 0.000000 0.695080
0.495041 0.000000 0.775885
0.495041 0.000000 0.848203
0.495041 0.000000 0.914151
0.495041 0.000000 0.975095
0.532527 0.381097 0.000000
0.532527 0.381097 0.381097
0.532527 0.381097 0.531154
0.532527 0.381097 0.643247
0.532527 0.381097 0.736137
0.532527 0.381097 0.816942
0.532527 0.381097 0.889260
0.532527 0.381097 0.955208
0.532527 0.381097 1.000000
0.546949 0.546949 0.006852
0.546949 0.546949 0.396893
0.546949 0.546949 0.546949
0.546949 0.546949 0.659042
0.546949 0.546949 0.751932
0.546949 0.546949 0.832737
0.546949 0.546949 0.905056
0.546949 0.546949 0.971004
0.546949 0.546949 1.000000
0.557722 0.670841 0.018652
0.557722 0.670841 0.408692
0.557722 0.670841 0.558748
0.557722 0.670841 0.670841
0.557722 0.670841 0.763732
0.557722 0.670841 0.844536
0.557722 0.670841 0.916855
0.557722 0.670841 0.982803
0.557722 0.670841 1.000000
0.566650 0.773509 0.028429
0.566650 0.773509 0.418470
0.566650 0.773509 0.568526
0.566650 0.773509 0.680619
0.566650 0.773509 0.773509
0.566650 0.773509 0.854314
0.566650 0.773509 0.926633
0.566650 0.773509 0.992581
0.566650 0.773509 1.000000
0.574416 0.862820 0.036935
0.574416 0.862820 0.426976
0.574416 0.862820 0.577032
0.574416 0.862820 0.689125
0.574416 0.862820 0.782015
0.574416 0.862820 0.862820
0.574416 0.862820 0.935139
0.574416 0.862820 1.000000
0.574416 0.862820 1.000000
0.581367 0.942751 0.044548
0.581367 0.942751 0.434588
0.581367 0.942751 0.584645
0.581367 0.942751 0.696737
0.581367 0.942751 0.789628
0.581367 0.942751 0.870432
0.581367 0.942751 0.942751
0.581367 0.942751 1.000000
0.581367 0.942751 1.000000
0.587705 1.000000 0.051490
0.587705 1.000000 0.441530
0.587705 1.000000 0.591587
0.587705 1.000000 0.703679
0.587705 1.000000 0.796570
0.587705 1.000000 0.877374
0.587705 1.000000 0.949693
0.587705 1.000000 1.000000
0.587705 1.000000 1.000000
0.593562 1.000000 0.057905
0.593562 1.000000 0.447945
0.593562 1.000000 0.598002
0.593562 1.000000 0.710095
0.593562 1.000000 0.802985
0.593562 1.000000 0.883790
0.593562 1.000000 0.956108
0.593562 1.000000 1.000000
0.593562 1.000000 1.000000
0.608159 0.000000 0.000000
0.608159 0.000000 0.340040
0.608159 0.000000 0.490097
0.608159 0.000000 0.602190
0.608159 0.000000 0.695080
0.608159 0.000000 0.775885
0.608159 0.000000 0.848203
0.608159 0.000000 0.914151
0.608159 0.000000 0.975095
0.645646 0.381097 0.000000
0.645646 0.381097 0.381097
0.645646 0.381097 0.531154
0.645646 0.381097 0.643247
0.645646 0.381097 0.736137
0.645646 0.381097 0.816942
0.645646 0.381097 0.889260
0.645646 0.381097 0.955208
0.645646 0.381097 1.000000
0.660068 0.546949 0.006852
0.660068 0.546949 0.396893
0.660068 0.546949 0.546949
0.660068 0.546949 0.659042
0.660068 0.546949 0.751932
0.660068 0.546949 0.832737
0.660068 0.546949 0.905056
0.660068 0.546949 0.971004
0.660068 0.546949 1.000000
0.670841 0.670841 0.018652
0.670841 0.670841 0.408692
0.670841 0.670841 0.558748
0.670841 0.670841 0.670841
0.670841 0.670841 0.763732
0.670841 0.670841 0.844536
0.670841 0.670841 0.916855
0.670841 0.670841 0.982803
0.670841 0.670841 1.000000
0.679769 0.773509 0.028429
0.679769 0.773509 0.418470
0.679769 0.773509 0.568526
0.679769 0.773509 0.680619
0.679769 0.773509 0.773509
0.679769 0.773509 0.854314
0.679769 0.773509 0.926633
0.679769 0.773509 0.992581
0.679769 0.773509 1.000000
0.687535 0.862820 0.036935
0.687535 0.862820 0.426976
0.687535 0.862820 0.577032
0.687535 0.862820 0.689125
0.687535 0.862820 0.782015
0.687535 0.862820 0.862820
0.687535 0.862820 0.935139
0.687535 0.862820 1.000000
0.687535 0.862820 1.000000
0.694486 0.942751 0.044548
0.694486 0.942751 0.434588
0.694486 0.942751 0.584645
0.694486 0.942751 0.696737
0.694486 0.942751 0.789628
0.694486 0.942751 0.870432
0.694486 0.942751 0.942751
0.694486 0.942751 1.000000
0.694486 0.942751 1.000000
0.700824 1.000000 0.051490
0.700824 1.000000 0.441530
0.700824 1.000000 0.591587
0.700824 1.000000 0.703679
0.700824 1.000000 0.796570
0.700824 1.000000 0.877374
0.700824 1.000000 0.949693
0.700824 1.000000 1.000000
0.700824 1.000000 1.000000
0.706681 1.000000 0.057905
0.706681 1.000000 0.447945
0.706681 1.000000 0.598002
0.706681 1.000000 0.710095
0.706681 1.000000 0.802985
0.706681 1.000000 0.883790
0.706681 1.000000 0.956108
0.706681 1.000000 1.000000
0.706681 1.000000 1.000000
0.701900 0.000000 0.000000
0.701900 0.000000 0.340040
0.701900 0.000000 0.490097
0.701900 0.000000 0.602190
0.701900 0.000000 0.695080
0.701900 0.000000 0.775885
0.701900 0.000000 0.848203
0.701900 0.000000 0.914151
0.701900 0.000000 0.975095
0.739387 0.381097 0.000000
0.739387 0.381097 0.381097
0.739387 0.381097 0.531154
0.739387 0.381097 0.643247
0.739387 0.381097 0.736137
0.739387 0.381097 0.816942
0.739387 0.381097 0.889260
0.739387 0.381097 0.955208
0.739387 0.381097 1.000000
0.753809 0.546949 0.006852
0.753809 0.546949 0.396893
0.753809 0.546949 0.546949
0.753809 0.546949 0.659042
0.753809 0.546949 0.751932
0.753809 0.546949 0.832737
0.753809 0.546949 0.905056
0.753809 0.546949 0.971004
0.753809 0.546949 1.000000
0.764582 0.670841 0.018652
0.764582 0.670841 0.408692
0.764582 0.670841 0.558748
0.764582 0.670841 0.670841
0.764582 0.670841 0.763732
0.764582 0.670841 0.844536
0.764582 0.670841 0.916855
0.764582 0.670841 0.982803
0.764582 0.670841 1.000000
0.773509 0.773509 0.028429
0.773509 0.773509 0.418470
0.773509 0.773509 0.568526
0.773509 0.773509 0.680619
0.773509 0.773509 0.773509
0.773509 0.773509 0.854314
0.773509 0.773509 0.926633
0.773509 0.773509 0.992581
0.773509 0.773509 1.000000
0.781276 0.862820 0.036935
0.781276 0.862820 0.426976
0.781276 0.862820 0.577032
0.781276 0.862820 0.689125
0.781276 0.862820 0.782015
0.781276 0.862820 0.862820
0.781276 0.862820 0.935139
0.781276 0.862820 1.000000
0.781276 0.862820 1.000000
0.788226 0.942751 0.044548
0.788226 0.942751 0.434588
0.788226 0.942751 0.584645
0.788226 0.942751 0.696737
0.788226 0.942751 0.789628
0.788226 0.942751 0.870432
0.788226 0.942751 0.942751
0.788226 0.942751 1.000000
0.788226 0.942751 1.000000
0.794564 1.000000 0.051490
0.794564 1.000000 0.441530
0.794564 1.000000 0.591587
0.794564 1.000000 0.703679
0.794564 1.000000 0.796570
0.794564 1.000000 0.877374
0.794564 1.000000 0.949693
0.794564 1.000000 1.000000
0.794564 1.000000 1.000000
0.800422 1.000000 0.057905
0.800422 1.000000 0.447945
0.800422 1.000000 0.598002
0.800422 1.000000 0.710095
0.800422 1.000000 0.802985
0.800422 1.000000 0.883790
0.800422 1.000000 0.956108
0.800422 1.000000 1.000000
0.800422 1.000000 1.000000
0.783444 0.000000 0.000000
0.783444 0.000000 0.340040
0.783444 0.000000 0.490097
0.783444 0.000000 0.602190
0.783444 0.000000 0.695080
0.783444 0.000000 0.775885
0.783444 0.000000 0.848203
0.783444 0.000000 0.914151
0.783444 0.000000 0.975095
0.820931 0.381097 0.000000
0.820931 0.381097 0.381097
0.820931 0.381097 0.531154
0.820931 0.381097 0.643247
0.820931 0.381097 0.736137
0.820931 0.381097 0.816942
0.820931 0.381097 0.889260
0.820931 0.381097 0.955208
0.820931 0.381097 1.000000
0.835353 0.546949 0.006852
0.835353 0.546949 0.396893
0.835353 0.546949 0.546949
0.835353 0.546949 0.659042
0.835353 0.546949 0.751932
0.835353 0.546949 0.832737
0.835353 0.546949 0.905056
0.835353 0.546949 0.971004
0.835353 0.546949 1.000000
0.846126 0.670841 0.018652
0.846126 0.670841 0.408692
0.846126 0.670841 0.558748
0.846126 0.670841 0.670841
0.846126 0.670841 0.763732
0.846126 0.670841 0.844536
0.846126 0.670841 0.916855
0.846126 0.670841 0.982803
0.846126 0.670841 1.000000
0.855054 0.773509 0.028429
0.855054 0.773509 0.418470
0.855054 0.773509 0.568526
0.855054 0.773509 0.680619
0.855054 0.773509 0.773509
0.855054 0.773509 0.854314
0.855054 0.773509 0.926633
0.855054 0.773509 0.992581
0.855054 0.773509 1.000000
0.862820 0.862820 0.036935
0.862820 0.862820 0.426976
0.862820 0.862820 0.577032
0.862820 0.862820 0.689125
0.862820 0.862820 0.782015
0.862820 0.862820 0.862820
0.862820 0.862820 0.935139
0.862820 0.862820 1.000000
0.862820 0.862820 1.000000
0.869771 0.942751 0.044548
0.869771 0.942751 0.434588
0.869771 0.942751 0.584645
0.869771 0.942751 0.696737
0.869771 0.942751 0.789628
0.869771 0.942751 0.870432
0.869771 0.942751 0.942751
0.869771 0.942751 1.000000
0.869771 0.942751 1.000000
0.876109 1.000000 0.051490
0.876109 1.000000 0.441530
0.876109 1.000000 0.591587
0.876109 1.000000 0.703679
0.876109 1.000000 0.796570
0.876109 1.000000 0.877374
0.876109 1.000000 0.949693
0.876109 1.000000 1.000000
0.876109 1.000000 1.000000
0.881966 1.000000 0.057905
0.881966 1.000000 0.447945
0.881966 1.000000 0.598002
0.881966 1.000000 0.710095
0.881966 1.000000 0.802985
0.881966 1.000000 0.883790
0.881966 1.000000 0.956108
0.881966 1.000000 1.000000
0.881966 1.000000 1.000000
0.856425 0.000000 0.000000
0.856425 0.000000 0.340040
0.856425 0.000000 0.490097
0.856425 0.000000 0.602190
0.856425 0.000000 0.695080
0.856425 0.000000 0.775885
0.856425 0.000000 0.848203
0.856425 0.000000 0.914151
0.856425 0.000000 0.975095
0.893912 0.381097 0.000000
0.893912 0.381097 0.381097
0.893912 0.381097 0.531154
0.893912 0.381097 0.643247
0.893912 0.381097 0.736137
0.893912 0.381097 0.816942
0.893912 0.381097 0.889260
0.893912 0.381097 0.955208
0.893912 0.381097 1.000000
0.908334 0.546949 0.006852
0.908334 0.546949 0.396893
0.908334 0.546949 0.546949
0.908334 0.546949 0.659042
0.908334 0.546949 0.751932
0.908334 0.546949 0.832737
0.908334 0.546949 0.905056
0.908334 0.546949 0.971004
0.908334 0.546949 1.000000
0.919107 0.670841 0.018652
0.919107 0.670841 0.408692
0.919107 0.670841 0.558748
0.919107 0.670841 0.670841
0.919107 0.670841 0.763732
0.919107 0.670841 0.844536
0.919107 0.670841 0.916855
0.919107 0.670841 0.982803
0.919107 0.670841 1.000000
0.928034 0.773509 0.028429
0.928034 0.773509 0.418470
0.928034 0.773509 0.568526
0.928034 0.773509 0.680619
0.928034 0.773509 0.773509
0.928034 0.773509 0.854314
0.928034 0.773509 0.926633
0.928034 0.773509 0.992581
0.928034 0.773509 1.000000
0.935801 0.862820 0.036935
0.935801 0.862820 0.426976
0.935801 0.862820 0.577032
0.935801 0.862820 0.689125
0.935801 0.862820 0.782015
0.935801 0.862820 0.862820
0.935801 0.862820 0.935139
0.935801 0.862820 1.000000
0.935801 0.862820 1.000000
0.942751 0.942751 0.044548
0.942751 0.942751 0.434588
0.942751 0.942751 0.584645
0.942751 0.942751 0.696737
0.942751 0.942751 0.789628
0.942751 0.942751 0.870432
0.942751 0.942751 0.942751
0.942751 0.942751 1.000000
0.942751 0.942751 1.000000
0.949089 1.000000 0.051490
0.949089 1.000000 0.441530
0.949089 1.000000 0.591587
0.949089 1.000000 0.703679
0.949089 1.000000 0.796570
0.949089 1.000000 0.877374
0.949089 1.000000 0.949693
0.949089 1.000000 1.000000
0.949089 1.000000 1.000000
0.954947 1.000000 0.057905
0.954947 1.000000 0.447945
0.954947 1.000000 0.598002
0.954947 1.000000 0.710095
0.954947 1.000000 0.802985
0.954947 1.000000 0.883790
0.954947 1.000000 0.956108
0.954947 1.000000 1.000000
0.954947 1.000000 1.000000
0.922977 0.000000 0.000000
0.922977 0.000000 0.340040
0.922977 0.000000 0.490097
0.922977 0.000000 0.602190
0.922977 0.000000 0.695080
0.922977 0.000000 0.775885
0.922977 0.000000 0.848203
0.922977 0.000000 0.914151
0.922977 0.000000 0.975095
0.960463 0.381097 0.000000
0.960463 0.381097 0.381097
0.960463 0.381097 0.531154
0.960463 0.381097 0.643247
0.960463 0.381097 0.736137
0.960463 0.381097 0.816942
0.960463 0.381097 0.889260
0.960463 0.381097 0.955208
0.960463 0.381097 1.000000
0.974885 0.546949 0.006852
0.974885 0.546949 0.396893
0.974885 0.546949 0.546949
0.974885 0.546949 0.659042
0.974885 0.546949 0.751932
0.974885 0.546949 0.832737
0.974885 0.546949 0.905056
0.974885 0.546949 0.971004
0.974885 0.546949 1.000000
0.985659 0.670841 0.018652
0.985659 0.670841 0.408692
0.985659 0.670841 0.558748
0.985659 0.670841 0.670841
0.985659 0.670841 0.763732
0.985659 0.670841 0.844536
0.985659 0.670841 0.916855
0.985659 0.670841 0.982803
0.985659 0.670841 1.000000
0.994586 0.773509 0.028429
0.994586 0.773509 0.418470
0.994586 0.773509 0.568526
0.994586 0.773509 0.680619
0.994586 0.773509 0.773509
0.994586 0.773509 0.854314
0.994586 0.773509 0.926633
0.994586 0.773509 0.992581
0.994586 0.773509 1.000000
1.000000 0.862820 0.036935
1.000000 0.862820 0.426976
1.000000 0.862820 0.577032
1.000000 0.862820 0.689125
1.000000 0.862820 0.782015
1.000000 0.862820 0.862820
1.000000 0.862820 0.935139
1.000000 0.862820 1.000000
1.000000 0.862820 1.000000
1.000000 0.942751 0.044548
1.000000 0.942751 0.434588
1.000000 0.942751 0.584645
1.000000 0.942751 0.696737
1.000000 0.942751 0.789628
1.000000 0.942751 0.870432
1.000000 0.942751 0.942751
1.000000 0.942751 1.000000
1.000000 0.942751 1.000000
1.000000 1.000000 0.051490
1.000000 1.000000 0.441530
1.000000 1.000000 0.591587
1.000000 1.000000 0.703679
1.000000 1.000000 0.796570
1.000000 1.000000 0.877374
1.000000 1.000000 0.949693
1.000000 1.000000 1.000000
1.000000 1.000000 1.000000
1.000000 1.000000 0.057905
1.000000 1.000000 0.447945
1.000000 1.000000 0.598002
1.000000 1.000000 0.710095
1.000000 1.000000 0.802985
1.000000 1.000000 0.883790
1.000000 1.000000 0.956108
1.000000 1.000000 1.000000
1.000000 1.000000 1.000000
0.984478 0.000000 0.000000
0.984478 0.000000 0.340040
0.984478 0.000000 0.490097
0.984478 0.000000 0.602190
0.984478 0.000000 0.695080
0.984478 0.000000 0.775885
0.984478 0.000000 0.848203
0.984478 0.000000 0.914151
0.984478 0.000000 0.975095
1.000000 0.381097 0.000000
1.000000 0.381097 0.381097
1.000000 0.381097 0.531154
1.000000 0.381097 0.643247
1.000000 0.381097 0.736137
1.000000 0.381097 0.816942
1.000000 0.381097 0.889260
1.000000 0.381097 0.955208
1.000000 0.381097 1.000000
1.000000 0.546949 0.006852
1.000000 0.546949 0.396893
1.000000 0.546949 0.546949
1.000000 0.546949 0.659042
1.000000 0.546949 0.751932
1.000000 0.546949 0.832737
1.000000 0.546949 0.905056
1.000000 0.546949 0.971004
1.000000 0.546949 1.000000
1.000000 0.670841 0.018652
1.000000 0.670841 0.408692
1.000000 0.670841 0.558748
1.000000 0.670841 0.670841
1.000000 0.670841 0.763732
1.000000 0.670841 0.844536
1.000000 0.670841 0.916855
1.000000 0.670841 0.982803
1.000000 0.670841 1.000000
1.000000 0.773509 0.028429
1.000000 0.773509 0.418470
1.000000 0.773509 0.568526
1.000000 0.773509 0.680619
1.000000 0.773509 0.773509
1.000000 0.773509 0.854314
1.000000 0.773509 0.926633
1.000000 0.773509 0.992581
1.000000 0.773509 1.000000
1.000000 0.862820 0.036935
1.000000 0.862820 0.426976
1.000000 0.862820 0.577032
1.000000 0.862820 0.689125
1.000000 0.862820 0.782015
1.000000 0.862820 0.862820
1.000000 0.862820 0.935139
1.000000 0.862820 1.000000
1.000000 0.862820 1.000000
1.000000 0.942751 0.044548
1.000000 0.942751 0.434588
1.000000 0.942751 0.584645
1.000000 0.942751 0.696737
1.000000 0.942751 0.789628
1.000000 0.942751 0.870432
1.000000 0.942751 0.942751
1.000000 0.942751 1.000000
1.000000 0.942751 1.000000
1.000000 1.000000 0.051490
1.000000 1.000000 0.441530
1.000000 1.000000 0.591587
1.000000 1.000000 0.703679
1.000000 1.000000 0.796570
1.000000 1.000000 0.877374
1.000000 1.000000 0.949693
1.000000 1.000000 1.000000
1.000000 1.000000 1.000000
1.000000 1.000000 0.057905
1.000000 1.000000 0.447945
1.000000 1.000000 0.598002
1.000000 1.000000 0.710095
1.000000 1.000000 0.802985
1.000000 1.000000 0.883790
1.000000 1.000000 0.956108
1.000000 1.000000 1.000000
1.000000 1.000000 1.000000
