luts/warm-cinematic.cube
# Warm Cinematic
TITLE "Warm Cinematic"
LUT_3D_SIZE 17
0.000000 0.000000 0.000000
0.000000 0.000000 0.230193
0.000000 0.000000 0.340040
0.000000 0.000000 0.422097
0.000000 0.000000 0.490097
0.000000 0.000000 0.549249
0.000000 0.000000 0.602190
0.000000 0.000000 0.650467
0.000000 0.000000 0.695080
0.000000 0.000000 0.736720
0.000000 0.000000 0.775885
0.000000 0.000000 0.812949
0.000000 0.000000 0.848203
0.000000 0.000000 0.881876
0.000000 0.000000 0.914151
0.000000 0.000000 0.945182
0.000000 0.000000 0.975095
0.000000 0.259687 0.000000
0.000000 0.259687 0.259687
0.000000 0.259687 0.369534
0.000000 0.259687 0.451591
0.000000 0.259687 0.519591
0.000000 0.259687 0.578743
0.000000 0.259687 0.631684
0.000000 0.259687 0.679961
0.000000 0.259687 0.724574
0.000000 0.259687 0.766214
0.000000 0.259687 0.805379
0.000000 0.259687 0.842443
0.000000 0.259687 0.877697
0.000000 0.259687 0.911370
0.000000 0.259687 0.943645
0.000000 0.259687 0.974676
0.000000 0.259687 1.000000
0.000000 0.381097 0.000000
0.000000 0.381097 0.271250
0.000000 0.381097 0.381097
0.000000 0.381097 0.463154
0.000000 0.381097 0.531154
0.000000 0.381097 0.590306
0.000000 0.381097 0.643247
0.000000 0.381097 0.691523
0.000000 0.381097 0.736137
0.000000 0.381097 0.777777
0.000000 0.381097 0.816942
0.000000 0.381097 0.854006
0.000000 0.381097 0.889260
0.000000 0.381097 0.922933
0.000000 0.381097 0.955208
0.000000 0.381097 0.986239
0.000000 0.381097 1.000000
0.000000 0.471792 0.000000
0.000000 0.471792 0.279887
0.000000 0.471792 0.389735
0.000000 0.471792 0.471792
0.000000 0.471792 0.539791
0.000000 0.471792 0.598944
0.000000 0.471792 0.651884
0.000000 0.471792 0.700161
0.000000 0.471792 0.744774
0.000000 0.471792 0.786414
0.000000 0.471792 0.825579
0.000000 0.471792 0.862644
0.000000 0.471792 0.897898
0.000000 0.471792 0.931570
0.000000 0.471792 0.963846
0.000000 0.471792 0.994877
0.000000 0.471792 1.000000
0.001909 0.546949 0.006852
0.001909 0.546949 0.287045
0.001909 0.546949 0.396893
0.001909 0.546949 0.478950
0.001909 0.546949 0.546949
0.001909 0.546949 0.606102
0.001909 0.546949 0.659042
0.001909 0.546949 0.707319
0.001909 0.546949 0.751932
0.001909 0.546949 0.793572
0.001909 0.546949 0.832737
0.001909 0.546949 0.869802
0.001909 0.546949 0.905056
0.001909 0.546949 0.938728
0.001909 0.546949 0.971004
0.001909 0.546949 1.000000
0.001909 0.546949 1.000000
0.007594 0.612328 0.013079
0.007594 0.612328 0.293272
0.007594 0.612328 0.403119
0.007594 0.612328 0.485176
0.007594 0.612328 0.553176
0.007594 0.612328 0.612328
0.007594 0.612328 0.665269
0.007594 0.612328 0.713545
0.007594 0.612328 0.758159
0.007594 0.612328 0.799799
0.007594 0.612328 0.838964
0.007594 0.612328 0.876028
0.007594 0.612328 0.911282
0.007594 0.612328 0.944955
0.007594 0.612328 0.977230
0.007594 0.612328 1.000000
0.007594 0.612328 1.000000
0.012682 0.670841 0.018652
0.012682 0.670841 0.298844
0.012682 0.670841 0.408692
0.012682 0.670841 0.490749
0.012682 0.670841 0.558748
0.012682 0.670841 0.617901
0.012682 0.670841 0.670841
0.012682 0.670841 0.719118
0.012682 0.670841 0.763732
0.012682 0.670841 0.805371
0.012682 0.670841 0.844536
0.012682 0.670841 0.881601
0.012682 0.670841 0.916855
0.012682 0.670841 0.950527
0.012682 0.670841 0.982803
0.012682 0.670841 1.000000
0.012682 0.670841 1.000000
0.017322 0.724200 0.023733
0.017322 0.724200 0.303926
0.017322 0.724200 0.413774
0.017322 0.724200 0.495831
0.017322 0.724200 0.563830
0.017322 0.724200 0.622983
0.017322 0.724200 0.675923
0.017322 0.724200 0.724200
0.017322 0.724200 0.768813
0.017322 0.724200 0.810453
0.017322 0.724200 0.849618
0.017322 0.724200 0.886683
0.017322 0.724200 0.921937
0.017322 0.724200 0.955609
0.017322 0.724200 0.987885
0.017322 0.724200 1.000000
0.017322 0.724200 1.000000
0.021610 0.773509 0.028429
0.021610 0.773509 0.308622
0.021610 0.773509 0.418470
0.021610 0.773509 0.500527
0.021610 0.773509 0.568526
0.021610 0.773509 0.627679
0.021610 0.773509 0.680619
0.021610 0.773509 0.728896
0.021610 0.773509 0.773509
0.021610 0.773509 0.815149
0.021610 0.773509 0.854314
0.021610 0.773509 0.891379
0.021610 0.773509 0.926633
0.021610 0.773509 0.960305
0.021610 0.773509 0.992581
0.021610 0.773509 1.000000
0.021610 0.773509 1.000000
0.025612 0.819532 0.032813
0.025612 0.819532 0.313005
0.025612 0.819532 0.422853
0.025612 0.819532 0.504910
0.025612 0.819532 0.572909
0.025612 0.819532 0.632062
0.025612 0.819532 0.685002
0.025612 0.819532 0.733279
0.025612 0.819532 0.777893
0.025612 0.819532 0.819532
0.025612 0.819532 0.858697
0.025612 0.819532 0.895762
0.025612 0.819532 0.931016
0.025612 0.819532 0.964688
0.025612 0.819532 0.996964
0.025612 0.819532 1.000000
0.025612 0.819532 1.000000
0.029376 0.862820 0.036935
0.029376 0.862820 0.317128
0.029376 0.862820 0.426976
0.029376 0.862820 0.509032
0.029376 0.862820 0.577032
0.029376 0.862820 0.636185
0.029376 0.862820 0.689125
0.029376 0.862820 0.737402
0.029376 0.862820 0.782015
0.029376 0.862820 0.823655
0.029376 0.862820 0.862820
0.029376 0.862820 0.899885
0.029376 0.862820 0.935139
0.029376 0.862820 0.968811
0.029376 0.862820 1.000000
0.029376 0.862820 1.000000
0.029376 0.862820 1.000000
0.032938 0.903786 0.040837
0.032938 0.903786 0.321029
0.032938 0.903786 0.430877
0.032938 0.903786 0.512934
0.032938 0.903786 0.580934
0.032938 0.903786 0.640086
0.032938 0.903786 0.693027
0.032938 0.903786 0.741303
0.032938 0.903786 0.785917
0.032938 0.903786 0.827557
0.032938 0.903786 0.866722
0.032938 0.903786 0.903786
0.032938 0.903786 0.939040
0.032938 0.903786 0.972713
0.032938 0.903786 1.000000
0.032938 0.903786 1.000000
0.032938 0.903786 1.000000
0.036326 0.942751 0.044548
0.036326 0.942751 0.324740
0.036326 0.942751 0.434588
0.036326 0.942751 0.516645
0.036326 0.942751 0.584645
0.036326 0.942751 0.643797
0.036326 0.942751 0.696737
0.036326 0.942751 0.745014
0.036326 0.942751 0.789628
0.036326 0.942751 0.831268
0.036326 0.942751 0.870432
0.036326 0.942751 0.907497
0.036326 0.942751 0.942751
0.036326 0.942751 0.976423
0.036326 0.942751 1.000000
0.036326 0.942751 1.000000
0.036326 0.942751 1.000000
0.039562 0.979968 0.048092
0.039562 0.979968 0.328285
0.039562 0.979968 0.438133
0.039562 0.979968 0.520189
0.039562 0.979968 0.588189
0.039562 0.979968 0.647342
0.039562 0.979968 0.700282
0.039562 0.979968 0.748559
0.039562 0.979968 0.793172
0.039562 0.979968 0.834812
0.039562 0.979968 0.873977
0.039562 0.979968 0.911042
0.039562 0.979968 0.946296
0.039562 0.979968 0.979968
0.039562 0.979968 1.000000
0.039562 0.979968 1.000000
0.039562 0.979968 1.000000
0.042664 1.000000 0.051490
0.042664 1.000000 0.331682
0.042664 1.000000 0.441530
0.042664 1.000000 0.523587
0.042664 1.000000 0.591587
0.042664 1.000000 0.650739
0.042664 1.000000 0.703679
0.042664 1.000000 0.751956
0.042664 1.000000 0.796570
0.042664 1.000000 0.838209
0.042664 1.000000 0.877374
0.042664 1.000000 0.914439
0.042664 1.000000 0.949693
0.042664 1.000000 0.983365
0.042664 1.000000 1.000000
0.042664 1.000000 1.000000
0.042664 1.000000 1.000000
0.045647 1.000000 0.054756
0.045647 1.000000 0.334949
0.045647 1.000000 0.444796
0.045647 1.000000 0.526853
0.045647 1.000000 0.594853
0.045647 1.000000 0.654005
0.045647 1.000000 0.706946
0.045647 1.000000 0.755223
0.045647 1.000000 0.799836
0.045647 1.000000 0.841476
0.045647 1.000000 0.880641
0.045647 1.000000 0.917706
0.045647 1.000000 0.952959
0.045647 1.000000 0.986632
0.045647 1.000000 1.000000
0.045647 1.000000 1.000000
0.045647 1.000000 1.000000
0.048522 1.000000 0.057905
0.048522 1.000000 0.338097
0.048522 1.000000 0.447945
0.048522 1.000000 0.530002
0.048522 1.000000 0.598002
0.048522 1.000000 0.657154
0.048522 1.000000 0.710095
0.048522 1.000000 0.758371
0.048522 1.000000 0.802985
0.048522 1.000000 0.844625
0.048522 1.000000 0.883790
0.048522 1.000000 0.920854
0.048522 1.000000 0.956108
0.048522 1.000000 0.989781
0.048522 1.000000 1.000000
0.048522 1.000000 1.000000
0.048522 1.000000 1.000000
0.232757 0.000000 0.000000
0.232757 0.000000 0.230193
0.232757 0.000000 0.340040
0.232757 0.000000 0.422097
0.232757 0.000000 0.490097
0.232757 0.000000 0.549249
0.232757 0.000000 0.602190
0.232757 0.000000 0.650467
0.232757 0.000000 0.695080
0.232757 0.000000 0.736720
0.232757 0.000000 0.775885
0.232757 0.000000 0.812949
0.232757 0.000000 0.848203
0.232757 0.000000 0.881876
0.232757 0.000000 0.914151
0.232757 0.000000 0.945182
0.232757 0.000000 0.975095
0.259687 0.259687 0.000000
0.259687 0.259687 0.259687
0.259687 0.259687 0.369534
0.259687 0.259687 0.451591
0.259687 0.259687 0.519591
0.259687 0.259687 0.578743
0.259687 0.259687 0.631684
0.259687 0.259687 0.679961
0.259687 0.259687 0.724574
0.259687 0.259687 0.766214
0.259687 0.259687 0.805379
0.259687 0.259687 0.842443
0.259687 0.259687 0.877697
0.259687 0.259687 0.911370
0.259687 0.259687 0.943645
0.259687 0.259687 0.974676
0.259687 0.259687 1.000000
0.270244 0.381097 0.000000
0.270244 0.381097 0.271250
0.270244 0.381097 0.381097
0.270244 0.381097 0.463154
0.270244 0.381097 0.531154
0.270244 0.381097 0.590306
0.270244 0.381097 0.643247
0.270244 0.381097 0.691523
0.270244 0.381097 0.736137
0.270244 0.381097 0.777777
0.270244 0.381097 0.816942
0.270244 0.381097 0.854006
0.270244 0.381097 0.889260
0.270244 0.381097 0.922933
0.270244 0.381097 0.955208
0.270244 0.381097 0.986239
0.270244 0.381097 1.000000
0.278131 0.471792 0.000000
0.278131 0.471792 0.279887
0.278131 0.471792 0.389735
0.278131 0.471792 0.471792
0.278131 0.471792 0.539791
0.278131 0.471792 0.598944
0.278131 0.471792 0.651884
0.278131 0.471792 0.700161
0.278131 0.471792 0.744774
0.278131 0.471792 0.786414
0.278131 0.471792 0.825579
0.278131 0.471792 0.862644
0.278131 0.471792 0.897898
0.278131 0.471792 0.931570
0.278131 0.471792 0.963846
0.278131 0.471792 0.994877
0.278131 0.471792 1.000000
0.284666 0.546949 0.006852
0.284666 0.546949 0.287045
0.284666 0.546949 0.396893
0.284666 0.546949 0.478950
0.284666 0.546949 0.546949
0.284666 0.546949 0.606102
0.284666 0.546949 0.659042
0.284666 0.546949 0.707319
0.284666 0.546949 0.751932
0.284666 0.546949 0.793572
0.284666 0.546949 0.832737
0.284666 0.546949 0.869802
0.284666 0.546949 0.905056
0.284666 0.546949 0.938728
0.284666 0.546949 0.971004
0.284666 0.546949 1.000000
0.284666 0.546949 1.000000
0.290351 0.612328 0.013079
0.290351 0.612328 0.293272
0.290351 0.612328 0.403119
0.290351 0.612328 0.485176
0.290351 0.612328 0.553176
0.290351 0.612328 0.612328
0.290351 0.612328 0.665269
0.290351 0.612328 0.713545
0.290351 0.612328 0.758159
0.290351 0.612328 0.799799
0.290351 0.612328 0.838964
0.290351 0.612328 0.876028
0.290351 0.612328 0.911282
0.290351 0.612328 0.944955
0.290351 0.612328 0.977230
0.290351 0.612328 1.000000
0.290351 0.612328 1.000000
0.295439 0.670841 0.018652
0.295439 0.670841 0.298844
0.295439 0.670841 0.408692
0.295439 0.670841 0.490749
0.295439 0.670841 0.558748
0.295439 0.670841 0.617901
0.295439 0.670841 0.670841
0.295439 0.670841 0.719118
0.295439 0.670841 0.763732
0.295439 0.670841 0.805371
0.295439 0.670841 0.844536
0.295439 0.670841 0.881601
0.295439 0.670841 0.916855
0.295439 0.670841 0.950527
0.295439 0.670841 0.982803
0.295439 0.670841 1.000000
0.295439 0.670841 1.000000
0.300079 0.724200 0.023733
0.300079 0.724200 0.303926
0.300079 0.724200 0.413774
0.300079 0.724200 0.495831
0.300079 0.724200 0.563830
0.300079 0.724200 0.622983
0.300079 0.724200 0.675923
0.300079 0.724200 0.724200
0.300079 0.724200 0.768813
0.300079 0.724200 0.810453
0.300079 0.724200 0.849618
0.300079 0.724200 0.886683
0.300079 0.724200 0.921937
0.300079 0.724200 0.955609
0.300079 0.724200 0.987885
0.300079 0.724200 1.000000
0.300079 0.724200 1.000000
0.304367 0.773509 0.028429
0.304367 0.773509 0.308622
0.304367 0.773509 0.418470
0.304367 0.773509 0.500527
0.304367 0.773509 0.568526
0.304367 0.773509 0.627679
0.304367 0.773509 0.680619
0.304367 0.773509 0.728896
0.304367 0.773509 0.773509
0.304367 0.773509 0.815149
0.304367 0.773509 0.854314
0.304367 0.773509 0.891379
0.304367 0.773509 0.926633
0.304367 0.773509 0.960305
0.304367 0.773509 0.992581
0.304367 0.773509 1.000000
0.304367 0.773509 1.000000
0.308369 0.819532 0.032813
0.308369 0.819532 0.313005
0.308369 0.819532 0.422853
0.308369 0.819532 0.504910
0.308369 0.819532 0.572909
0.308369 0.819532 0.632062
0.308369 0.819532 0.685002
0.308369 0.819532 0.733279
0.308369 0.819532 0.777893
0.308369 0.819532 0.819532
0.308369 0.819532 0.858697
0.308369 0.819532 0.895762
0.308369 0.819532 0.931016
0.308369 0.819532 0.964688
0.308369 0.819532 0.996964
0.308369 0.819532 1.000000
0.308369 0.819532 1.000000
0.312133 0.862820 0.036935
0.312133 0.862820 0.317128
0.312133 0.862820 0.426976
0.312133 0.862820 0.509032
0.312133 0.862820 0.577032
0.312133 0.862820 0.636185
0.312133 0.862820 0.689125
0.312133 0.862820 0.737402
0.312133 0.862820 0.782015
0.312133 0.862820 0.823655
0.312133 0.862820 0.862820
0.312133 0.862820 0.899885
0.312133 0.862820 0.935139
0.312133 0.862820 0.968811
0.312133 0.862820 1.000000
0.312133 0.862820 1.000000
0.312133 0.862820 1.000000
0.315695 0.903786 0.040837
0.315695 0.903786 0.321029
0.315695 0.903786 0.430877
0.315695 0.903786 0.512934
0.315695 0.903786 0.580934
0.315695 0.903786 0.640086
0.315695 0.903786 0.693027
0.315695 0.903786 0.741303
0.315695 0.903786 0.785917
0.315695 0.903786 0.827557
0.315695 0.903786 0.866722
0.315695 0.903786 0.903786
0.315695 0.903786 0.939040
0.315695 0.903786 0.972713
0.315695 0.903786 1.000000
0.315695 0.903786 1.000000
0.315695 0.903786 1.000000
0.319084 0.942751 0.044548
0.319084 0.942751 0.324740
0.319084 0.942751 0.434588
0.319084 0.942751 0.516645
0.319084 0.942751 0.584645
0.319084 0.942751 0.643797
0.319084 0.942751 0.696737
0.319084 0.942751 0.745014
0.319084 0.942751 0.789628
0.319084 0.942751 0.831268
0.319084 0.942751 0.870432
0.319084 0.942751 0.907497
0.319084 0.942751 0.942751
0.319084 0.942751 0.976423
0.319084 0.942751 1.000000
0.319084 0.942751 1.000000
0.319084 0.942751 1.000000
0.322320 0.979968 0.048092
0.322320 0.979968 0.328285
0.322320 0.979968 0.438133
0.322320 0.979968 0.520189
0.322320 0.979968 0.588189
0.322320 0.979968 0.647342
0.322320 0.979968 0.700282
0.322320 0.979968 0.748559
0.322320 0.979968 0.793172
0.322320 0.979968 0.834812
0.322320 0.979968 0.873977
0.322320 0.979968 0.911042
0.322320 0.979968 0.946296
0.322320 0.979968 0.979968
0.322320 0.979968 1.000000
0.322320 0.979968 1.000000
0.322320 0.979968 1.000000
0.325422 1.000000 0.051490
0.325422 1.000000 0.331682
0.325422 1.000000 0.441530
0.325422 1.000000 0.523587
0.325422 1.000000 0.591587
0.325422 1.000000 0.650739
0.325422 1.000000 0.703679
0.325422 1.000000 0.751956
0.325422 1.000000 0.796570
0.325422 1.000000 0.838209
0.325422 1.000000 0.877374
0.325422 1.000000 0.914439
0.325422 1.000000 0.949693
0.325422 1.000000 0.983365
0.325422 1.000000 1.000000
0.325422 1.000000 1.000000
0.325422 1.000000 1.000000
0.328404 1.000000 0.054756
0.328404 1.000000 0.334949
0.328404 1.000000 0.444796
0.328404 1.000000 0.526853
0.328404 1.000000 0.594853
0.328404 1.000000 0.654005
0.328404 1.000000 0.706946
0.328404 1.000000 0.755223
0.328404 1.000000 0.799836
0.328404 1.000000 0.841476
0.328404 1.000000 0.880641
0.328404 1.000000 0.917706
0.328404 1.000000 0.952959
0.328404 1.000000 0.986632
0.328404 1.000000 1.000000
0.328404 1.000000 1.000000
0.328404 1.000000 1.000000
0.331279 1.000000 0.057905
0.331279 1.000000 0.338097
0.331279 1.000000 0.447945
0.331279 1.000000 0.530002
0.331279 1.000000 0.598002
0.331279 1.000000 0.657154
0.331279 1.000000 0.710095
0.331279 1.000000 0.758371
0.331279 1.000000 0.802985
0.331279 1.000000 0.844625
0.331279 1.000000 0.883790
0.331279 1.000000 0.920854
0.331279 1.000000 0.956108
0.331279 1.000000 0.989781
0.331279 1.000000 1.000000
0.331279 1.000000 1.000000
0.331279 1.000000 1.000000
0.343611 0.000000 0.000000
0.343611 0.000000 0.230193
0.343611 0.000000 0.340040
0.343611 0.000000 0.422097
0.343611 0.000000 0.490097
0.343611 0.000000 0.549249
0.343611 0.000000 0.602190
0.343611 0.000000 0.650467
0.343611 0.000000 0.695080
0.343611 0.000000 0.736720
0.343611 0.000000 0.775885
0.343611 0.000000 0.812949
0.343611 0.000000 0.848203
0.343611 0.000000 0.881876
0.343611 0.000000 0.914151
0.343611 0.000000 0.945182
0.343611 0.000000 0.975095
0.370540 0.259687 0.000000
0.370540 0.259687 0.259687
0.370540 0.259687 0.369534
0.370540 0.259687 0.451591
0.370540 0.259687 0.519591
0.370540 0.259687 0.578743
0.370540 0.259687 0.631684
0.370540 0.259687 0.679961
0.370540 0.259687 0.724574
0.370540 0.259687 0.766214
0.370540 0.259687 0.805379
0.370540 0.259687 0.842443
0.370540 0.259687 0.877697
0.370540 0.259687 0.911370
0.370540 0.259687 0.943645
0.370540 0.259687 0.974676
0.370540 0.259687 1.000000
0.381097 0.381097 0.000000
0.381097 0.381097 0.271250
0.381097 0.381097 0.381097
0.381097 0.381097 0.463154
0.381097 0.381097 0.531154
0.381097 0.381097 0.590306
0.381097 0.381097 0.643247
0.381097 0.381097 0.691523
0.381097 0.381097 0.736137
0.381097 0.381097 0.777777
0.381097 0.381097 0.816942
0.381097 0.381097 0.854006
0.381097 0.381097 0.889260
0.381097 0.381097 0.922933
0.381097 0.381097 0.955208
0.381097 0.381097 0.986239
0.381097 0.381097 1.000000
0.388984 0.471792 0.000000
0.388984 0.471792 0.279887
0.388984 0.471792 0.389735
0.388984 0.471792 0.471792
0.388984 0.471792 0.539791
0.388984 0.471792 0.598944
0.388984 0.471792 0.651884
0.388984 0.471792 0.700161
0.388984 0.471792 0.744774
0.388984 0.471792 0.786414
0.388984 0.471792 0.825579
0.388984 0.471792 0.862644
0.388984 0.471792 0.897898
0.388984 0.471792 0.931570
0.388984 0.471792 0.963846
0.388984 0.471792 0.994877
0.388984 0.471792 1.000000
0.395519 0.546949 0.006852
0.395519 0.546949 0.287045
0.395519 0.546949 0.396893
0.395519 0.546949 0.478950
0.395519 0.546949 0.546949
0.395519 0.546949 0.606102
0.395519 0.546949 0.659042
0.395519 0.546949 0.707319
0.395519 0.546949 0.751932
0.395519 0.546949 0.793572
0.395519 0.546949 0.832737
0.395519 0.546949 0.869802
0.395519 0.546949 0.905056
0.395519 0.546949 0.938728
0.395519 0.546949 0.971004
0.395519 0.546949 1.000000
0.395519 0.546949 1.000000
0.401204 0.612328 0.013079
0.401204 0.612328 0.293272
0.401204 0.612328 0.403119
0.401204 0.612328 0.485176
0.401204 0.612328 0.553176
0.401204 0.612328 0.612328
0.401204 0.612328 0.665269
0.401204 0.612328 0.713545
0.401204 0.612328 0.758159
0.401204 0.612328 0.799799
0.401204 0.612328 0.838964
0.401204 0.612328 0.876028
0.401204 0.612328 0.911282
0.401204 0.612328 0.944955
0.401204 0.612328 0.977230
0.401204 0.612328 1.000000
0.401204 0.612328 1.000000
0.406292 0.670841 0.018652
0.406292 0.670841 0.298844
0.406292 0.670841 0.408692
0.406292 0.670841 0.490749
0.406292 0.670841 0.558748
0.406292 0.670841 0.617901
0.406292 0.670841 0.670841
0.406292 0.670841 0.719118
0.406292 0.670841 0.763732
0.406292 0.670841 0.805371
0.406292 0.670841 0.844536
0.406292 0.670841 0.881601
0.406292 0.670841 0.916855
0.406292 0.670841 0.950527
0.406292 0.670841 0.982803
0.406292 0.670841 1.000000
0.406292 0.670841 1.000000
0.410932 0.724200 0.023733
0.410932 0.724200 0.303926
0.410932 0.724200 0.413774
0.410932 0.724200 0.495831
0.410932 0.724200 0.563830
0.410932 0.724200 0.622983
0.410932 0.724200 0.675923
0.410932 0.724200 0.724200
0.410932 0.724200 0.768813
0.410932 0.724200 0.810453
0.410932 0.724200 0.849618
0.410932 0.724200 0.886683
0.410932 0.724200 0.921937
0.410932 0.724200 0.955609
0.410932 0.724200 0.987885
0.410932 0.724200 1.000000
0.410932 0.724200 1.000000
0.415220 0.773509 0.028429
0.415220 0.773509 0.308622
0.415220 0.773509 0.418470
0.415220 0.773509 0.500527
0.415220 0.773509 0.568526
0.415220 0.773509 0.627679
0.415220 0.773509 0.680619
0.415220 0.773509 0.728896
0.415220 0.773509 0.773509
0.415220 0.773509 0.815149
0.415220 0.773509 0.854314
0.415220 0.773509 0.891379
0.415220 0.773509 0.926633
0.415220 0.773509 0.960305
0.415220 0.773509 0.992581
0.415220 0.773509 1.000000
0.415220 0.773509 1.000000
0.419222 0.819532 0.032813
0.419222 0.819532 0.313005
0.419222 0.819532 0.422853
0.419222 0.819532 0.504910
0.419222 0.819532 0.572909
0.419222 0.819532 0.632062
0.419222 0.819532 0.685002
0.419222 0.819532 0.733279
0.419222 0.819532 0.777893
0.419222 0.819532 0.819532
0.419222 0.819532 0.858697
0.419222 0.819532 0.895762
0.419222 0.819532 0.931016
0.419222 0.819532 0.964688
0.419222 0.819532 0.996964
0.419222 0.819532 1.000000
0.419222 0.819532 1.000000
0.422986 0.862820 0.036935
0.422986 0.862820 0.317128
0.422986 0.862820 0.426976
0.422986 0.862820 0.509032
0.422986 0.862820 0.577032
0.422986 0.862820 0.636185
0.422986 0.862820 0.689125
0.422986 0.862820 0.737402
0.422986 0.862820 0.782015
0.422986 0.862820 0.823655
0.422986 0.862820 0.862820
0.422986 0.862820 0.899885
0.422986 0.862820 0.935139
0.422986 0.862820 0.968811
0.422986 0.862820 1.000000
0.422986 0.862820 1.000000
0.422986 0.862820 1.000000
0.426549 0.903786 0.040837
0.426549 0.903786 0.321029
0.426549 0.903786 0.430877
0.426549 0.903786 0.512934
0.426549 0.903786 0.580934
0.426549 0.903786 0.640086
0.426549 0.903786 0.693027
0.426549 0.903786 0.741303
0.426549 0.903786 0.785917
0.426549 0.903786 0.827557
0.426549 0.903786 0.866722
0.426549 0.903786 0.903786
0.426549 0.903786 0.939040
0.426549 0.903786 0.972713
0.426549 0.903786 1.000000
0.426549 0.903786 1.000000
0.426549 0.903786 1.000000
0.429937 0.942751 0.044548
0.429937 0.942751 0.324740
0.429937 0.942751 0.434588
0.429937 0.942751 0.516645
0.429937 0.942751 0.584645
0.429937 0.942751 0.643797
0.429937 0.942751 0.696737
0.429937 0.942751 0.745014
0.429937 0.942751 0.789628
0.429937 0.942751 0.831268
0.429937 0.942751 0.870432
0.429937 0.942751 0.907497
0.429937 0.942751 0.942751
0.429937 0.942751 0.976423
0.429937 0.942751 1.000000
0.429937 0.942751 1.000000
0.429937 0.942751 1.000000
0.433173 0.979968 0.048092
0.433173 0.979968 0.328285
0.433173 0.979968 0.438133
0.433173 0.979968 0.520189
0.433173 0.979968 0.588189
0.433173 0.979968 0.647342
0.433173 0.979968 0.700282
0.433173 0.979968 0.748559
0.433173 0.979968 0.793172
0.433173 0.979968 0.834812
0.433173 0.979968 0.873977
0.433173 0.979968 0.911042
0.433173 0.979968 0.946296
0.433173 0.979968 0.979968
0.433173 0.979968 1.000000
0.433173 0.979968 1.000000
0.433173 0.979968 1.000000
0.436275 1.000000 0.051490
0.436275 1.000000 0.331682
0.436275 1.000000 0.441530
0.436275 1.000000 0.523587
0.436275 1.000000 0.591587
0.436275 1.000000 0.650739
0.436275 1.000000 0.703679
0.436275 1.000000 0.751956
0.436275 1.000000 0.796570
0.436275 1.000000 0.838209
0.436275 1.000000 0.877374
0.436275 1.000000 0.914439
0.436275 1.000000 0.949693
0.436275 1.000000 0.983365
0.436275 1.000000 1.000000
0.436275 1.000000 1.000000
0.436275 1.000000 1.000000
0.439257 1.000000 0.054756
0.439257 1.000000 0.334949
0.439257 1.000000 0.444796
0.439257 1.000000 0.526853
0.439257 1.000000 0.594853
0.439257 1.000000 0.654005
0.439257 1.000000 0.706946
0.439257 1.000000 0.755223
0.439257 1.000000 0.799836
0.439257 1.000000 0.841476
0.439257 1.000000 0.880641
0.439257 1.000000 0.917706
0.439257 1.000000 0.952959
0.439257 1.000000 0.986632
0.439257 1.000000 1.000000
0.439257 1.000000 1.000000
0.439257 1.000000 1.000000
0.442132 1.000000 0.057905
0.442132 1.000000 0.338097
0.442132 1.000000 0.447945
0.442132 1.000000 0.530002
0.442132 1.000000 0.598002
0.442132 1.000000 0.657154
0.442132 1.000000 0.710095
0.442132 1.000000 0.758371
0.442132 1.000000 0.802985
0.442132 1.000000 0.844625
0.442132 1.000000 0.883790
0.442132 1.000000 0.920854
0.442132 1.000000 0.956108
0.442132 1.000000 0.989781
0.442132 1.000000 1.000000
0.442132 1.000000 1.000000
0.442132 1.000000 1.000000
0.426418 0.000000 0.000000
0.426418 0.000000 0.230193
0.426418 0.000000 0.340040
0.426418 0.000000 0.422097
0.426418 0.000000 0.490097
0.426418 0.000000 0.549249
0.426418 0.000000 0.602190
0.426418 0.000000 0.650467
0.426418 0.000000 0.695080
0.426418 0.000000 0.736720
0.426418 0.000000 0.775885
0.426418 0.000000 0.812949
0.426418 0.000000 0.848203
0.426418 0.000000 0.881876
0.426418 0.000000 0.914151
0.426418 0.000000 0.945182
0.426418 0.000000 0.975095
0.453348 0.259687 0.000000
0.453348 0.259687 0.259687
